(Design File: C..Users.msidell.VIASAT.s.carbide.WordClock4.c2d)
(stockMin:0.00mm, 0.00mm, -13.50mm)
(stockMax:406.40mm, 406.40mm, 0.00mm)
(STOCK/BLOCK,406.40, 406.40, 13.50,0.00, 0.00, 13.50)
G90
G21
(Move to safe Z to avoid workholding)
G53G0Z-5.000
(holes.-.Pocket)
M05
(TOOL/MILL,6.35, 0.00, 0.00, 0.00)
M6T201
M03S18000
(PREPOSITION FOR RAPID PLUNGE)
G0X185.40Y384.72
Z12.70
G1Z-1.52F381.0
Y387.02F2286.0
X187.70
Y384.72
X185.40
X182.22Y381.55
Y390.19
X190.88
Y381.55
X182.22
Z12.70
G0X185.40Y384.72
Z-0.76
G1Z-3.05F381.0
Y387.02F2286.0
X187.70
Y384.72
X185.40
X182.22Y381.55
Y390.19
X190.88
Y381.55
X182.22
Z12.70
G0X185.40Y384.72
Z-2.29
G1Z-4.57F381.0
Y387.02F2286.0
X187.70
Y384.72
X185.40
X182.22Y381.55
Y390.19
X190.88
Y381.55
X182.22
Z12.70
G0X185.40Y384.72
Z-3.81
G1Z-6.10F381.0
Y387.02F2286.0
X187.70
Y384.72
X185.40
X182.22Y381.55
Y390.19
X190.88
Y381.55
X182.22
Z12.70
G0X185.40Y384.72
Z-5.33
G1Z-7.62F381.0
Y387.02F2286.0
X187.70
Y384.72
X185.40
X182.22Y381.55
Y390.19
X190.88
Y381.55
X182.22
Z12.70
G0X185.40Y384.72
Z-6.86
G1Z-9.14F381.0
Y387.02F2286.0
X187.70
Y384.72
X185.40
X182.22Y381.55
Y390.19
X190.88
Y381.55
X182.22
Z12.70
G0X185.40Y384.72
Z-8.38
G1Z-10.67F381.0
Y387.02F2286.0
X187.70
Y384.72
X185.40
X182.22Y381.55
Y390.19
X190.88
Y381.55
X182.22
Z12.70
G0X185.40Y384.72
Z-9.91
G1Z-12.19F381.0
Y387.02F2286.0
X187.70
Y384.72
X185.40
X182.22Y381.55
Y390.19
X190.88
Y381.55
X182.22
Z12.70
G0X185.40Y384.72
Z-11.21
G1Z-13.50F381.0
Y387.02F2286.0
X187.70
Y384.72
X185.40
X182.22Y381.55
Y390.19
X190.88
Y381.55
X182.22
Z12.70
G0X185.40Y351.50
G1Z-1.52F381.0
Y353.80F2286.0
X187.70
Y351.50
X185.40
X182.22Y348.32
Y356.98
X190.88
Y348.32
X182.22
Z12.70
G0X185.40Y351.50
Z-0.76
G1Z-3.05F381.0
Y353.80F2286.0
X187.70
Y351.50
X185.40
X182.22Y348.32
Y356.98
X190.88
Y348.32
X182.22
Z12.70
G0X185.40Y351.50
Z-2.29
G1Z-4.57F381.0
Y353.80F2286.0
X187.70
Y351.50
X185.40
X182.22Y348.32
Y356.98
X190.88
Y348.32
X182.22
Z12.70
G0X185.40Y351.50
Z-3.81
G1Z-6.10F381.0
Y353.80F2286.0
X187.70
Y351.50
X185.40
X182.22Y348.32
Y356.98
X190.88
Y348.32
X182.22
Z12.70
G0X185.40Y351.50
Z-5.33
G1Z-7.62F381.0
Y353.80F2286.0
X187.70
Y351.50
X185.40
X182.22Y348.32
Y356.98
X190.88
Y348.32
X182.22
Z12.70
G0X185.40Y351.50
Z-6.86
G1Z-9.14F381.0
Y353.80F2286.0
X187.70
Y351.50
X185.40
X182.22Y348.32
Y356.98
X190.88
Y348.32
X182.22
Z12.70
G0X185.40Y351.50
Z-8.38
G1Z-10.67F381.0
Y353.80F2286.0
X187.70
Y351.50
X185.40
X182.22Y348.32
Y356.98
X190.88
Y348.32
X182.22
Z12.70
G0X185.40Y351.50
Z-9.91
G1Z-12.19F381.0
Y353.80F2286.0
X187.70
Y351.50
X185.40
X182.22Y348.32
Y356.98
X190.88
Y348.32
X182.22
Z12.70
G0X185.40Y351.50
Z-11.21
G1Z-13.50F381.0
Y353.80F2286.0
X187.70
Y351.50
X185.40
X182.22Y348.32
Y356.98
X190.88
Y348.32
X182.22
Z12.70
G0X185.40Y318.28
G1Z-1.52F381.0
Y320.58F2286.0
X187.70
Y318.28
X185.40
X182.22Y315.11
Y323.75
X190.88
Y315.11
X182.22
Z12.70
G0X185.40Y318.28
Z-0.76
G1Z-3.05F381.0
Y320.58F2286.0
X187.70
Y318.28
X185.40
X182.22Y315.11
Y323.75
X190.88
Y315.11
X182.22
Z12.70
G0X185.40Y318.28
Z-2.29
G1Z-4.57F381.0
Y320.58F2286.0
X187.70
Y318.28
X185.40
X182.22Y315.11
Y323.75
X190.88
Y315.11
X182.22
Z12.70
G0X185.40Y318.28
Z-3.81
G1Z-6.10F381.0
Y320.58F2286.0
X187.70
Y318.28
X185.40
X182.22Y315.11
Y323.75
X190.88
Y315.11
X182.22
Z12.70
G0X185.40Y318.28
Z-5.33
G1Z-7.62F381.0
Y320.58F2286.0
X187.70
Y318.28
X185.40
X182.22Y315.11
Y323.75
X190.88
Y315.11
X182.22
Z12.70
G0X185.40Y318.28
Z-6.86
G1Z-9.14F381.0
Y320.58F2286.0
X187.70
Y318.28
X185.40
X182.22Y315.11
Y323.75
X190.88
Y315.11
X182.22
Z12.70
G0X185.40Y318.28
Z-8.38
G1Z-10.67F381.0
Y320.58F2286.0
X187.70
Y318.28
X185.40
X182.22Y315.11
Y323.75
X190.88
Y315.11
X182.22
Z12.70
G0X185.40Y318.28
Z-9.91
G1Z-12.19F381.0
Y320.58F2286.0
X187.70
Y318.28
X185.40
X182.22Y315.11
Y323.75
X190.88
Y315.11
X182.22
Z12.70
G0X185.40Y318.28
Z-11.21
G1Z-13.50F381.0
Y320.58F2286.0
X187.70
Y318.28
X185.40
X182.22Y315.11
Y323.75
X190.88
Y315.11
X182.22
Z12.70
G0X185.40Y285.06
G1Z-1.52F381.0
Y287.36F2286.0
X187.70
Y285.06
X185.40
X182.22Y281.88
Y290.54
X190.88
Y281.88
X182.22
Z12.70
G0X185.40Y285.06
Z-0.76
G1Z-3.05F381.0
Y287.36F2286.0
X187.70
Y285.06
X185.40
X182.22Y281.88
Y290.54
X190.88
Y281.88
X182.22
Z12.70
G0X185.40Y285.06
Z-2.29
G1Z-4.57F381.0
Y287.36F2286.0
X187.70
Y285.06
X185.40
X182.22Y281.88
Y290.54
X190.88
Y281.88
X182.22
Z12.70
G0X185.40Y285.06
Z-3.81
G1Z-6.10F381.0
Y287.36F2286.0
X187.70
Y285.06
X185.40
X182.22Y281.88
Y290.54
X190.88
Y281.88
X182.22
Z12.70
G0X185.40Y285.06
Z-5.33
G1Z-7.62F381.0
Y287.36F2286.0
X187.70
Y285.06
X185.40
X182.22Y281.88
Y290.54
X190.88
Y281.88
X182.22
Z12.70
G0X185.40Y285.06
Z-6.86
G1Z-9.14F381.0
Y287.36F2286.0
X187.70
Y285.06
X185.40
X182.22Y281.88
Y290.54
X190.88
Y281.88
X182.22
Z12.70
G0X185.40Y285.06
Z-8.38
G1Z-10.67F381.0
Y287.36F2286.0
X187.70
Y285.06
X185.40
X182.22Y281.88
Y290.54
X190.88
Y281.88
X182.22
Z12.70
G0X185.40Y285.06
Z-9.91
G1Z-12.19F381.0
Y287.36F2286.0
X187.70
Y285.06
X185.40
X182.22Y281.88
Y290.54
X190.88
Y281.88
X182.22
Z12.70
G0X185.40Y285.06
Z-11.21
G1Z-13.50F381.0
Y287.36F2286.0
X187.70
Y285.06
X185.40
X182.22Y281.88
Y290.54
X190.88
Y281.88
X182.22
Z12.70
G0X185.40Y251.84
G1Z-1.52F381.0
Y254.14F2286.0
X187.70
Y251.84
X185.40
X182.22Y248.66
Y257.31
X190.88
Y248.66
X182.22
Z12.70
G0X185.40Y251.84
Z-0.76
G1Z-3.05F381.0
Y254.14F2286.0
X187.70
Y251.84
X185.40
X182.22Y248.66
Y257.31
X190.88
Y248.66
X182.22
Z12.70
G0X185.40Y251.84
Z-2.29
G1Z-4.57F381.0
Y254.14F2286.0
X187.70
Y251.84
X185.40
X182.22Y248.66
Y257.31
X190.88
Y248.66
X182.22
Z12.70
G0X185.40Y251.84
Z-3.81
G1Z-6.10F381.0
Y254.14F2286.0
X187.70
Y251.84
X185.40
X182.22Y248.66
Y257.31
X190.88
Y248.66
X182.22
Z12.70
G0X185.40Y251.84
Z-5.33
G1Z-7.62F381.0
Y254.14F2286.0
X187.70
Y251.84
X185.40
X182.22Y248.66
Y257.31
X190.88
Y248.66
X182.22
Z12.70
G0X185.40Y251.84
Z-6.86
G1Z-9.14F381.0
Y254.14F2286.0
X187.70
Y251.84
X185.40
X182.22Y248.66
Y257.31
X190.88
Y248.66
X182.22
Z12.70
G0X185.40Y251.84
Z-8.38
G1Z-10.67F381.0
Y254.14F2286.0
X187.70
Y251.84
X185.40
X182.22Y248.66
Y257.31
X190.88
Y248.66
X182.22
Z12.70
G0X185.40Y251.84
Z-9.91
G1Z-12.19F381.0
Y254.14F2286.0
X187.70
Y251.84
X185.40
X182.22Y248.66
Y257.31
X190.88
Y248.66
X182.22
Z12.70
G0X185.40Y251.84
Z-11.21
G1Z-13.50F381.0
Y254.14F2286.0
X187.70
Y251.84
X185.40
X182.22Y248.66
Y257.31
X190.88
Y248.66
X182.22
Z12.70
G0X152.18Y251.84
G1Z-1.52F381.0
Y254.14F2286.0
X154.48
Y251.84
X152.18
X149.00Y248.66
Y257.31
X157.65
Y248.66
X149.00
Z12.70
G0X152.18Y251.84
Z-0.76
G1Z-3.05F381.0
Y254.14F2286.0
X154.48
Y251.84
X152.18
X149.00Y248.66
Y257.31
X157.65
Y248.66
X149.00
Z12.70
G0X152.18Y251.84
Z-2.29
G1Z-4.57F381.0
Y254.14F2286.0
X154.48
Y251.84
X152.18
X149.00Y248.66
Y257.31
X157.65
Y248.66
X149.00
Z12.70
G0X152.18Y251.84
Z-3.81
G1Z-6.10F381.0
Y254.14F2286.0
X154.48
Y251.84
X152.18
X149.00Y248.66
Y257.31
X157.65
Y248.66
X149.00
Z12.70
G0X152.18Y251.84
Z-5.33
G1Z-7.62F381.0
Y254.14F2286.0
X154.48
Y251.84
X152.18
X149.00Y248.66
Y257.31
X157.65
Y248.66
X149.00
Z12.70
G0X152.18Y251.84
Z-6.86
G1Z-9.14F381.0
Y254.14F2286.0
X154.48
Y251.84
X152.18
X149.00Y248.66
Y257.31
X157.65
Y248.66
X149.00
Z12.70
G0X152.18Y251.84
Z-8.38
G1Z-10.67F381.0
Y254.14F2286.0
X154.48
Y251.84
X152.18
X149.00Y248.66
Y257.31
X157.65
Y248.66
X149.00
Z12.70
G0X152.18Y251.84
Z-9.91
G1Z-12.19F381.0
Y254.14F2286.0
X154.48
Y251.84
X152.18
X149.00Y248.66
Y257.31
X157.65
Y248.66
X149.00
Z12.70
G0X152.18Y251.84
Z-11.21
G1Z-13.50F381.0
Y254.14F2286.0
X154.48
Y251.84
X152.18
X149.00Y248.66
Y257.31
X157.65
Y248.66
X149.00
Z12.70
G0X118.96Y251.84
G1Z-1.52F381.0
Y254.14F2286.0
X121.26
Y251.84
X118.96
X115.78Y248.66
Y257.31
X124.44
Y248.66
X115.78
Z12.70
G0X118.96Y251.84
Z-0.76
G1Z-3.05F381.0
Y254.14F2286.0
X121.26
Y251.84
X118.96
X115.78Y248.66
Y257.31
X124.44
Y248.66
X115.78
Z12.70
G0X118.96Y251.84
Z-2.29
G1Z-4.57F381.0
Y254.14F2286.0
X121.26
Y251.84
X118.96
X115.78Y248.66
Y257.31
X124.44
Y248.66
X115.78
Z12.70
G0X118.96Y251.84
Z-3.81
G1Z-6.10F381.0
Y254.14F2286.0
X121.26
Y251.84
X118.96
X115.78Y248.66
Y257.31
X124.44
Y248.66
X115.78
Z12.70
G0X118.96Y251.84
Z-5.33
G1Z-7.62F381.0
Y254.14F2286.0
X121.26
Y251.84
X118.96
X115.78Y248.66
Y257.31
X124.44
Y248.66
X115.78
Z12.70
G0X118.96Y251.84
Z-6.86
G1Z-9.14F381.0
Y254.14F2286.0
X121.26
Y251.84
X118.96
X115.78Y248.66
Y257.31
X124.44
Y248.66
X115.78
Z12.70
G0X118.96Y251.84
Z-8.38
G1Z-10.67F381.0
Y254.14F2286.0
X121.26
Y251.84
X118.96
X115.78Y248.66
Y257.31
X124.44
Y248.66
X115.78
Z12.70
G0X118.96Y251.84
Z-9.91
G1Z-12.19F381.0
Y254.14F2286.0
X121.26
Y251.84
X118.96
X115.78Y248.66
Y257.31
X124.44
Y248.66
X115.78
Z12.70
G0X118.96Y251.84
Z-11.21
G1Z-13.50F381.0
Y254.14F2286.0
X121.26
Y251.84
X118.96
X115.78Y248.66
Y257.31
X124.44
Y248.66
X115.78
Z12.70
G0X85.74Y251.84
G1Z-1.52F381.0
Y254.14F2286.0
X88.04
Y251.84
X85.74
X82.56Y248.66
Y257.31
X91.22
Y248.66
X82.56
Z12.70
G0X85.74Y251.84
Z-0.76
G1Z-3.05F381.0
Y254.14F2286.0
X88.04
Y251.84
X85.74
X82.56Y248.66
Y257.31
X91.22
Y248.66
X82.56
Z12.70
G0X85.74Y251.84
Z-2.29
G1Z-4.57F381.0
Y254.14F2286.0
X88.04
Y251.84
X85.74
X82.56Y248.66
Y257.31
X91.22
Y248.66
X82.56
Z12.70
G0X85.74Y251.84
Z-3.81
G1Z-6.10F381.0
Y254.14F2286.0
X88.04
Y251.84
X85.74
X82.56Y248.66
Y257.31
X91.22
Y248.66
X82.56
Z12.70
G0X85.74Y251.84
Z-5.33
G1Z-7.62F381.0
Y254.14F2286.0
X88.04
Y251.84
X85.74
X82.56Y248.66
Y257.31
X91.22
Y248.66
X82.56
Z12.70
G0X85.74Y251.84
Z-6.86
G1Z-9.14F381.0
Y254.14F2286.0
X88.04
Y251.84
X85.74
X82.56Y248.66
Y257.31
X91.22
Y248.66
X82.56
Z12.70
G0X85.74Y251.84
Z-8.38
G1Z-10.67F381.0
Y254.14F2286.0
X88.04
Y251.84
X85.74
X82.56Y248.66
Y257.31
X91.22
Y248.66
X82.56
Z12.70
G0X85.74Y251.84
Z-9.91
G1Z-12.19F381.0
Y254.14F2286.0
X88.04
Y251.84
X85.74
X82.56Y248.66
Y257.31
X91.22
Y248.66
X82.56
Z12.70
G0X85.74Y251.84
Z-11.21
G1Z-13.50F381.0
Y254.14F2286.0
X88.04
Y251.84
X85.74
X82.56Y248.66
Y257.31
X91.22
Y248.66
X82.56
Z12.70
G0X52.52Y251.84
G1Z-1.52F381.0
Y254.14F2286.0
X54.82
Y251.84
X52.52
X49.34Y248.66
Y257.31
X57.99
Y248.66
X49.34
Z12.70
G0X52.52Y251.84
Z-0.76
G1Z-3.05F381.0
Y254.14F2286.0
X54.82
Y251.84
X52.52
X49.34Y248.66
Y257.31
X57.99
Y248.66
X49.34
Z12.70
G0X52.52Y251.84
Z-2.29
G1Z-4.57F381.0
Y254.14F2286.0
X54.82
Y251.84
X52.52
X49.34Y248.66
Y257.31
X57.99
Y248.66
X49.34
Z12.70
G0X52.52Y251.84
Z-3.81
G1Z-6.10F381.0
Y254.14F2286.0
X54.82
Y251.84
X52.52
X49.34Y248.66
Y257.31
X57.99
Y248.66
X49.34
Z12.70
G0X52.52Y251.84
Z-5.33
G1Z-7.62F381.0
Y254.14F2286.0
X54.82
Y251.84
X52.52
X49.34Y248.66
Y257.31
X57.99
Y248.66
X49.34
Z12.70
G0X52.52Y251.84
Z-6.86
G1Z-9.14F381.0
Y254.14F2286.0
X54.82
Y251.84
X52.52
X49.34Y248.66
Y257.31
X57.99
Y248.66
X49.34
Z12.70
G0X52.52Y251.84
Z-8.38
G1Z-10.67F381.0
Y254.14F2286.0
X54.82
Y251.84
X52.52
X49.34Y248.66
Y257.31
X57.99
Y248.66
X49.34
Z12.70
G0X52.52Y251.84
Z-9.91
G1Z-12.19F381.0
Y254.14F2286.0
X54.82
Y251.84
X52.52
X49.34Y248.66
Y257.31
X57.99
Y248.66
X49.34
Z12.70
G0X52.52Y251.84
Z-11.21
G1Z-13.50F381.0
Y254.14F2286.0
X54.82
Y251.84
X52.52
X49.34Y248.66
Y257.31
X57.99
Y248.66
X49.34
Z12.70
G0X19.30Y251.84
G1Z-1.52F381.0
Y254.14F2286.0
X21.60
Y251.84
X19.30
X16.13Y248.66
Y257.31
X24.77
Y248.66
X16.13
Z12.70
G0X19.30Y251.84
Z-0.76
G1Z-3.05F381.0
Y254.14F2286.0
X21.60
Y251.84
X19.30
X16.13Y248.66
Y257.31
X24.77
Y248.66
X16.13
Z12.70
G0X19.30Y251.84
Z-2.29
G1Z-4.57F381.0
Y254.14F2286.0
X21.60
Y251.84
X19.30
X16.13Y248.66
Y257.31
X24.77
Y248.66
X16.13
Z12.70
G0X19.30Y251.84
Z-3.81
G1Z-6.10F381.0
Y254.14F2286.0
X21.60
Y251.84
X19.30
X16.13Y248.66
Y257.31
X24.77
Y248.66
X16.13
Z12.70
G0X19.30Y251.84
Z-5.33
G1Z-7.62F381.0
Y254.14F2286.0
X21.60
Y251.84
X19.30
X16.13Y248.66
Y257.31
X24.77
Y248.66
X16.13
Z12.70
G0X19.30Y251.84
Z-6.86
G1Z-9.14F381.0
Y254.14F2286.0
X21.60
Y251.84
X19.30
X16.13Y248.66
Y257.31
X24.77
Y248.66
X16.13
Z12.70
G0X19.30Y251.84
Z-8.38
G1Z-10.67F381.0
Y254.14F2286.0
X21.60
Y251.84
X19.30
X16.13Y248.66
Y257.31
X24.77
Y248.66
X16.13
Z12.70
G0X19.30Y251.84
Z-9.91
G1Z-12.19F381.0
Y254.14F2286.0
X21.60
Y251.84
X19.30
X16.13Y248.66
Y257.31
X24.77
Y248.66
X16.13
Z12.70
G0X19.30Y251.84
Z-11.21
G1Z-13.50F381.0
Y254.14F2286.0
X21.60
Y251.84
X19.30
X16.13Y248.66
Y257.31
X24.77
Y248.66
X16.13
Z12.70
G0X19.30Y218.62
G1Z-1.52F381.0
Y220.92F2286.0
X21.60
Y218.62
X19.30
X16.13Y215.44
Y224.09
X24.77
Y215.44
X16.13
Z12.70
G0X19.30Y218.62
Z-0.76
G1Z-3.05F381.0
Y220.92F2286.0
X21.60
Y218.62
X19.30
X16.13Y215.44
Y224.09
X24.77
Y215.44
X16.13
Z12.70
G0X19.30Y218.62
Z-2.29
G1Z-4.57F381.0
Y220.92F2286.0
X21.60
Y218.62
X19.30
X16.13Y215.44
Y224.09
X24.77
Y215.44
X16.13
Z12.70
G0X19.30Y218.62
Z-3.81
G1Z-6.10F381.0
Y220.92F2286.0
X21.60
Y218.62
X19.30
X16.13Y215.44
Y224.09
X24.77
Y215.44
X16.13
Z12.70
G0X19.30Y218.62
Z-5.33
G1Z-7.62F381.0
Y220.92F2286.0
X21.60
Y218.62
X19.30
X16.13Y215.44
Y224.09
X24.77
Y215.44
X16.13
Z12.70
G0X19.30Y218.62
Z-6.86
G1Z-9.14F381.0
Y220.92F2286.0
X21.60
Y218.62
X19.30
X16.13Y215.44
Y224.09
X24.77
Y215.44
X16.13
Z12.70
G0X19.30Y218.62
Z-8.38
G1Z-10.67F381.0
Y220.92F2286.0
X21.60
Y218.62
X19.30
X16.13Y215.44
Y224.09
X24.77
Y215.44
X16.13
Z12.70
G0X19.30Y218.62
Z-9.91
G1Z-12.19F381.0
Y220.92F2286.0
X21.60
Y218.62
X19.30
X16.13Y215.44
Y224.09
X24.77
Y215.44
X16.13
Z12.70
G0X19.30Y218.62
Z-11.21
G1Z-13.50F381.0
Y220.92F2286.0
X21.60
Y218.62
X19.30
X16.13Y215.44
Y224.09
X24.77
Y215.44
X16.13
Z12.70
G0X19.30Y185.40
G1Z-1.52F381.0
Y187.70F2286.0
X21.60
Y185.40
X19.30
X16.13Y182.22
Y190.88
X24.77
Y182.22
X16.13
Z12.70
G0X19.30Y185.40
Z-0.76
G1Z-3.05F381.0
Y187.70F2286.0
X21.60
Y185.40
X19.30
X16.13Y182.22
Y190.88
X24.77
Y182.22
X16.13
Z12.70
G0X19.30Y185.40
Z-2.29
G1Z-4.57F381.0
Y187.70F2286.0
X21.60
Y185.40
X19.30
X16.13Y182.22
Y190.88
X24.77
Y182.22
X16.13
Z12.70
G0X19.30Y185.40
Z-3.81
G1Z-6.10F381.0
Y187.70F2286.0
X21.60
Y185.40
X19.30
X16.13Y182.22
Y190.88
X24.77
Y182.22
X16.13
Z12.70
G0X19.30Y185.40
Z-5.33
G1Z-7.62F381.0
Y187.70F2286.0
X21.60
Y185.40
X19.30
X16.13Y182.22
Y190.88
X24.77
Y182.22
X16.13
Z12.70
G0X19.30Y185.40
Z-6.86
G1Z-9.14F381.0
Y187.70F2286.0
X21.60
Y185.40
X19.30
X16.13Y182.22
Y190.88
X24.77
Y182.22
X16.13
Z12.70
G0X19.30Y185.40
Z-8.38
G1Z-10.67F381.0
Y187.70F2286.0
X21.60
Y185.40
X19.30
X16.13Y182.22
Y190.88
X24.77
Y182.22
X16.13
Z12.70
G0X19.30Y185.40
Z-9.91
G1Z-12.19F381.0
Y187.70F2286.0
X21.60
Y185.40
X19.30
X16.13Y182.22
Y190.88
X24.77
Y182.22
X16.13
Z12.70
G0X19.30Y185.40
Z-11.21
G1Z-13.50F381.0
Y187.70F2286.0
X21.60
Y185.40
X19.30
X16.13Y182.22
Y190.88
X24.77
Y182.22
X16.13
Z12.70
G0X19.30Y152.18
G1Z-1.52F381.0
Y154.48F2286.0
X21.60
Y152.18
X19.30
X16.13Y149.00
Y157.65
X24.77
Y149.00
X16.13
Z12.70
G0X19.30Y152.18
Z-0.76
G1Z-3.05F381.0
Y154.48F2286.0
X21.60
Y152.18
X19.30
X16.13Y149.00
Y157.65
X24.77
Y149.00
X16.13
Z12.70
G0X19.30Y152.18
Z-2.29
G1Z-4.57F381.0
Y154.48F2286.0
X21.60
Y152.18
X19.30
X16.13Y149.00
Y157.65
X24.77
Y149.00
X16.13
Z12.70
G0X19.30Y152.18
Z-3.81
G1Z-6.10F381.0
Y154.48F2286.0
X21.60
Y152.18
X19.30
X16.13Y149.00
Y157.65
X24.77
Y149.00
X16.13
Z12.70
G0X19.30Y152.18
Z-5.33
G1Z-7.62F381.0
Y154.48F2286.0
X21.60
Y152.18
X19.30
X16.13Y149.00
Y157.65
X24.77
Y149.00
X16.13
Z12.70
G0X19.30Y152.18
Z-6.86
G1Z-9.14F381.0
Y154.48F2286.0
X21.60
Y152.18
X19.30
X16.13Y149.00
Y157.65
X24.77
Y149.00
X16.13
Z12.70
G0X19.30Y152.18
Z-8.38
G1Z-10.67F381.0
Y154.48F2286.0
X21.60
Y152.18
X19.30
X16.13Y149.00
Y157.65
X24.77
Y149.00
X16.13
Z12.70
G0X19.30Y152.18
Z-9.91
G1Z-12.19F381.0
Y154.48F2286.0
X21.60
Y152.18
X19.30
X16.13Y149.00
Y157.65
X24.77
Y149.00
X16.13
Z12.70
G0X19.30Y152.18
Z-11.21
G1Z-13.50F381.0
Y154.48F2286.0
X21.60
Y152.18
X19.30
X16.13Y149.00
Y157.65
X24.77
Y149.00
X16.13
Z12.70
G0X19.30Y118.96
G1Z-1.52F381.0
Y121.26F2286.0
X21.60
Y118.96
X19.30
X16.13Y115.78
Y124.44
X24.77
Y115.78
X16.13
Z12.70
G0X19.30Y118.96
Z-0.76
G1Z-3.05F381.0
Y121.26F2286.0
X21.60
Y118.96
X19.30
X16.13Y115.78
Y124.44
X24.77
Y115.78
X16.13
Z12.70
G0X19.30Y118.96
Z-2.29
G1Z-4.57F381.0
Y121.26F2286.0
X21.60
Y118.96
X19.30
X16.13Y115.78
Y124.44
X24.77
Y115.78
X16.13
Z12.70
G0X19.30Y118.96
Z-3.81
G1Z-6.10F381.0
Y121.26F2286.0
X21.60
Y118.96
X19.30
X16.13Y115.78
Y124.44
X24.77
Y115.78
X16.13
Z12.70
G0X19.30Y118.96
Z-5.33
G1Z-7.62F381.0
Y121.26F2286.0
X21.60
Y118.96
X19.30
X16.13Y115.78
Y124.44
X24.77
Y115.78
X16.13
Z12.70
G0X19.30Y118.96
Z-6.86
G1Z-9.14F381.0
Y121.26F2286.0
X21.60
Y118.96
X19.30
X16.13Y115.78
Y124.44
X24.77
Y115.78
X16.13
Z12.70
G0X19.30Y118.96
Z-8.38
G1Z-10.67F381.0
Y121.26F2286.0
X21.60
Y118.96
X19.30
X16.13Y115.78
Y124.44
X24.77
Y115.78
X16.13
Z12.70
G0X19.30Y118.96
Z-9.91
G1Z-12.19F381.0
Y121.26F2286.0
X21.60
Y118.96
X19.30
X16.13Y115.78
Y124.44
X24.77
Y115.78
X16.13
Z12.70
G0X19.30Y118.96
Z-11.21
G1Z-13.50F381.0
Y121.26F2286.0
X21.60
Y118.96
X19.30
X16.13Y115.78
Y124.44
X24.77
Y115.78
X16.13
Z12.70
G0X19.30Y85.74
G1Z-1.52F381.0
Y88.04F2286.0
X21.60
Y85.74
X19.30
X16.13Y82.56
Y91.21
X24.77
Y82.56
X16.13
Z12.70
G0X19.30Y85.74
Z-0.76
G1Z-3.05F381.0
Y88.04F2286.0
X21.60
Y85.74
X19.30
X16.13Y82.56
Y91.21
X24.77
Y82.56
X16.13
Z12.70
G0X19.30Y85.74
Z-2.29
G1Z-4.57F381.0
Y88.04F2286.0
X21.60
Y85.74
X19.30
X16.13Y82.56
Y91.21
X24.77
Y82.56
X16.13
Z12.70
G0X19.30Y85.74
Z-3.81
G1Z-6.10F381.0
Y88.04F2286.0
X21.60
Y85.74
X19.30
X16.13Y82.56
Y91.21
X24.77
Y82.56
X16.13
Z12.70
G0X19.30Y85.74
Z-5.33
G1Z-7.62F381.0
Y88.04F2286.0
X21.60
Y85.74
X19.30
X16.13Y82.56
Y91.21
X24.77
Y82.56
X16.13
Z12.70
G0X19.30Y85.74
Z-6.86
G1Z-9.14F381.0
Y88.04F2286.0
X21.60
Y85.74
X19.30
X16.13Y82.56
Y91.21
X24.77
Y82.56
X16.13
Z12.70
G0X19.30Y85.74
Z-8.38
G1Z-10.67F381.0
Y88.04F2286.0
X21.60
Y85.74
X19.30
X16.13Y82.56
Y91.21
X24.77
Y82.56
X16.13
Z12.70
G0X19.30Y85.74
Z-9.91
G1Z-12.19F381.0
Y88.04F2286.0
X21.60
Y85.74
X19.30
X16.13Y82.56
Y91.21
X24.77
Y82.56
X16.13
Z12.70
G0X19.30Y85.74
Z-11.21
G1Z-13.50F381.0
Y88.04F2286.0
X21.60
Y85.74
X19.30
X16.13Y82.56
Y91.21
X24.77
Y82.56
X16.13
Z12.70
G0X19.30Y52.52
G1Z-1.52F381.0
Y54.82F2286.0
X21.60
Y52.52
X19.30
X16.13Y49.34
Y57.99
X24.77
Y49.34
X16.13
Z12.70
G0X19.30Y52.52
Z-0.76
G1Z-3.05F381.0
Y54.82F2286.0
X21.60
Y52.52
X19.30
X16.13Y49.34
Y57.99
X24.77
Y49.34
X16.13
Z12.70
G0X19.30Y52.52
Z-2.29
G1Z-4.57F381.0
Y54.82F2286.0
X21.60
Y52.52
X19.30
X16.13Y49.34
Y57.99
X24.77
Y49.34
X16.13
Z12.70
G0X19.30Y52.52
Z-3.81
G1Z-6.10F381.0
Y54.82F2286.0
X21.60
Y52.52
X19.30
X16.13Y49.34
Y57.99
X24.77
Y49.34
X16.13
Z12.70
G0X19.30Y52.52
Z-5.33
G1Z-7.62F381.0
Y54.82F2286.0
X21.60
Y52.52
X19.30
X16.13Y49.34
Y57.99
X24.77
Y49.34
X16.13
Z12.70
G0X19.30Y52.52
Z-6.86
G1Z-9.14F381.0
Y54.82F2286.0
X21.60
Y52.52
X19.30
X16.13Y49.34
Y57.99
X24.77
Y49.34
X16.13
Z12.70
G0X19.30Y52.52
Z-8.38
G1Z-10.67F381.0
Y54.82F2286.0
X21.60
Y52.52
X19.30
X16.13Y49.34
Y57.99
X24.77
Y49.34
X16.13
Z12.70
G0X19.30Y52.52
Z-9.91
G1Z-12.19F381.0
Y54.82F2286.0
X21.60
Y52.52
X19.30
X16.13Y49.34
Y57.99
X24.77
Y49.34
X16.13
Z12.70
G0X19.30Y52.52
Z-11.21
G1Z-13.50F381.0
Y54.82F2286.0
X21.60
Y52.52
X19.30
X16.13Y49.34
Y57.99
X24.77
Y49.34
X16.13
Z12.70
G0X19.30Y19.30
G1Z-1.52F381.0
Y21.60F2286.0
X21.60
Y19.30
X19.30
X16.13Y16.12
Y24.77
X24.77
Y16.12
X16.13
Z12.70
G0X19.30Y19.30
Z-0.76
G1Z-3.05F381.0
Y21.60F2286.0
X21.60
Y19.30
X19.30
X16.13Y16.12
Y24.77
X24.77
Y16.12
X16.13
Z12.70
G0X19.30Y19.30
Z-2.29
G1Z-4.57F381.0
Y21.60F2286.0
X21.60
Y19.30
X19.30
X16.13Y16.12
Y24.77
X24.77
Y16.12
X16.13
Z12.70
G0X19.30Y19.30
Z-3.81
G1Z-6.10F381.0
Y21.60F2286.0
X21.60
Y19.30
X19.30
X16.13Y16.12
Y24.77
X24.77
Y16.12
X16.13
Z12.70
G0X19.30Y19.30
Z-5.33
G1Z-7.62F381.0
Y21.60F2286.0
X21.60
Y19.30
X19.30
X16.13Y16.12
Y24.77
X24.77
Y16.12
X16.13
Z12.70
G0X19.30Y19.30
Z-6.86
G1Z-9.14F381.0
Y21.60F2286.0
X21.60
Y19.30
X19.30
X16.13Y16.12
Y24.77
X24.77
Y16.12
X16.13
Z12.70
G0X19.30Y19.30
Z-8.38
G1Z-10.67F381.0
Y21.60F2286.0
X21.60
Y19.30
X19.30
X16.13Y16.12
Y24.77
X24.77
Y16.12
X16.13
Z12.70
G0X19.30Y19.30
Z-9.91
G1Z-12.19F381.0
Y21.60F2286.0
X21.60
Y19.30
X19.30
X16.13Y16.12
Y24.77
X24.77
Y16.12
X16.13
Z12.70
G0X19.30Y19.30
Z-11.21
G1Z-13.50F381.0
Y21.60F2286.0
X21.60
Y19.30
X19.30
X16.13Y16.12
Y24.77
X24.77
Y16.12
X16.13
Z12.70
G0X52.52Y19.30
G1Z-1.52F381.0
Y21.60F2286.0
X54.82
Y19.30
X52.52
X49.34Y16.12
Y24.77
X57.99
Y16.12
X49.34
Z12.70
G0X52.52Y19.30
Z-0.76
G1Z-3.05F381.0
Y21.60F2286.0
X54.82
Y19.30
X52.52
X49.34Y16.12
Y24.77
X57.99
Y16.12
X49.34
Z12.70
G0X52.52Y19.30
Z-2.29
G1Z-4.57F381.0
Y21.60F2286.0
X54.82
Y19.30
X52.52
X49.34Y16.12
Y24.77
X57.99
Y16.12
X49.34
Z12.70
G0X52.52Y19.30
Z-3.81
G1Z-6.10F381.0
Y21.60F2286.0
X54.82
Y19.30
X52.52
X49.34Y16.12
Y24.77
X57.99
Y16.12
X49.34
Z12.70
G0X52.52Y19.30
Z-5.33
G1Z-7.62F381.0
Y21.60F2286.0
X54.82
Y19.30
X52.52
X49.34Y16.12
Y24.77
X57.99
Y16.12
X49.34
Z12.70
G0X52.52Y19.30
Z-6.86
G1Z-9.14F381.0
Y21.60F2286.0
X54.82
Y19.30
X52.52
X49.34Y16.12
Y24.77
X57.99
Y16.12
X49.34
Z12.70
G0X52.52Y19.30
Z-8.38
G1Z-10.67F381.0
Y21.60F2286.0
X54.82
Y19.30
X52.52
X49.34Y16.12
Y24.77
X57.99
Y16.12
X49.34
Z12.70
G0X52.52Y19.30
Z-9.91
G1Z-12.19F381.0
Y21.60F2286.0
X54.82
Y19.30
X52.52
X49.34Y16.12
Y24.77
X57.99
Y16.12
X49.34
Z12.70
G0X52.52Y19.30
Z-11.21
G1Z-13.50F381.0
Y21.60F2286.0
X54.82
Y19.30
X52.52
X49.34Y16.12
Y24.77
X57.99
Y16.12
X49.34
Z12.70
G0X85.74Y19.30
G1Z-1.52F381.0
Y21.60F2286.0
X88.04
Y19.30
X85.74
X82.56Y16.12
Y24.77
X91.22
Y16.12
X82.56
Z12.70
G0X85.74Y19.30
Z-0.76
G1Z-3.05F381.0
Y21.60F2286.0
X88.04
Y19.30
X85.74
X82.56Y16.12
Y24.77
X91.22
Y16.12
X82.56
Z12.70
G0X85.74Y19.30
Z-2.29
G1Z-4.57F381.0
Y21.60F2286.0
X88.04
Y19.30
X85.74
X82.56Y16.12
Y24.77
X91.22
Y16.12
X82.56
Z12.70
G0X85.74Y19.30
Z-3.81
G1Z-6.10F381.0
Y21.60F2286.0
X88.04
Y19.30
X85.74
X82.56Y16.12
Y24.77
X91.22
Y16.12
X82.56
Z12.70
G0X85.74Y19.30
Z-5.33
G1Z-7.62F381.0
Y21.60F2286.0
X88.04
Y19.30
X85.74
X82.56Y16.12
Y24.77
X91.22
Y16.12
X82.56
Z12.70
G0X85.74Y19.30
Z-6.86
G1Z-9.14F381.0
Y21.60F2286.0
X88.04
Y19.30
X85.74
X82.56Y16.12
Y24.77
X91.22
Y16.12
X82.56
Z12.70
G0X85.74Y19.30
Z-8.38
G1Z-10.67F381.0
Y21.60F2286.0
X88.04
Y19.30
X85.74
X82.56Y16.12
Y24.77
X91.22
Y16.12
X82.56
Z12.70
G0X85.74Y19.30
Z-9.91
G1Z-12.19F381.0
Y21.60F2286.0
X88.04
Y19.30
X85.74
X82.56Y16.12
Y24.77
X91.22
Y16.12
X82.56
Z12.70
G0X85.74Y19.30
Z-11.21
G1Z-13.50F381.0
Y21.60F2286.0
X88.04
Y19.30
X85.74
X82.56Y16.12
Y24.77
X91.22
Y16.12
X82.56
Z12.70
G0X118.96Y19.30
G1Z-1.52F381.0
Y21.60F2286.0
X121.26
Y19.30
X118.96
X115.78Y16.12
Y24.77
X124.44
Y16.12
X115.78
Z12.70
G0X118.96Y19.30
Z-0.76
G1Z-3.05F381.0
Y21.60F2286.0
X121.26
Y19.30
X118.96
X115.78Y16.12
Y24.77
X124.44
Y16.12
X115.78
Z12.70
G0X118.96Y19.30
Z-2.29
G1Z-4.57F381.0
Y21.60F2286.0
X121.26
Y19.30
X118.96
X115.78Y16.12
Y24.77
X124.44
Y16.12
X115.78
Z12.70
G0X118.96Y19.30
Z-3.81
G1Z-6.10F381.0
Y21.60F2286.0
X121.26
Y19.30
X118.96
X115.78Y16.12
Y24.77
X124.44
Y16.12
X115.78
Z12.70
G0X118.96Y19.30
Z-5.33
G1Z-7.62F381.0
Y21.60F2286.0
X121.26
Y19.30
X118.96
X115.78Y16.12
Y24.77
X124.44
Y16.12
X115.78
Z12.70
G0X118.96Y19.30
Z-6.86
G1Z-9.14F381.0
Y21.60F2286.0
X121.26
Y19.30
X118.96
X115.78Y16.12
Y24.77
X124.44
Y16.12
X115.78
Z12.70
G0X118.96Y19.30
Z-8.38
G1Z-10.67F381.0
Y21.60F2286.0
X121.26
Y19.30
X118.96
X115.78Y16.12
Y24.77
X124.44
Y16.12
X115.78
Z12.70
G0X118.96Y19.30
Z-9.91
G1Z-12.19F381.0
Y21.60F2286.0
X121.26
Y19.30
X118.96
X115.78Y16.12
Y24.77
X124.44
Y16.12
X115.78
Z12.70
G0X118.96Y19.30
Z-11.21
G1Z-13.50F381.0
Y21.60F2286.0
X121.26
Y19.30
X118.96
X115.78Y16.12
Y24.77
X124.44
Y16.12
X115.78
Z12.70
G0X152.18Y19.30
G1Z-1.52F381.0
Y21.60F2286.0
X154.48
Y19.30
X152.18
X149.00Y16.12
Y24.77
X157.65
Y16.12
X149.00
Z12.70
G0X152.18Y19.30
Z-0.76
G1Z-3.05F381.0
Y21.60F2286.0
X154.48
Y19.30
X152.18
X149.00Y16.12
Y24.77
X157.65
Y16.12
X149.00
Z12.70
G0X152.18Y19.30
Z-2.29
G1Z-4.57F381.0
Y21.60F2286.0
X154.48
Y19.30
X152.18
X149.00Y16.12
Y24.77
X157.65
Y16.12
X149.00
Z12.70
G0X152.18Y19.30
Z-3.81
G1Z-6.10F381.0
Y21.60F2286.0
X154.48
Y19.30
X152.18
X149.00Y16.12
Y24.77
X157.65
Y16.12
X149.00
Z12.70
G0X152.18Y19.30
Z-5.33
G1Z-7.62F381.0
Y21.60F2286.0
X154.48
Y19.30
X152.18
X149.00Y16.12
Y24.77
X157.65
Y16.12
X149.00
Z12.70
G0X152.18Y19.30
Z-6.86
G1Z-9.14F381.0
Y21.60F2286.0
X154.48
Y19.30
X152.18
X149.00Y16.12
Y24.77
X157.65
Y16.12
X149.00
Z12.70
G0X152.18Y19.30
Z-8.38
G1Z-10.67F381.0
Y21.60F2286.0
X154.48
Y19.30
X152.18
X149.00Y16.12
Y24.77
X157.65
Y16.12
X149.00
Z12.70
G0X152.18Y19.30
Z-9.91
G1Z-12.19F381.0
Y21.60F2286.0
X154.48
Y19.30
X152.18
X149.00Y16.12
Y24.77
X157.65
Y16.12
X149.00
Z12.70
G0X152.18Y19.30
Z-11.21
G1Z-13.50F381.0
Y21.60F2286.0
X154.48
Y19.30
X152.18
X149.00Y16.12
Y24.77
X157.65
Y16.12
X149.00
Z12.70
G0X185.40Y19.30
G1Z-1.52F381.0
Y21.60F2286.0
X187.70
Y19.30
X185.40
X182.22Y16.12
Y24.77
X190.88
Y16.12
X182.22
Z12.70
G0X185.40Y19.30
Z-0.76
G1Z-3.05F381.0
Y21.60F2286.0
X187.70
Y19.30
X185.40
X182.22Y16.12
Y24.77
X190.88
Y16.12
X182.22
Z12.70
G0X185.40Y19.30
Z-2.29
G1Z-4.57F381.0
Y21.60F2286.0
X187.70
Y19.30
X185.40
X182.22Y16.12
Y24.77
X190.88
Y16.12
X182.22
Z12.70
G0X185.40Y19.30
Z-3.81
G1Z-6.10F381.0
Y21.60F2286.0
X187.70
Y19.30
X185.40
X182.22Y16.12
Y24.77
X190.88
Y16.12
X182.22
Z12.70
G0X185.40Y19.30
Z-5.33
G1Z-7.62F381.0
Y21.60F2286.0
X187.70
Y19.30
X185.40
X182.22Y16.12
Y24.77
X190.88
Y16.12
X182.22
Z12.70
G0X185.40Y19.30
Z-6.86
G1Z-9.14F381.0
Y21.60F2286.0
X187.70
Y19.30
X185.40
X182.22Y16.12
Y24.77
X190.88
Y16.12
X182.22
Z12.70
G0X185.40Y19.30
Z-8.38
G1Z-10.67F381.0
Y21.60F2286.0
X187.70
Y19.30
X185.40
X182.22Y16.12
Y24.77
X190.88
Y16.12
X182.22
Z12.70
G0X185.40Y19.30
Z-9.91
G1Z-12.19F381.0
Y21.60F2286.0
X187.70
Y19.30
X185.40
X182.22Y16.12
Y24.77
X190.88
Y16.12
X182.22
Z12.70
G0X185.40Y19.30
Z-11.21
G1Z-13.50F381.0
Y21.60F2286.0
X187.70
Y19.30
X185.40
X182.22Y16.12
Y24.77
X190.88
Y16.12
X182.22
Z12.70
G0X218.62Y19.30
G1Z-1.52F381.0
Y21.60F2286.0
X220.92
Y19.30
X218.62
X215.44Y16.12
Y24.77
X224.09
Y16.12
X215.44
Z12.70
G0X218.62Y19.30
Z-0.76
G1Z-3.05F381.0
Y21.60F2286.0
X220.92
Y19.30
X218.62
X215.44Y16.12
Y24.77
X224.09
Y16.12
X215.44
Z12.70
G0X218.62Y19.30
Z-2.29
G1Z-4.57F381.0
Y21.60F2286.0
X220.92
Y19.30
X218.62
X215.44Y16.12
Y24.77
X224.09
Y16.12
X215.44
Z12.70
G0X218.62Y19.30
Z-3.81
G1Z-6.10F381.0
Y21.60F2286.0
X220.92
Y19.30
X218.62
X215.44Y16.12
Y24.77
X224.09
Y16.12
X215.44
Z12.70
G0X218.62Y19.30
Z-5.33
G1Z-7.62F381.0
Y21.60F2286.0
X220.92
Y19.30
X218.62
X215.44Y16.12
Y24.77
X224.09
Y16.12
X215.44
Z12.70
G0X218.62Y19.30
Z-6.86
G1Z-9.14F381.0
Y21.60F2286.0
X220.92
Y19.30
X218.62
X215.44Y16.12
Y24.77
X224.09
Y16.12
X215.44
Z12.70
G0X218.62Y19.30
Z-8.38
G1Z-10.67F381.0
Y21.60F2286.0
X220.92
Y19.30
X218.62
X215.44Y16.12
Y24.77
X224.09
Y16.12
X215.44
Z12.70
G0X218.62Y19.30
Z-9.91
G1Z-12.19F381.0
Y21.60F2286.0
X220.92
Y19.30
X218.62
X215.44Y16.12
Y24.77
X224.09
Y16.12
X215.44
Z12.70
G0X218.62Y19.30
Z-11.21
G1Z-13.50F381.0
Y21.60F2286.0
X220.92
Y19.30
X218.62
X215.44Y16.12
Y24.77
X224.09
Y16.12
X215.44
Z12.70
G0X251.84Y19.30
G1Z-1.52F381.0
Y21.60F2286.0
X254.14
Y19.30
X251.84
X248.66Y16.12
Y24.77
X257.31
Y16.12
X248.66
Z12.70
G0X251.84Y19.30
Z-0.76
G1Z-3.05F381.0
Y21.60F2286.0
X254.14
Y19.30
X251.84
X248.66Y16.12
Y24.77
X257.31
Y16.12
X248.66
Z12.70
G0X251.84Y19.30
Z-2.29
G1Z-4.57F381.0
Y21.60F2286.0
X254.14
Y19.30
X251.84
X248.66Y16.12
Y24.77
X257.31
Y16.12
X248.66
Z12.70
G0X251.84Y19.30
Z-3.81
G1Z-6.10F381.0
Y21.60F2286.0
X254.14
Y19.30
X251.84
X248.66Y16.12
Y24.77
X257.31
Y16.12
X248.66
Z12.70
G0X251.84Y19.30
Z-5.33
G1Z-7.62F381.0
Y21.60F2286.0
X254.14
Y19.30
X251.84
X248.66Y16.12
Y24.77
X257.31
Y16.12
X248.66
Z12.70
G0X251.84Y19.30
Z-6.86
G1Z-9.14F381.0
Y21.60F2286.0
X254.14
Y19.30
X251.84
X248.66Y16.12
Y24.77
X257.31
Y16.12
X248.66
Z12.70
G0X251.84Y19.30
Z-8.38
G1Z-10.67F381.0
Y21.60F2286.0
X254.14
Y19.30
X251.84
X248.66Y16.12
Y24.77
X257.31
Y16.12
X248.66
Z12.70
G0X251.84Y19.30
Z-9.91
G1Z-12.19F381.0
Y21.60F2286.0
X254.14
Y19.30
X251.84
X248.66Y16.12
Y24.77
X257.31
Y16.12
X248.66
Z12.70
G0X251.84Y19.30
Z-11.21
G1Z-13.50F381.0
Y21.60F2286.0
X254.14
Y19.30
X251.84
X248.66Y16.12
Y24.77
X257.31
Y16.12
X248.66
Z12.70
G0X285.06Y19.30
G1Z-1.52F381.0
Y21.60F2286.0
X287.36
Y19.30
X285.06
X281.88Y16.12
Y24.77
X290.54
Y16.12
X281.88
Z12.70
G0X285.06Y19.30
Z-0.76
G1Z-3.05F381.0
Y21.60F2286.0
X287.36
Y19.30
X285.06
X281.88Y16.12
Y24.77
X290.54
Y16.12
X281.88
Z12.70
G0X285.06Y19.30
Z-2.29
G1Z-4.57F381.0
Y21.60F2286.0
X287.36
Y19.30
X285.06
X281.88Y16.12
Y24.77
X290.54
Y16.12
X281.88
Z12.70
G0X285.06Y19.30
Z-3.81
G1Z-6.10F381.0
Y21.60F2286.0
X287.36
Y19.30
X285.06
X281.88Y16.12
Y24.77
X290.54
Y16.12
X281.88
Z12.70
G0X285.06Y19.30
Z-5.33
G1Z-7.62F381.0
Y21.60F2286.0
X287.36
Y19.30
X285.06
X281.88Y16.12
Y24.77
X290.54
Y16.12
X281.88
Z12.70
G0X285.06Y19.30
Z-6.86
G1Z-9.14F381.0
Y21.60F2286.0
X287.36
Y19.30
X285.06
X281.88Y16.12
Y24.77
X290.54
Y16.12
X281.88
Z12.70
G0X285.06Y19.30
Z-8.38
G1Z-10.67F381.0
Y21.60F2286.0
X287.36
Y19.30
X285.06
X281.88Y16.12
Y24.77
X290.54
Y16.12
X281.88
Z12.70
G0X285.06Y19.30
Z-9.91
G1Z-12.19F381.0
Y21.60F2286.0
X287.36
Y19.30
X285.06
X281.88Y16.12
Y24.77
X290.54
Y16.12
X281.88
Z12.70
G0X285.06Y19.30
Z-11.21
G1Z-13.50F381.0
Y21.60F2286.0
X287.36
Y19.30
X285.06
X281.88Y16.12
Y24.77
X290.54
Y16.12
X281.88
Z12.70
G0X318.28Y19.30
G1Z-1.52F381.0
Y21.60F2286.0
X320.58
Y19.30
X318.28
X315.11Y16.12
Y24.77
X323.75
Y16.12
X315.11
Z12.70
G0X318.28Y19.30
Z-0.76
G1Z-3.05F381.0
Y21.60F2286.0
X320.58
Y19.30
X318.28
X315.11Y16.12
Y24.77
X323.75
Y16.12
X315.11
Z12.70
G0X318.28Y19.30
Z-2.29
G1Z-4.57F381.0
Y21.60F2286.0
X320.58
Y19.30
X318.28
X315.11Y16.12
Y24.77
X323.75
Y16.12
X315.11
Z12.70
G0X318.28Y19.30
Z-3.81
G1Z-6.10F381.0
Y21.60F2286.0
X320.58
Y19.30
X318.28
X315.11Y16.12
Y24.77
X323.75
Y16.12
X315.11
Z12.70
G0X318.28Y19.30
Z-5.33
G1Z-7.62F381.0
Y21.60F2286.0
X320.58
Y19.30
X318.28
X315.11Y16.12
Y24.77
X323.75
Y16.12
X315.11
Z12.70
G0X318.28Y19.30
Z-6.86
G1Z-9.14F381.0
Y21.60F2286.0
X320.58
Y19.30
X318.28
X315.11Y16.12
Y24.77
X323.75
Y16.12
X315.11
Z12.70
G0X318.28Y19.30
Z-8.38
G1Z-10.67F381.0
Y21.60F2286.0
X320.58
Y19.30
X318.28
X315.11Y16.12
Y24.77
X323.75
Y16.12
X315.11
Z12.70
G0X318.28Y19.30
Z-9.91
G1Z-12.19F381.0
Y21.60F2286.0
X320.58
Y19.30
X318.28
X315.11Y16.12
Y24.77
X323.75
Y16.12
X315.11
Z12.70
G0X318.28Y19.30
Z-11.21
G1Z-13.50F381.0
Y21.60F2286.0
X320.58
Y19.30
X318.28
X315.11Y16.12
Y24.77
X323.75
Y16.12
X315.11
Z12.70
G0X351.50Y19.30
G1Z-1.52F381.0
Y21.60F2286.0
X353.80
Y19.30
X351.50
X348.32Y16.12
Y24.77
X356.98
Y16.12
X348.32
Z12.70
G0X351.50Y19.30
Z-0.76
G1Z-3.05F381.0
Y21.60F2286.0
X353.80
Y19.30
X351.50
X348.32Y16.12
Y24.77
X356.98
Y16.12
X348.32
Z12.70
G0X351.50Y19.30
Z-2.29
G1Z-4.57F381.0
Y21.60F2286.0
X353.80
Y19.30
X351.50
X348.32Y16.12
Y24.77
X356.98
Y16.12
X348.32
Z12.70
G0X351.50Y19.30
Z-3.81
G1Z-6.10F381.0
Y21.60F2286.0
X353.80
Y19.30
X351.50
X348.32Y16.12
Y24.77
X356.98
Y16.12
X348.32
Z12.70
G0X351.50Y19.30
Z-5.33
G1Z-7.62F381.0
Y21.60F2286.0
X353.80
Y19.30
X351.50
X348.32Y16.12
Y24.77
X356.98
Y16.12
X348.32
Z12.70
G0X351.50Y19.30
Z-6.86
G1Z-9.14F381.0
Y21.60F2286.0
X353.80
Y19.30
X351.50
X348.32Y16.12
Y24.77
X356.98
Y16.12
X348.32
Z12.70
G0X351.50Y19.30
Z-8.38
G1Z-10.67F381.0
Y21.60F2286.0
X353.80
Y19.30
X351.50
X348.32Y16.12
Y24.77
X356.98
Y16.12
X348.32
Z12.70
G0X351.50Y19.30
Z-9.91
G1Z-12.19F381.0
Y21.60F2286.0
X353.80
Y19.30
X351.50
X348.32Y16.12
Y24.77
X356.98
Y16.12
X348.32
Z12.70
G0X351.50Y19.30
Z-11.21
G1Z-13.50F381.0
Y21.60F2286.0
X353.80
Y19.30
X351.50
X348.32Y16.12
Y24.77
X356.98
Y16.12
X348.32
Z12.70
G0X384.72Y19.30
G1Z-1.52F381.0
Y21.60F2286.0
X387.02
Y19.30
X384.72
X381.55Y16.12
Y24.77
X390.19
Y16.12
X381.55
Z12.70
G0X384.72Y19.30
Z-0.76
G1Z-3.05F381.0
Y21.60F2286.0
X387.02
Y19.30
X384.72
X381.55Y16.12
Y24.77
X390.19
Y16.12
X381.55
Z12.70
G0X384.72Y19.30
Z-2.29
G1Z-4.57F381.0
Y21.60F2286.0
X387.02
Y19.30
X384.72
X381.55Y16.12
Y24.77
X390.19
Y16.12
X381.55
Z12.70
G0X384.72Y19.30
Z-3.81
G1Z-6.10F381.0
Y21.60F2286.0
X387.02
Y19.30
X384.72
X381.55Y16.12
Y24.77
X390.19
Y16.12
X381.55
Z12.70
G0X384.72Y19.30
Z-5.33
G1Z-7.62F381.0
Y21.60F2286.0
X387.02
Y19.30
X384.72
X381.55Y16.12
Y24.77
X390.19
Y16.12
X381.55
Z12.70
G0X384.72Y19.30
Z-6.86
G1Z-9.14F381.0
Y21.60F2286.0
X387.02
Y19.30
X384.72
X381.55Y16.12
Y24.77
X390.19
Y16.12
X381.55
Z12.70
G0X384.72Y19.30
Z-8.38
G1Z-10.67F381.0
Y21.60F2286.0
X387.02
Y19.30
X384.72
X381.55Y16.12
Y24.77
X390.19
Y16.12
X381.55
Z12.70
G0X384.72Y19.30
Z-9.91
G1Z-12.19F381.0
Y21.60F2286.0
X387.02
Y19.30
X384.72
X381.55Y16.12
Y24.77
X390.19
Y16.12
X381.55
Z12.70
G0X384.72Y19.30
Z-11.21
G1Z-13.50F381.0
Y21.60F2286.0
X387.02
Y19.30
X384.72
X381.55Y16.12
Y24.77
X390.19
Y16.12
X381.55
Z12.70
G0X384.72Y52.52
G1Z-1.52F381.0
Y54.82F2286.0
X387.02
Y52.52
X384.72
X381.55Y49.34
Y57.99
X390.19
Y49.34
X381.55
Z12.70
G0X384.72Y52.52
Z-0.76
G1Z-3.05F381.0
Y54.82F2286.0
X387.02
Y52.52
X384.72
X381.55Y49.34
Y57.99
X390.19
Y49.34
X381.55
Z12.70
G0X384.72Y52.52
Z-2.29
G1Z-4.57F381.0
Y54.82F2286.0
X387.02
Y52.52
X384.72
X381.55Y49.34
Y57.99
X390.19
Y49.34
X381.55
Z12.70
G0X384.72Y52.52
Z-3.81
G1Z-6.10F381.0
Y54.82F2286.0
X387.02
Y52.52
X384.72
X381.55Y49.34
Y57.99
X390.19
Y49.34
X381.55
Z12.70
G0X384.72Y52.52
Z-5.33
G1Z-7.62F381.0
Y54.82F2286.0
X387.02
Y52.52
X384.72
X381.55Y49.34
Y57.99
X390.19
Y49.34
X381.55
Z12.70
G0X384.72Y52.52
Z-6.86
G1Z-9.14F381.0
Y54.82F2286.0
X387.02
Y52.52
X384.72
X381.55Y49.34
Y57.99
X390.19
Y49.34
X381.55
Z12.70
G0X384.72Y52.52
Z-8.38
G1Z-10.67F381.0
Y54.82F2286.0
X387.02
Y52.52
X384.72
X381.55Y49.34
Y57.99
X390.19
Y49.34
X381.55
Z12.70
G0X384.72Y52.52
Z-9.91
G1Z-12.19F381.0
Y54.82F2286.0
X387.02
Y52.52
X384.72
X381.55Y49.34
Y57.99
X390.19
Y49.34
X381.55
Z12.70
G0X384.72Y52.52
Z-11.21
G1Z-13.50F381.0
Y54.82F2286.0
X387.02
Y52.52
X384.72
X381.55Y49.34
Y57.99
X390.19
Y49.34
X381.55
Z12.70
G0X351.50Y52.52
G1Z-1.52F381.0
Y54.82F2286.0
X353.80
Y52.52
X351.50
X348.32Y49.34
Y57.99
X356.98
Y49.34
X348.32
Z12.70
G0X351.50Y52.52
Z-0.76
G1Z-3.05F381.0
Y54.82F2286.0
X353.80
Y52.52
X351.50
X348.32Y49.34
Y57.99
X356.98
Y49.34
X348.32
Z12.70
G0X351.50Y52.52
Z-2.29
G1Z-4.57F381.0
Y54.82F2286.0
X353.80
Y52.52
X351.50
X348.32Y49.34
Y57.99
X356.98
Y49.34
X348.32
Z12.70
G0X351.50Y52.52
Z-3.81
G1Z-6.10F381.0
Y54.82F2286.0
X353.80
Y52.52
X351.50
X348.32Y49.34
Y57.99
X356.98
Y49.34
X348.32
Z12.70
G0X351.50Y52.52
Z-5.33
G1Z-7.62F381.0
Y54.82F2286.0
X353.80
Y52.52
X351.50
X348.32Y49.34
Y57.99
X356.98
Y49.34
X348.32
Z12.70
G0X351.50Y52.52
Z-6.86
G1Z-9.14F381.0
Y54.82F2286.0
X353.80
Y52.52
X351.50
X348.32Y49.34
Y57.99
X356.98
Y49.34
X348.32
Z12.70
G0X351.50Y52.52
Z-8.38
G1Z-10.67F381.0
Y54.82F2286.0
X353.80
Y52.52
X351.50
X348.32Y49.34
Y57.99
X356.98
Y49.34
X348.32
Z12.70
G0X351.50Y52.52
Z-9.91
G1Z-12.19F381.0
Y54.82F2286.0
X353.80
Y52.52
X351.50
X348.32Y49.34
Y57.99
X356.98
Y49.34
X348.32
Z12.70
G0X351.50Y52.52
Z-11.21
G1Z-13.50F381.0
Y54.82F2286.0
X353.80
Y52.52
X351.50
X348.32Y49.34
Y57.99
X356.98
Y49.34
X348.32
Z12.70
G0X318.28Y52.52
G1Z-1.52F381.0
Y54.82F2286.0
X320.58
Y52.52
X318.28
X315.11Y49.34
Y57.99
X323.75
Y49.34
X315.11
Z12.70
G0X318.28Y52.52
Z-0.76
G1Z-3.05F381.0
Y54.82F2286.0
X320.58
Y52.52
X318.28
X315.11Y49.34
Y57.99
X323.75
Y49.34
X315.11
Z12.70
G0X318.28Y52.52
Z-2.29
G1Z-4.57F381.0
Y54.82F2286.0
X320.58
Y52.52
X318.28
X315.11Y49.34
Y57.99
X323.75
Y49.34
X315.11
Z12.70
G0X318.28Y52.52
Z-3.81
G1Z-6.10F381.0
Y54.82F2286.0
X320.58
Y52.52
X318.28
X315.11Y49.34
Y57.99
X323.75
Y49.34
X315.11
Z12.70
G0X318.28Y52.52
Z-5.33
G1Z-7.62F381.0
Y54.82F2286.0
X320.58
Y52.52
X318.28
X315.11Y49.34
Y57.99
X323.75
Y49.34
X315.11
Z12.70
G0X318.28Y52.52
Z-6.86
G1Z-9.14F381.0
Y54.82F2286.0
X320.58
Y52.52
X318.28
X315.11Y49.34
Y57.99
X323.75
Y49.34
X315.11
Z12.70
G0X318.28Y52.52
Z-8.38
G1Z-10.67F381.0
Y54.82F2286.0
X320.58
Y52.52
X318.28
X315.11Y49.34
Y57.99
X323.75
Y49.34
X315.11
Z12.70
G0X318.28Y52.52
Z-9.91
G1Z-12.19F381.0
Y54.82F2286.0
X320.58
Y52.52
X318.28
X315.11Y49.34
Y57.99
X323.75
Y49.34
X315.11
Z12.70
G0X318.28Y52.52
Z-11.21
G1Z-13.50F381.0
Y54.82F2286.0
X320.58
Y52.52
X318.28
X315.11Y49.34
Y57.99
X323.75
Y49.34
X315.11
Z12.70
G0X285.06Y52.52
G1Z-1.52F381.0
Y54.82F2286.0
X287.36
Y52.52
X285.06
X281.88Y49.34
Y57.99
X290.54
Y49.34
X281.88
Z12.70
G0X285.06Y52.52
Z-0.76
G1Z-3.05F381.0
Y54.82F2286.0
X287.36
Y52.52
X285.06
X281.88Y49.34
Y57.99
X290.54
Y49.34
X281.88
Z12.70
G0X285.06Y52.52
Z-2.29
G1Z-4.57F381.0
Y54.82F2286.0
X287.36
Y52.52
X285.06
X281.88Y49.34
Y57.99
X290.54
Y49.34
X281.88
Z12.70
G0X285.06Y52.52
Z-3.81
G1Z-6.10F381.0
Y54.82F2286.0
X287.36
Y52.52
X285.06
X281.88Y49.34
Y57.99
X290.54
Y49.34
X281.88
Z12.70
G0X285.06Y52.52
Z-5.33
G1Z-7.62F381.0
Y54.82F2286.0
X287.36
Y52.52
X285.06
X281.88Y49.34
Y57.99
X290.54
Y49.34
X281.88
Z12.70
G0X285.06Y52.52
Z-6.86
G1Z-9.14F381.0
Y54.82F2286.0
X287.36
Y52.52
X285.06
X281.88Y49.34
Y57.99
X290.54
Y49.34
X281.88
Z12.70
G0X285.06Y52.52
Z-8.38
G1Z-10.67F381.0
Y54.82F2286.0
X287.36
Y52.52
X285.06
X281.88Y49.34
Y57.99
X290.54
Y49.34
X281.88
Z12.70
G0X285.06Y52.52
Z-9.91
G1Z-12.19F381.0
Y54.82F2286.0
X287.36
Y52.52
X285.06
X281.88Y49.34
Y57.99
X290.54
Y49.34
X281.88
Z12.70
G0X285.06Y52.52
Z-11.21
G1Z-13.50F381.0
Y54.82F2286.0
X287.36
Y52.52
X285.06
X281.88Y49.34
Y57.99
X290.54
Y49.34
X281.88
Z12.70
G0X251.84Y52.52
G1Z-1.52F381.0
Y54.82F2286.0
X254.14
Y52.52
X251.84
X248.66Y49.34
Y57.99
X257.31
Y49.34
X248.66
Z12.70
G0X251.84Y52.52
Z-0.76
G1Z-3.05F381.0
Y54.82F2286.0
X254.14
Y52.52
X251.84
X248.66Y49.34
Y57.99
X257.31
Y49.34
X248.66
Z12.70
G0X251.84Y52.52
Z-2.29
G1Z-4.57F381.0
Y54.82F2286.0
X254.14
Y52.52
X251.84
X248.66Y49.34
Y57.99
X257.31
Y49.34
X248.66
Z12.70
G0X251.84Y52.52
Z-3.81
G1Z-6.10F381.0
Y54.82F2286.0
X254.14
Y52.52
X251.84
X248.66Y49.34
Y57.99
X257.31
Y49.34
X248.66
Z12.70
G0X251.84Y52.52
Z-5.33
G1Z-7.62F381.0
Y54.82F2286.0
X254.14
Y52.52
X251.84
X248.66Y49.34
Y57.99
X257.31
Y49.34
X248.66
Z12.70
G0X251.84Y52.52
Z-6.86
G1Z-9.14F381.0
Y54.82F2286.0
X254.14
Y52.52
X251.84
X248.66Y49.34
Y57.99
X257.31
Y49.34
X248.66
Z12.70
G0X251.84Y52.52
Z-8.38
G1Z-10.67F381.0
Y54.82F2286.0
X254.14
Y52.52
X251.84
X248.66Y49.34
Y57.99
X257.31
Y49.34
X248.66
Z12.70
G0X251.84Y52.52
Z-9.91
G1Z-12.19F381.0
Y54.82F2286.0
X254.14
Y52.52
X251.84
X248.66Y49.34
Y57.99
X257.31
Y49.34
X248.66
Z12.70
G0X251.84Y52.52
Z-11.21
G1Z-13.50F381.0
Y54.82F2286.0
X254.14
Y52.52
X251.84
X248.66Y49.34
Y57.99
X257.31
Y49.34
X248.66
Z12.70
G0X218.62Y52.52
G1Z-1.52F381.0
Y54.82F2286.0
X220.92
Y52.52
X218.62
X215.44Y49.34
Y57.99
X224.09
Y49.34
X215.44
Z12.70
G0X218.62Y52.52
Z-0.76
G1Z-3.05F381.0
Y54.82F2286.0
X220.92
Y52.52
X218.62
X215.44Y49.34
Y57.99
X224.09
Y49.34
X215.44
Z12.70
G0X218.62Y52.52
Z-2.29
G1Z-4.57F381.0
Y54.82F2286.0
X220.92
Y52.52
X218.62
X215.44Y49.34
Y57.99
X224.09
Y49.34
X215.44
Z12.70
G0X218.62Y52.52
Z-3.81
G1Z-6.10F381.0
Y54.82F2286.0
X220.92
Y52.52
X218.62
X215.44Y49.34
Y57.99
X224.09
Y49.34
X215.44
Z12.70
G0X218.62Y52.52
Z-5.33
G1Z-7.62F381.0
Y54.82F2286.0
X220.92
Y52.52
X218.62
X215.44Y49.34
Y57.99
X224.09
Y49.34
X215.44
Z12.70
G0X218.62Y52.52
Z-6.86
G1Z-9.14F381.0
Y54.82F2286.0
X220.92
Y52.52
X218.62
X215.44Y49.34
Y57.99
X224.09
Y49.34
X215.44
Z12.70
G0X218.62Y52.52
Z-8.38
G1Z-10.67F381.0
Y54.82F2286.0
X220.92
Y52.52
X218.62
X215.44Y49.34
Y57.99
X224.09
Y49.34
X215.44
Z12.70
G0X218.62Y52.52
Z-9.91
G1Z-12.19F381.0
Y54.82F2286.0
X220.92
Y52.52
X218.62
X215.44Y49.34
Y57.99
X224.09
Y49.34
X215.44
Z12.70
G0X218.62Y52.52
Z-11.21
G1Z-13.50F381.0
Y54.82F2286.0
X220.92
Y52.52
X218.62
X215.44Y49.34
Y57.99
X224.09
Y49.34
X215.44
Z12.70
G0X185.40Y52.52
G1Z-1.52F381.0
Y54.82F2286.0
X187.70
Y52.52
X185.40
X182.22Y49.34
Y57.99
X190.88
Y49.34
X182.22
Z12.70
G0X185.40Y52.52
Z-0.76
G1Z-3.05F381.0
Y54.82F2286.0
X187.70
Y52.52
X185.40
X182.22Y49.34
Y57.99
X190.88
Y49.34
X182.22
Z12.70
G0X185.40Y52.52
Z-2.29
G1Z-4.57F381.0
Y54.82F2286.0
X187.70
Y52.52
X185.40
X182.22Y49.34
Y57.99
X190.88
Y49.34
X182.22
Z12.70
G0X185.40Y52.52
Z-3.81
G1Z-6.10F381.0
Y54.82F2286.0
X187.70
Y52.52
X185.40
X182.22Y49.34
Y57.99
X190.88
Y49.34
X182.22
Z12.70
G0X185.40Y52.52
Z-5.33
G1Z-7.62F381.0
Y54.82F2286.0
X187.70
Y52.52
X185.40
X182.22Y49.34
Y57.99
X190.88
Y49.34
X182.22
Z12.70
G0X185.40Y52.52
Z-6.86
G1Z-9.14F381.0
Y54.82F2286.0
X187.70
Y52.52
X185.40
X182.22Y49.34
Y57.99
X190.88
Y49.34
X182.22
Z12.70
G0X185.40Y52.52
Z-8.38
G1Z-10.67F381.0
Y54.82F2286.0
X187.70
Y52.52
X185.40
X182.22Y49.34
Y57.99
X190.88
Y49.34
X182.22
Z12.70
G0X185.40Y52.52
Z-9.91
G1Z-12.19F381.0
Y54.82F2286.0
X187.70
Y52.52
X185.40
X182.22Y49.34
Y57.99
X190.88
Y49.34
X182.22
Z12.70
G0X185.40Y52.52
Z-11.21
G1Z-13.50F381.0
Y54.82F2286.0
X187.70
Y52.52
X185.40
X182.22Y49.34
Y57.99
X190.88
Y49.34
X182.22
Z12.70
G0X152.18Y52.52
G1Z-1.52F381.0
Y54.82F2286.0
X154.48
Y52.52
X152.18
X149.00Y49.34
Y57.99
X157.65
Y49.34
X149.00
Z12.70
G0X152.18Y52.52
Z-0.76
G1Z-3.05F381.0
Y54.82F2286.0
X154.48
Y52.52
X152.18
X149.00Y49.34
Y57.99
X157.65
Y49.34
X149.00
Z12.70
G0X152.18Y52.52
Z-2.29
G1Z-4.57F381.0
Y54.82F2286.0
X154.48
Y52.52
X152.18
X149.00Y49.34
Y57.99
X157.65
Y49.34
X149.00
Z12.70
G0X152.18Y52.52
Z-3.81
G1Z-6.10F381.0
Y54.82F2286.0
X154.48
Y52.52
X152.18
X149.00Y49.34
Y57.99
X157.65
Y49.34
X149.00
Z12.70
G0X152.18Y52.52
Z-5.33
G1Z-7.62F381.0
Y54.82F2286.0
X154.48
Y52.52
X152.18
X149.00Y49.34
Y57.99
X157.65
Y49.34
X149.00
Z12.70
G0X152.18Y52.52
Z-6.86
G1Z-9.14F381.0
Y54.82F2286.0
X154.48
Y52.52
X152.18
X149.00Y49.34
Y57.99
X157.65
Y49.34
X149.00
Z12.70
G0X152.18Y52.52
Z-8.38
G1Z-10.67F381.0
Y54.82F2286.0
X154.48
Y52.52
X152.18
X149.00Y49.34
Y57.99
X157.65
Y49.34
X149.00
Z12.70
G0X152.18Y52.52
Z-9.91
G1Z-12.19F381.0
Y54.82F2286.0
X154.48
Y52.52
X152.18
X149.00Y49.34
Y57.99
X157.65
Y49.34
X149.00
Z12.70
G0X152.18Y52.52
Z-11.21
G1Z-13.50F381.0
Y54.82F2286.0
X154.48
Y52.52
X152.18
X149.00Y49.34
Y57.99
X157.65
Y49.34
X149.00
Z12.70
G0X118.96Y52.52
G1Z-1.52F381.0
Y54.82F2286.0
X121.26
Y52.52
X118.96
X115.78Y49.34
Y57.99
X124.44
Y49.34
X115.78
Z12.70
G0X118.96Y52.52
Z-0.76
G1Z-3.05F381.0
Y54.82F2286.0
X121.26
Y52.52
X118.96
X115.78Y49.34
Y57.99
X124.44
Y49.34
X115.78
Z12.70
G0X118.96Y52.52
Z-2.29
G1Z-4.57F381.0
Y54.82F2286.0
X121.26
Y52.52
X118.96
X115.78Y49.34
Y57.99
X124.44
Y49.34
X115.78
Z12.70
G0X118.96Y52.52
Z-3.81
G1Z-6.10F381.0
Y54.82F2286.0
X121.26
Y52.52
X118.96
X115.78Y49.34
Y57.99
X124.44
Y49.34
X115.78
Z12.70
G0X118.96Y52.52
Z-5.33
G1Z-7.62F381.0
Y54.82F2286.0
X121.26
Y52.52
X118.96
X115.78Y49.34
Y57.99
X124.44
Y49.34
X115.78
Z12.70
G0X118.96Y52.52
Z-6.86
G1Z-9.14F381.0
Y54.82F2286.0
X121.26
Y52.52
X118.96
X115.78Y49.34
Y57.99
X124.44
Y49.34
X115.78
Z12.70
G0X118.96Y52.52
Z-8.38
G1Z-10.67F381.0
Y54.82F2286.0
X121.26
Y52.52
X118.96
X115.78Y49.34
Y57.99
X124.44
Y49.34
X115.78
Z12.70
G0X118.96Y52.52
Z-9.91
G1Z-12.19F381.0
Y54.82F2286.0
X121.26
Y52.52
X118.96
X115.78Y49.34
Y57.99
X124.44
Y49.34
X115.78
Z12.70
G0X118.96Y52.52
Z-11.21
G1Z-13.50F381.0
Y54.82F2286.0
X121.26
Y52.52
X118.96
X115.78Y49.34
Y57.99
X124.44
Y49.34
X115.78
Z12.70
G0X85.74Y52.52
G1Z-1.52F381.0
Y54.82F2286.0
X88.04
Y52.52
X85.74
X82.56Y49.34
Y57.99
X91.22
Y49.34
X82.56
Z12.70
G0X85.74Y52.52
Z-0.76
G1Z-3.05F381.0
Y54.82F2286.0
X88.04
Y52.52
X85.74
X82.56Y49.34
Y57.99
X91.22
Y49.34
X82.56
Z12.70
G0X85.74Y52.52
Z-2.29
G1Z-4.57F381.0
Y54.82F2286.0
X88.04
Y52.52
X85.74
X82.56Y49.34
Y57.99
X91.22
Y49.34
X82.56
Z12.70
G0X85.74Y52.52
Z-3.81
G1Z-6.10F381.0
Y54.82F2286.0
X88.04
Y52.52
X85.74
X82.56Y49.34
Y57.99
X91.22
Y49.34
X82.56
Z12.70
G0X85.74Y52.52
Z-5.33
G1Z-7.62F381.0
Y54.82F2286.0
X88.04
Y52.52
X85.74
X82.56Y49.34
Y57.99
X91.22
Y49.34
X82.56
Z12.70
G0X85.74Y52.52
Z-6.86
G1Z-9.14F381.0
Y54.82F2286.0
X88.04
Y52.52
X85.74
X82.56Y49.34
Y57.99
X91.22
Y49.34
X82.56
Z12.70
G0X85.74Y52.52
Z-8.38
G1Z-10.67F381.0
Y54.82F2286.0
X88.04
Y52.52
X85.74
X82.56Y49.34
Y57.99
X91.22
Y49.34
X82.56
Z12.70
G0X85.74Y52.52
Z-9.91
G1Z-12.19F381.0
Y54.82F2286.0
X88.04
Y52.52
X85.74
X82.56Y49.34
Y57.99
X91.22
Y49.34
X82.56
Z12.70
G0X85.74Y52.52
Z-11.21
G1Z-13.50F381.0
Y54.82F2286.0
X88.04
Y52.52
X85.74
X82.56Y49.34
Y57.99
X91.22
Y49.34
X82.56
Z12.70
G0X52.52Y52.52
G1Z-1.52F381.0
Y54.82F2286.0
X54.82
Y52.52
X52.52
X49.34Y49.34
Y57.99
X57.99
Y49.34
X49.34
Z12.70
G0X52.52Y52.52
Z-0.76
G1Z-3.05F381.0
Y54.82F2286.0
X54.82
Y52.52
X52.52
X49.34Y49.34
Y57.99
X57.99
Y49.34
X49.34
Z12.70
G0X52.52Y52.52
Z-2.29
G1Z-4.57F381.0
Y54.82F2286.0
X54.82
Y52.52
X52.52
X49.34Y49.34
Y57.99
X57.99
Y49.34
X49.34
Z12.70
G0X52.52Y52.52
Z-3.81
G1Z-6.10F381.0
Y54.82F2286.0
X54.82
Y52.52
X52.52
X49.34Y49.34
Y57.99
X57.99
Y49.34
X49.34
Z12.70
G0X52.52Y52.52
Z-5.33
G1Z-7.62F381.0
Y54.82F2286.0
X54.82
Y52.52
X52.52
X49.34Y49.34
Y57.99
X57.99
Y49.34
X49.34
Z12.70
G0X52.52Y52.52
Z-6.86
G1Z-9.14F381.0
Y54.82F2286.0
X54.82
Y52.52
X52.52
X49.34Y49.34
Y57.99
X57.99
Y49.34
X49.34
Z12.70
G0X52.52Y52.52
Z-8.38
G1Z-10.67F381.0
Y54.82F2286.0
X54.82
Y52.52
X52.52
X49.34Y49.34
Y57.99
X57.99
Y49.34
X49.34
Z12.70
G0X52.52Y52.52
Z-9.91
G1Z-12.19F381.0
Y54.82F2286.0
X54.82
Y52.52
X52.52
X49.34Y49.34
Y57.99
X57.99
Y49.34
X49.34
Z12.70
G0X52.52Y52.52
Z-11.21
G1Z-13.50F381.0
Y54.82F2286.0
X54.82
Y52.52
X52.52
X49.34Y49.34
Y57.99
X57.99
Y49.34
X49.34
Z12.70
G0X52.52Y85.74
G1Z-1.52F381.0
Y88.04F2286.0
X54.82
Y85.74
X52.52
X49.34Y82.56
Y91.21
X57.99
Y82.56
X49.34
Z12.70
G0X52.52Y85.74
Z-0.76
G1Z-3.05F381.0
Y88.04F2286.0
X54.82
Y85.74
X52.52
X49.34Y82.56
Y91.21
X57.99
Y82.56
X49.34
Z12.70
G0X52.52Y85.74
Z-2.29
G1Z-4.57F381.0
Y88.04F2286.0
X54.82
Y85.74
X52.52
X49.34Y82.56
Y91.21
X57.99
Y82.56
X49.34
Z12.70
G0X52.52Y85.74
Z-3.81
G1Z-6.10F381.0
Y88.04F2286.0
X54.82
Y85.74
X52.52
X49.34Y82.56
Y91.21
X57.99
Y82.56
X49.34
Z12.70
G0X52.52Y85.74
Z-5.33
G1Z-7.62F381.0
Y88.04F2286.0
X54.82
Y85.74
X52.52
X49.34Y82.56
Y91.21
X57.99
Y82.56
X49.34
Z12.70
G0X52.52Y85.74
Z-6.86
G1Z-9.14F381.0
Y88.04F2286.0
X54.82
Y85.74
X52.52
X49.34Y82.56
Y91.21
X57.99
Y82.56
X49.34
Z12.70
G0X52.52Y85.74
Z-8.38
G1Z-10.67F381.0
Y88.04F2286.0
X54.82
Y85.74
X52.52
X49.34Y82.56
Y91.21
X57.99
Y82.56
X49.34
Z12.70
G0X52.52Y85.74
Z-9.91
G1Z-12.19F381.0
Y88.04F2286.0
X54.82
Y85.74
X52.52
X49.34Y82.56
Y91.21
X57.99
Y82.56
X49.34
Z12.70
G0X52.52Y85.74
Z-11.21
G1Z-13.50F381.0
Y88.04F2286.0
X54.82
Y85.74
X52.52
X49.34Y82.56
Y91.21
X57.99
Y82.56
X49.34
Z12.70
G0X85.74Y85.74
G1Z-1.52F381.0
Y88.04F2286.0
X88.04
Y85.74
X85.74
X82.56Y82.56
Y91.21
X91.22
Y82.56
X82.56
Z12.70
G0X85.74Y85.74
Z-0.76
G1Z-3.05F381.0
Y88.04F2286.0
X88.04
Y85.74
X85.74
X82.56Y82.56
Y91.21
X91.22
Y82.56
X82.56
Z12.70
G0X85.74Y85.74
Z-2.29
G1Z-4.57F381.0
Y88.04F2286.0
X88.04
Y85.74
X85.74
X82.56Y82.56
Y91.21
X91.22
Y82.56
X82.56
Z12.70
G0X85.74Y85.74
Z-3.81
G1Z-6.10F381.0
Y88.04F2286.0
X88.04
Y85.74
X85.74
X82.56Y82.56
Y91.21
X91.22
Y82.56
X82.56
Z12.70
G0X85.74Y85.74
Z-5.33
G1Z-7.62F381.0
Y88.04F2286.0
X88.04
Y85.74
X85.74
X82.56Y82.56
Y91.21
X91.22
Y82.56
X82.56
Z12.70
G0X85.74Y85.74
Z-6.86
G1Z-9.14F381.0
Y88.04F2286.0
X88.04
Y85.74
X85.74
X82.56Y82.56
Y91.21
X91.22
Y82.56
X82.56
Z12.70
G0X85.74Y85.74
Z-8.38
G1Z-10.67F381.0
Y88.04F2286.0
X88.04
Y85.74
X85.74
X82.56Y82.56
Y91.21
X91.22
Y82.56
X82.56
Z12.70
G0X85.74Y85.74
Z-9.91
G1Z-12.19F381.0
Y88.04F2286.0
X88.04
Y85.74
X85.74
X82.56Y82.56
Y91.21
X91.22
Y82.56
X82.56
Z12.70
G0X85.74Y85.74
Z-11.21
G1Z-13.50F381.0
Y88.04F2286.0
X88.04
Y85.74
X85.74
X82.56Y82.56
Y91.21
X91.22
Y82.56
X82.56
Z12.70
G0X118.96Y85.74
G1Z-1.52F381.0
Y88.04F2286.0
X121.26
Y85.74
X118.96
X115.78Y82.56
Y91.21
X124.44
Y82.56
X115.78
Z12.70
G0X118.96Y85.74
Z-0.76
G1Z-3.05F381.0
Y88.04F2286.0
X121.26
Y85.74
X118.96
X115.78Y82.56
Y91.21
X124.44
Y82.56
X115.78
Z12.70
G0X118.96Y85.74
Z-2.29
G1Z-4.57F381.0
Y88.04F2286.0
X121.26
Y85.74
X118.96
X115.78Y82.56
Y91.21
X124.44
Y82.56
X115.78
Z12.70
G0X118.96Y85.74
Z-3.81
G1Z-6.10F381.0
Y88.04F2286.0
X121.26
Y85.74
X118.96
X115.78Y82.56
Y91.21
X124.44
Y82.56
X115.78
Z12.70
G0X118.96Y85.74
Z-5.33
G1Z-7.62F381.0
Y88.04F2286.0
X121.26
Y85.74
X118.96
X115.78Y82.56
Y91.21
X124.44
Y82.56
X115.78
Z12.70
G0X118.96Y85.74
Z-6.86
G1Z-9.14F381.0
Y88.04F2286.0
X121.26
Y85.74
X118.96
X115.78Y82.56
Y91.21
X124.44
Y82.56
X115.78
Z12.70
G0X118.96Y85.74
Z-8.38
G1Z-10.67F381.0
Y88.04F2286.0
X121.26
Y85.74
X118.96
X115.78Y82.56
Y91.21
X124.44
Y82.56
X115.78
Z12.70
G0X118.96Y85.74
Z-9.91
G1Z-12.19F381.0
Y88.04F2286.0
X121.26
Y85.74
X118.96
X115.78Y82.56
Y91.21
X124.44
Y82.56
X115.78
Z12.70
G0X118.96Y85.74
Z-11.21
G1Z-13.50F381.0
Y88.04F2286.0
X121.26
Y85.74
X118.96
X115.78Y82.56
Y91.21
X124.44
Y82.56
X115.78
Z12.70
G0X152.18Y85.74
G1Z-1.52F381.0
Y88.04F2286.0
X154.48
Y85.74
X152.18
X149.00Y82.56
Y91.21
X157.65
Y82.56
X149.00
Z12.70
G0X152.18Y85.74
Z-0.76
G1Z-3.05F381.0
Y88.04F2286.0
X154.48
Y85.74
X152.18
X149.00Y82.56
Y91.21
X157.65
Y82.56
X149.00
Z12.70
G0X152.18Y85.74
Z-2.29
G1Z-4.57F381.0
Y88.04F2286.0
X154.48
Y85.74
X152.18
X149.00Y82.56
Y91.21
X157.65
Y82.56
X149.00
Z12.70
G0X152.18Y85.74
Z-3.81
G1Z-6.10F381.0
Y88.04F2286.0
X154.48
Y85.74
X152.18
X149.00Y82.56
Y91.21
X157.65
Y82.56
X149.00
Z12.70
G0X152.18Y85.74
Z-5.33
G1Z-7.62F381.0
Y88.04F2286.0
X154.48
Y85.74
X152.18
X149.00Y82.56
Y91.21
X157.65
Y82.56
X149.00
Z12.70
G0X152.18Y85.74
Z-6.86
G1Z-9.14F381.0
Y88.04F2286.0
X154.48
Y85.74
X152.18
X149.00Y82.56
Y91.21
X157.65
Y82.56
X149.00
Z12.70
G0X152.18Y85.74
Z-8.38
G1Z-10.67F381.0
Y88.04F2286.0
X154.48
Y85.74
X152.18
X149.00Y82.56
Y91.21
X157.65
Y82.56
X149.00
Z12.70
G0X152.18Y85.74
Z-9.91
G1Z-12.19F381.0
Y88.04F2286.0
X154.48
Y85.74
X152.18
X149.00Y82.56
Y91.21
X157.65
Y82.56
X149.00
Z12.70
G0X152.18Y85.74
Z-11.21
G1Z-13.50F381.0
Y88.04F2286.0
X154.48
Y85.74
X152.18
X149.00Y82.56
Y91.21
X157.65
Y82.56
X149.00
Z12.70
G0X152.18Y118.96
G1Z-1.52F381.0
Y121.26F2286.0
X154.48
Y118.96
X152.18
X149.00Y115.78
Y124.44
X157.65
Y115.78
X149.00
Z12.70
G0X152.18Y118.96
Z-0.76
G1Z-3.05F381.0
Y121.26F2286.0
X154.48
Y118.96
X152.18
X149.00Y115.78
Y124.44
X157.65
Y115.78
X149.00
Z12.70
G0X152.18Y118.96
Z-2.29
G1Z-4.57F381.0
Y121.26F2286.0
X154.48
Y118.96
X152.18
X149.00Y115.78
Y124.44
X157.65
Y115.78
X149.00
Z12.70
G0X152.18Y118.96
Z-3.81
G1Z-6.10F381.0
Y121.26F2286.0
X154.48
Y118.96
X152.18
X149.00Y115.78
Y124.44
X157.65
Y115.78
X149.00
Z12.70
G0X152.18Y118.96
Z-5.33
G1Z-7.62F381.0
Y121.26F2286.0
X154.48
Y118.96
X152.18
X149.00Y115.78
Y124.44
X157.65
Y115.78
X149.00
Z12.70
G0X152.18Y118.96
Z-6.86
G1Z-9.14F381.0
Y121.26F2286.0
X154.48
Y118.96
X152.18
X149.00Y115.78
Y124.44
X157.65
Y115.78
X149.00
Z12.70
G0X152.18Y118.96
Z-8.38
G1Z-10.67F381.0
Y121.26F2286.0
X154.48
Y118.96
X152.18
X149.00Y115.78
Y124.44
X157.65
Y115.78
X149.00
Z12.70
G0X152.18Y118.96
Z-9.91
G1Z-12.19F381.0
Y121.26F2286.0
X154.48
Y118.96
X152.18
X149.00Y115.78
Y124.44
X157.65
Y115.78
X149.00
Z12.70
G0X152.18Y118.96
Z-11.21
G1Z-13.50F381.0
Y121.26F2286.0
X154.48
Y118.96
X152.18
X149.00Y115.78
Y124.44
X157.65
Y115.78
X149.00
Z12.70
G0X118.96Y118.96
G1Z-1.52F381.0
Y121.26F2286.0
X121.26
Y118.96
X118.96
X115.78Y115.78
Y124.44
X124.44
Y115.78
X115.78
Z12.70
G0X118.96Y118.96
Z-0.76
G1Z-3.05F381.0
Y121.26F2286.0
X121.26
Y118.96
X118.96
X115.78Y115.78
Y124.44
X124.44
Y115.78
X115.78
Z12.70
G0X118.96Y118.96
Z-2.29
G1Z-4.57F381.0
Y121.26F2286.0
X121.26
Y118.96
X118.96
X115.78Y115.78
Y124.44
X124.44
Y115.78
X115.78
Z12.70
G0X118.96Y118.96
Z-3.81
G1Z-6.10F381.0
Y121.26F2286.0
X121.26
Y118.96
X118.96
X115.78Y115.78
Y124.44
X124.44
Y115.78
X115.78
Z12.70
G0X118.96Y118.96
Z-5.33
G1Z-7.62F381.0
Y121.26F2286.0
X121.26
Y118.96
X118.96
X115.78Y115.78
Y124.44
X124.44
Y115.78
X115.78
Z12.70
G0X118.96Y118.96
Z-6.86
G1Z-9.14F381.0
Y121.26F2286.0
X121.26
Y118.96
X118.96
X115.78Y115.78
Y124.44
X124.44
Y115.78
X115.78
Z12.70
G0X118.96Y118.96
Z-8.38
G1Z-10.67F381.0
Y121.26F2286.0
X121.26
Y118.96
X118.96
X115.78Y115.78
Y124.44
X124.44
Y115.78
X115.78
Z12.70
G0X118.96Y118.96
Z-9.91
G1Z-12.19F381.0
Y121.26F2286.0
X121.26
Y118.96
X118.96
X115.78Y115.78
Y124.44
X124.44
Y115.78
X115.78
Z12.70
G0X118.96Y118.96
Z-11.21
G1Z-13.50F381.0
Y121.26F2286.0
X121.26
Y118.96
X118.96
X115.78Y115.78
Y124.44
X124.44
Y115.78
X115.78
Z12.70
G0X85.74Y118.96
G1Z-1.52F381.0
Y121.26F2286.0
X88.04
Y118.96
X85.74
X82.56Y115.78
Y124.44
X91.22
Y115.78
X82.56
Z12.70
G0X85.74Y118.96
Z-0.76
G1Z-3.05F381.0
Y121.26F2286.0
X88.04
Y118.96
X85.74
X82.56Y115.78
Y124.44
X91.22
Y115.78
X82.56
Z12.70
G0X85.74Y118.96
Z-2.29
G1Z-4.57F381.0
Y121.26F2286.0
X88.04
Y118.96
X85.74
X82.56Y115.78
Y124.44
X91.22
Y115.78
X82.56
Z12.70
G0X85.74Y118.96
Z-3.81
G1Z-6.10F381.0
Y121.26F2286.0
X88.04
Y118.96
X85.74
X82.56Y115.78
Y124.44
X91.22
Y115.78
X82.56
Z12.70
G0X85.74Y118.96
Z-5.33
G1Z-7.62F381.0
Y121.26F2286.0
X88.04
Y118.96
X85.74
X82.56Y115.78
Y124.44
X91.22
Y115.78
X82.56
Z12.70
G0X85.74Y118.96
Z-6.86
G1Z-9.14F381.0
Y121.26F2286.0
X88.04
Y118.96
X85.74
X82.56Y115.78
Y124.44
X91.22
Y115.78
X82.56
Z12.70
G0X85.74Y118.96
Z-8.38
G1Z-10.67F381.0
Y121.26F2286.0
X88.04
Y118.96
X85.74
X82.56Y115.78
Y124.44
X91.22
Y115.78
X82.56
Z12.70
G0X85.74Y118.96
Z-9.91
G1Z-12.19F381.0
Y121.26F2286.0
X88.04
Y118.96
X85.74
X82.56Y115.78
Y124.44
X91.22
Y115.78
X82.56
Z12.70
G0X85.74Y118.96
Z-11.21
G1Z-13.50F381.0
Y121.26F2286.0
X88.04
Y118.96
X85.74
X82.56Y115.78
Y124.44
X91.22
Y115.78
X82.56
Z12.70
G0X52.52Y118.96
G1Z-1.52F381.0
Y121.26F2286.0
X54.82
Y118.96
X52.52
X49.34Y115.78
Y124.44
X57.99
Y115.78
X49.34
Z12.70
G0X52.52Y118.96
Z-0.76
G1Z-3.05F381.0
Y121.26F2286.0
X54.82
Y118.96
X52.52
X49.34Y115.78
Y124.44
X57.99
Y115.78
X49.34
Z12.70
G0X52.52Y118.96
Z-2.29
G1Z-4.57F381.0
Y121.26F2286.0
X54.82
Y118.96
X52.52
X49.34Y115.78
Y124.44
X57.99
Y115.78
X49.34
Z12.70
G0X52.52Y118.96
Z-3.81
G1Z-6.10F381.0
Y121.26F2286.0
X54.82
Y118.96
X52.52
X49.34Y115.78
Y124.44
X57.99
Y115.78
X49.34
Z12.70
G0X52.52Y118.96
Z-5.33
G1Z-7.62F381.0
Y121.26F2286.0
X54.82
Y118.96
X52.52
X49.34Y115.78
Y124.44
X57.99
Y115.78
X49.34
Z12.70
G0X52.52Y118.96
Z-6.86
G1Z-9.14F381.0
Y121.26F2286.0
X54.82
Y118.96
X52.52
X49.34Y115.78
Y124.44
X57.99
Y115.78
X49.34
Z12.70
G0X52.52Y118.96
Z-8.38
G1Z-10.67F381.0
Y121.26F2286.0
X54.82
Y118.96
X52.52
X49.34Y115.78
Y124.44
X57.99
Y115.78
X49.34
Z12.70
G0X52.52Y118.96
Z-9.91
G1Z-12.19F381.0
Y121.26F2286.0
X54.82
Y118.96
X52.52
X49.34Y115.78
Y124.44
X57.99
Y115.78
X49.34
Z12.70
G0X52.52Y118.96
Z-11.21
G1Z-13.50F381.0
Y121.26F2286.0
X54.82
Y118.96
X52.52
X49.34Y115.78
Y124.44
X57.99
Y115.78
X49.34
Z12.70
G0X52.52Y152.18
G1Z-1.52F381.0
Y154.48F2286.0
X54.82
Y152.18
X52.52
X49.34Y149.00
Y157.65
X57.99
Y149.00
X49.34
Z12.70
G0X52.52Y152.18
Z-0.76
G1Z-3.05F381.0
Y154.48F2286.0
X54.82
Y152.18
X52.52
X49.34Y149.00
Y157.65
X57.99
Y149.00
X49.34
Z12.70
G0X52.52Y152.18
Z-2.29
G1Z-4.57F381.0
Y154.48F2286.0
X54.82
Y152.18
X52.52
X49.34Y149.00
Y157.65
X57.99
Y149.00
X49.34
Z12.70
G0X52.52Y152.18
Z-3.81
G1Z-6.10F381.0
Y154.48F2286.0
X54.82
Y152.18
X52.52
X49.34Y149.00
Y157.65
X57.99
Y149.00
X49.34
Z12.70
G0X52.52Y152.18
Z-5.33
G1Z-7.62F381.0
Y154.48F2286.0
X54.82
Y152.18
X52.52
X49.34Y149.00
Y157.65
X57.99
Y149.00
X49.34
Z12.70
G0X52.52Y152.18
Z-6.86
G1Z-9.14F381.0
Y154.48F2286.0
X54.82
Y152.18
X52.52
X49.34Y149.00
Y157.65
X57.99
Y149.00
X49.34
Z12.70
G0X52.52Y152.18
Z-8.38
G1Z-10.67F381.0
Y154.48F2286.0
X54.82
Y152.18
X52.52
X49.34Y149.00
Y157.65
X57.99
Y149.00
X49.34
Z12.70
G0X52.52Y152.18
Z-9.91
G1Z-12.19F381.0
Y154.48F2286.0
X54.82
Y152.18
X52.52
X49.34Y149.00
Y157.65
X57.99
Y149.00
X49.34
Z12.70
G0X52.52Y152.18
Z-11.21
G1Z-13.50F381.0
Y154.48F2286.0
X54.82
Y152.18
X52.52
X49.34Y149.00
Y157.65
X57.99
Y149.00
X49.34
Z12.70
G0X85.74Y152.18
G1Z-1.52F381.0
Y154.48F2286.0
X88.04
Y152.18
X85.74
X82.56Y149.00
Y157.65
X91.22
Y149.00
X82.56
Z12.70
G0X85.74Y152.18
Z-0.76
G1Z-3.05F381.0
Y154.48F2286.0
X88.04
Y152.18
X85.74
X82.56Y149.00
Y157.65
X91.22
Y149.00
X82.56
Z12.70
G0X85.74Y152.18
Z-2.29
G1Z-4.57F381.0
Y154.48F2286.0
X88.04
Y152.18
X85.74
X82.56Y149.00
Y157.65
X91.22
Y149.00
X82.56
Z12.70
G0X85.74Y152.18
Z-3.81
G1Z-6.10F381.0
Y154.48F2286.0
X88.04
Y152.18
X85.74
X82.56Y149.00
Y157.65
X91.22
Y149.00
X82.56
Z12.70
G0X85.74Y152.18
Z-5.33
G1Z-7.62F381.0
Y154.48F2286.0
X88.04
Y152.18
X85.74
X82.56Y149.00
Y157.65
X91.22
Y149.00
X82.56
Z12.70
G0X85.74Y152.18
Z-6.86
G1Z-9.14F381.0
Y154.48F2286.0
X88.04
Y152.18
X85.74
X82.56Y149.00
Y157.65
X91.22
Y149.00
X82.56
Z12.70
G0X85.74Y152.18
Z-8.38
G1Z-10.67F381.0
Y154.48F2286.0
X88.04
Y152.18
X85.74
X82.56Y149.00
Y157.65
X91.22
Y149.00
X82.56
Z12.70
G0X85.74Y152.18
Z-9.91
G1Z-12.19F381.0
Y154.48F2286.0
X88.04
Y152.18
X85.74
X82.56Y149.00
Y157.65
X91.22
Y149.00
X82.56
Z12.70
G0X85.74Y152.18
Z-11.21
G1Z-13.50F381.0
Y154.48F2286.0
X88.04
Y152.18
X85.74
X82.56Y149.00
Y157.65
X91.22
Y149.00
X82.56
Z12.70
G0X118.96Y152.18
G1Z-1.52F381.0
Y154.48F2286.0
X121.26
Y152.18
X118.96
X115.78Y149.00
Y157.65
X124.44
Y149.00
X115.78
Z12.70
G0X118.96Y152.18
Z-0.76
G1Z-3.05F381.0
Y154.48F2286.0
X121.26
Y152.18
X118.96
X115.78Y149.00
Y157.65
X124.44
Y149.00
X115.78
Z12.70
G0X118.96Y152.18
Z-2.29
G1Z-4.57F381.0
Y154.48F2286.0
X121.26
Y152.18
X118.96
X115.78Y149.00
Y157.65
X124.44
Y149.00
X115.78
Z12.70
G0X118.96Y152.18
Z-3.81
G1Z-6.10F381.0
Y154.48F2286.0
X121.26
Y152.18
X118.96
X115.78Y149.00
Y157.65
X124.44
Y149.00
X115.78
Z12.70
G0X118.96Y152.18
Z-5.33
G1Z-7.62F381.0
Y154.48F2286.0
X121.26
Y152.18
X118.96
X115.78Y149.00
Y157.65
X124.44
Y149.00
X115.78
Z12.70
G0X118.96Y152.18
Z-6.86
G1Z-9.14F381.0
Y154.48F2286.0
X121.26
Y152.18
X118.96
X115.78Y149.00
Y157.65
X124.44
Y149.00
X115.78
Z12.70
G0X118.96Y152.18
Z-8.38
G1Z-10.67F381.0
Y154.48F2286.0
X121.26
Y152.18
X118.96
X115.78Y149.00
Y157.65
X124.44
Y149.00
X115.78
Z12.70
G0X118.96Y152.18
Z-9.91
G1Z-12.19F381.0
Y154.48F2286.0
X121.26
Y152.18
X118.96
X115.78Y149.00
Y157.65
X124.44
Y149.00
X115.78
Z12.70
G0X118.96Y152.18
Z-11.21
G1Z-13.50F381.0
Y154.48F2286.0
X121.26
Y152.18
X118.96
X115.78Y149.00
Y157.65
X124.44
Y149.00
X115.78
Z12.70
G0X152.18Y152.18
G1Z-1.52F381.0
Y154.48F2286.0
X154.48
Y152.18
X152.18
X149.00Y149.00
Y157.65
X157.65
Y149.00
X149.00
Z12.70
G0X152.18Y152.18
Z-0.76
G1Z-3.05F381.0
Y154.48F2286.0
X154.48
Y152.18
X152.18
X149.00Y149.00
Y157.65
X157.65
Y149.00
X149.00
Z12.70
G0X152.18Y152.18
Z-2.29
G1Z-4.57F381.0
Y154.48F2286.0
X154.48
Y152.18
X152.18
X149.00Y149.00
Y157.65
X157.65
Y149.00
X149.00
Z12.70
G0X152.18Y152.18
Z-3.81
G1Z-6.10F381.0
Y154.48F2286.0
X154.48
Y152.18
X152.18
X149.00Y149.00
Y157.65
X157.65
Y149.00
X149.00
Z12.70
G0X152.18Y152.18
Z-5.33
G1Z-7.62F381.0
Y154.48F2286.0
X154.48
Y152.18
X152.18
X149.00Y149.00
Y157.65
X157.65
Y149.00
X149.00
Z12.70
G0X152.18Y152.18
Z-6.86
G1Z-9.14F381.0
Y154.48F2286.0
X154.48
Y152.18
X152.18
X149.00Y149.00
Y157.65
X157.65
Y149.00
X149.00
Z12.70
G0X152.18Y152.18
Z-8.38
G1Z-10.67F381.0
Y154.48F2286.0
X154.48
Y152.18
X152.18
X149.00Y149.00
Y157.65
X157.65
Y149.00
X149.00
Z12.70
G0X152.18Y152.18
Z-9.91
G1Z-12.19F381.0
Y154.48F2286.0
X154.48
Y152.18
X152.18
X149.00Y149.00
Y157.65
X157.65
Y149.00
X149.00
Z12.70
G0X152.18Y152.18
Z-11.21
G1Z-13.50F381.0
Y154.48F2286.0
X154.48
Y152.18
X152.18
X149.00Y149.00
Y157.65
X157.65
Y149.00
X149.00
Z12.70
G0X185.40Y152.18
G1Z-1.52F381.0
Y154.48F2286.0
X187.70
Y152.18
X185.40
X182.22Y149.00
Y157.65
X190.88
Y149.00
X182.22
Z12.70
G0X185.40Y152.18
Z-0.76
G1Z-3.05F381.0
Y154.48F2286.0
X187.70
Y152.18
X185.40
X182.22Y149.00
Y157.65
X190.88
Y149.00
X182.22
Z12.70
G0X185.40Y152.18
Z-2.29
G1Z-4.57F381.0
Y154.48F2286.0
X187.70
Y152.18
X185.40
X182.22Y149.00
Y157.65
X190.88
Y149.00
X182.22
Z12.70
G0X185.40Y152.18
Z-3.81
G1Z-6.10F381.0
Y154.48F2286.0
X187.70
Y152.18
X185.40
X182.22Y149.00
Y157.65
X190.88
Y149.00
X182.22
Z12.70
G0X185.40Y152.18
Z-5.33
G1Z-7.62F381.0
Y154.48F2286.0
X187.70
Y152.18
X185.40
X182.22Y149.00
Y157.65
X190.88
Y149.00
X182.22
Z12.70
G0X185.40Y152.18
Z-6.86
G1Z-9.14F381.0
Y154.48F2286.0
X187.70
Y152.18
X185.40
X182.22Y149.00
Y157.65
X190.88
Y149.00
X182.22
Z12.70
G0X185.40Y152.18
Z-8.38
G1Z-10.67F381.0
Y154.48F2286.0
X187.70
Y152.18
X185.40
X182.22Y149.00
Y157.65
X190.88
Y149.00
X182.22
Z12.70
G0X185.40Y152.18
Z-9.91
G1Z-12.19F381.0
Y154.48F2286.0
X187.70
Y152.18
X185.40
X182.22Y149.00
Y157.65
X190.88
Y149.00
X182.22
Z12.70
G0X185.40Y152.18
Z-11.21
G1Z-13.50F381.0
Y154.48F2286.0
X187.70
Y152.18
X185.40
X182.22Y149.00
Y157.65
X190.88
Y149.00
X182.22
Z12.70
G0X185.40Y118.96
G1Z-1.52F381.0
Y121.26F2286.0
X187.70
Y118.96
X185.40
X182.22Y115.78
Y124.44
X190.88
Y115.78
X182.22
Z12.70
G0X185.40Y118.96
Z-0.76
G1Z-3.05F381.0
Y121.26F2286.0
X187.70
Y118.96
X185.40
X182.22Y115.78
Y124.44
X190.88
Y115.78
X182.22
Z12.70
G0X185.40Y118.96
Z-2.29
G1Z-4.57F381.0
Y121.26F2286.0
X187.70
Y118.96
X185.40
X182.22Y115.78
Y124.44
X190.88
Y115.78
X182.22
Z12.70
G0X185.40Y118.96
Z-3.81
G1Z-6.10F381.0
Y121.26F2286.0
X187.70
Y118.96
X185.40
X182.22Y115.78
Y124.44
X190.88
Y115.78
X182.22
Z12.70
G0X185.40Y118.96
Z-5.33
G1Z-7.62F381.0
Y121.26F2286.0
X187.70
Y118.96
X185.40
X182.22Y115.78
Y124.44
X190.88
Y115.78
X182.22
Z12.70
G0X185.40Y118.96
Z-6.86
G1Z-9.14F381.0
Y121.26F2286.0
X187.70
Y118.96
X185.40
X182.22Y115.78
Y124.44
X190.88
Y115.78
X182.22
Z12.70
G0X185.40Y118.96
Z-8.38
G1Z-10.67F381.0
Y121.26F2286.0
X187.70
Y118.96
X185.40
X182.22Y115.78
Y124.44
X190.88
Y115.78
X182.22
Z12.70
G0X185.40Y118.96
Z-9.91
G1Z-12.19F381.0
Y121.26F2286.0
X187.70
Y118.96
X185.40
X182.22Y115.78
Y124.44
X190.88
Y115.78
X182.22
Z12.70
G0X185.40Y118.96
Z-11.21
G1Z-13.50F381.0
Y121.26F2286.0
X187.70
Y118.96
X185.40
X182.22Y115.78
Y124.44
X190.88
Y115.78
X182.22
Z12.70
G0X185.40Y85.74
G1Z-1.52F381.0
Y88.04F2286.0
X187.70
Y85.74
X185.40
X182.22Y82.56
Y91.21
X190.88
Y82.56
X182.22
Z12.70
G0X185.40Y85.74
Z-0.76
G1Z-3.05F381.0
Y88.04F2286.0
X187.70
Y85.74
X185.40
X182.22Y82.56
Y91.21
X190.88
Y82.56
X182.22
Z12.70
G0X185.40Y85.74
Z-2.29
G1Z-4.57F381.0
Y88.04F2286.0
X187.70
Y85.74
X185.40
X182.22Y82.56
Y91.21
X190.88
Y82.56
X182.22
Z12.70
G0X185.40Y85.74
Z-3.81
G1Z-6.10F381.0
Y88.04F2286.0
X187.70
Y85.74
X185.40
X182.22Y82.56
Y91.21
X190.88
Y82.56
X182.22
Z12.70
G0X185.40Y85.74
Z-5.33
G1Z-7.62F381.0
Y88.04F2286.0
X187.70
Y85.74
X185.40
X182.22Y82.56
Y91.21
X190.88
Y82.56
X182.22
Z12.70
G0X185.40Y85.74
Z-6.86
G1Z-9.14F381.0
Y88.04F2286.0
X187.70
Y85.74
X185.40
X182.22Y82.56
Y91.21
X190.88
Y82.56
X182.22
Z12.70
G0X185.40Y85.74
Z-8.38
G1Z-10.67F381.0
Y88.04F2286.0
X187.70
Y85.74
X185.40
X182.22Y82.56
Y91.21
X190.88
Y82.56
X182.22
Z12.70
G0X185.40Y85.74
Z-9.91
G1Z-12.19F381.0
Y88.04F2286.0
X187.70
Y85.74
X185.40
X182.22Y82.56
Y91.21
X190.88
Y82.56
X182.22
Z12.70
G0X185.40Y85.74
Z-11.21
G1Z-13.50F381.0
Y88.04F2286.0
X187.70
Y85.74
X185.40
X182.22Y82.56
Y91.21
X190.88
Y82.56
X182.22
Z12.70
G0X218.62Y85.74
G1Z-1.52F381.0
Y88.04F2286.0
X220.92
Y85.74
X218.62
X215.44Y82.56
Y91.21
X224.09
Y82.56
X215.44
Z12.70
G0X218.62Y85.74
Z-0.76
G1Z-3.05F381.0
Y88.04F2286.0
X220.92
Y85.74
X218.62
X215.44Y82.56
Y91.21
X224.09
Y82.56
X215.44
Z12.70
G0X218.62Y85.74
Z-2.29
G1Z-4.57F381.0
Y88.04F2286.0
X220.92
Y85.74
X218.62
X215.44Y82.56
Y91.21
X224.09
Y82.56
X215.44
Z12.70
G0X218.62Y85.74
Z-3.81
G1Z-6.10F381.0
Y88.04F2286.0
X220.92
Y85.74
X218.62
X215.44Y82.56
Y91.21
X224.09
Y82.56
X215.44
Z12.70
G0X218.62Y85.74
Z-5.33
G1Z-7.62F381.0
Y88.04F2286.0
X220.92
Y85.74
X218.62
X215.44Y82.56
Y91.21
X224.09
Y82.56
X215.44
Z12.70
G0X218.62Y85.74
Z-6.86
G1Z-9.14F381.0
Y88.04F2286.0
X220.92
Y85.74
X218.62
X215.44Y82.56
Y91.21
X224.09
Y82.56
X215.44
Z12.70
G0X218.62Y85.74
Z-8.38
G1Z-10.67F381.0
Y88.04F2286.0
X220.92
Y85.74
X218.62
X215.44Y82.56
Y91.21
X224.09
Y82.56
X215.44
Z12.70
G0X218.62Y85.74
Z-9.91
G1Z-12.19F381.0
Y88.04F2286.0
X220.92
Y85.74
X218.62
X215.44Y82.56
Y91.21
X224.09
Y82.56
X215.44
Z12.70
G0X218.62Y85.74
Z-11.21
G1Z-13.50F381.0
Y88.04F2286.0
X220.92
Y85.74
X218.62
X215.44Y82.56
Y91.21
X224.09
Y82.56
X215.44
Z12.70
G0X218.62Y118.96
G1Z-1.52F381.0
Y121.26F2286.0
X220.92
Y118.96
X218.62
X215.44Y115.78
Y124.44
X224.09
Y115.78
X215.44
Z12.70
G0X218.62Y118.96
Z-0.76
G1Z-3.05F381.0
Y121.26F2286.0
X220.92
Y118.96
X218.62
X215.44Y115.78
Y124.44
X224.09
Y115.78
X215.44
Z12.70
G0X218.62Y118.96
Z-2.29
G1Z-4.57F381.0
Y121.26F2286.0
X220.92
Y118.96
X218.62
X215.44Y115.78
Y124.44
X224.09
Y115.78
X215.44
Z12.70
G0X218.62Y118.96
Z-3.81
G1Z-6.10F381.0
Y121.26F2286.0
X220.92
Y118.96
X218.62
X215.44Y115.78
Y124.44
X224.09
Y115.78
X215.44
Z12.70
G0X218.62Y118.96
Z-5.33
G1Z-7.62F381.0
Y121.26F2286.0
X220.92
Y118.96
X218.62
X215.44Y115.78
Y124.44
X224.09
Y115.78
X215.44
Z12.70
G0X218.62Y118.96
Z-6.86
G1Z-9.14F381.0
Y121.26F2286.0
X220.92
Y118.96
X218.62
X215.44Y115.78
Y124.44
X224.09
Y115.78
X215.44
Z12.70
G0X218.62Y118.96
Z-8.38
G1Z-10.67F381.0
Y121.26F2286.0
X220.92
Y118.96
X218.62
X215.44Y115.78
Y124.44
X224.09
Y115.78
X215.44
Z12.70
G0X218.62Y118.96
Z-9.91
G1Z-12.19F381.0
Y121.26F2286.0
X220.92
Y118.96
X218.62
X215.44Y115.78
Y124.44
X224.09
Y115.78
X215.44
Z12.70
G0X218.62Y118.96
Z-11.21
G1Z-13.50F381.0
Y121.26F2286.0
X220.92
Y118.96
X218.62
X215.44Y115.78
Y124.44
X224.09
Y115.78
X215.44
Z12.70
G0X218.62Y152.18
G1Z-1.52F381.0
Y154.48F2286.0
X220.92
Y152.18
X218.62
X215.44Y149.00
Y157.65
X224.09
Y149.00
X215.44
Z12.70
G0X218.62Y152.18
Z-0.76
G1Z-3.05F381.0
Y154.48F2286.0
X220.92
Y152.18
X218.62
X215.44Y149.00
Y157.65
X224.09
Y149.00
X215.44
Z12.70
G0X218.62Y152.18
Z-2.29
G1Z-4.57F381.0
Y154.48F2286.0
X220.92
Y152.18
X218.62
X215.44Y149.00
Y157.65
X224.09
Y149.00
X215.44
Z12.70
G0X218.62Y152.18
Z-3.81
G1Z-6.10F381.0
Y154.48F2286.0
X220.92
Y152.18
X218.62
X215.44Y149.00
Y157.65
X224.09
Y149.00
X215.44
Z12.70
G0X218.62Y152.18
Z-5.33
G1Z-7.62F381.0
Y154.48F2286.0
X220.92
Y152.18
X218.62
X215.44Y149.00
Y157.65
X224.09
Y149.00
X215.44
Z12.70
G0X218.62Y152.18
Z-6.86
G1Z-9.14F381.0
Y154.48F2286.0
X220.92
Y152.18
X218.62
X215.44Y149.00
Y157.65
X224.09
Y149.00
X215.44
Z12.70
G0X218.62Y152.18
Z-8.38
G1Z-10.67F381.0
Y154.48F2286.0
X220.92
Y152.18
X218.62
X215.44Y149.00
Y157.65
X224.09
Y149.00
X215.44
Z12.70
G0X218.62Y152.18
Z-9.91
G1Z-12.19F381.0
Y154.48F2286.0
X220.92
Y152.18
X218.62
X215.44Y149.00
Y157.65
X224.09
Y149.00
X215.44
Z12.70
G0X218.62Y152.18
Z-11.21
G1Z-13.50F381.0
Y154.48F2286.0
X220.92
Y152.18
X218.62
X215.44Y149.00
Y157.65
X224.09
Y149.00
X215.44
Z12.70
G0X218.62Y185.40
G1Z-1.52F381.0
Y187.70F2286.0
X220.92
Y185.40
X218.62
X215.44Y182.22
Y190.88
X224.09
Y182.22
X215.44
Z12.70
G0X218.62Y185.40
Z-0.76
G1Z-3.05F381.0
Y187.70F2286.0
X220.92
Y185.40
X218.62
X215.44Y182.22
Y190.88
X224.09
Y182.22
X215.44
Z12.70
G0X218.62Y185.40
Z-2.29
G1Z-4.57F381.0
Y187.70F2286.0
X220.92
Y185.40
X218.62
X215.44Y182.22
Y190.88
X224.09
Y182.22
X215.44
Z12.70
G0X218.62Y185.40
Z-3.81
G1Z-6.10F381.0
Y187.70F2286.0
X220.92
Y185.40
X218.62
X215.44Y182.22
Y190.88
X224.09
Y182.22
X215.44
Z12.70
G0X218.62Y185.40
Z-5.33
G1Z-7.62F381.0
Y187.70F2286.0
X220.92
Y185.40
X218.62
X215.44Y182.22
Y190.88
X224.09
Y182.22
X215.44
Z12.70
G0X218.62Y185.40
Z-6.86
G1Z-9.14F381.0
Y187.70F2286.0
X220.92
Y185.40
X218.62
X215.44Y182.22
Y190.88
X224.09
Y182.22
X215.44
Z12.70
G0X218.62Y185.40
Z-8.38
G1Z-10.67F381.0
Y187.70F2286.0
X220.92
Y185.40
X218.62
X215.44Y182.22
Y190.88
X224.09
Y182.22
X215.44
Z12.70
G0X218.62Y185.40
Z-9.91
G1Z-12.19F381.0
Y187.70F2286.0
X220.92
Y185.40
X218.62
X215.44Y182.22
Y190.88
X224.09
Y182.22
X215.44
Z12.70
G0X218.62Y185.40
Z-11.21
G1Z-13.50F381.0
Y187.70F2286.0
X220.92
Y185.40
X218.62
X215.44Y182.22
Y190.88
X224.09
Y182.22
X215.44
Z12.70
G0X185.40Y185.40
G1Z-1.52F381.0
Y187.70F2286.0
X187.70
Y185.40
X185.40
X182.22Y182.22
Y190.88
X190.88
Y182.22
X182.22
Z12.70
G0X185.40Y185.40
Z-0.76
G1Z-3.05F381.0
Y187.70F2286.0
X187.70
Y185.40
X185.40
X182.22Y182.22
Y190.88
X190.88
Y182.22
X182.22
Z12.70
G0X185.40Y185.40
Z-2.29
G1Z-4.57F381.0
Y187.70F2286.0
X187.70
Y185.40
X185.40
X182.22Y182.22
Y190.88
X190.88
Y182.22
X182.22
Z12.70
G0X185.40Y185.40
Z-3.81
G1Z-6.10F381.0
Y187.70F2286.0
X187.70
Y185.40
X185.40
X182.22Y182.22
Y190.88
X190.88
Y182.22
X182.22
Z12.70
G0X185.40Y185.40
Z-5.33
G1Z-7.62F381.0
Y187.70F2286.0
X187.70
Y185.40
X185.40
X182.22Y182.22
Y190.88
X190.88
Y182.22
X182.22
Z12.70
G0X185.40Y185.40
Z-6.86
G1Z-9.14F381.0
Y187.70F2286.0
X187.70
Y185.40
X185.40
X182.22Y182.22
Y190.88
X190.88
Y182.22
X182.22
Z12.70
G0X185.40Y185.40
Z-8.38
G1Z-10.67F381.0
Y187.70F2286.0
X187.70
Y185.40
X185.40
X182.22Y182.22
Y190.88
X190.88
Y182.22
X182.22
Z12.70
G0X185.40Y185.40
Z-9.91
G1Z-12.19F381.0
Y187.70F2286.0
X187.70
Y185.40
X185.40
X182.22Y182.22
Y190.88
X190.88
Y182.22
X182.22
Z12.70
G0X185.40Y185.40
Z-11.21
G1Z-13.50F381.0
Y187.70F2286.0
X187.70
Y185.40
X185.40
X182.22Y182.22
Y190.88
X190.88
Y182.22
X182.22
Z12.70
G0X152.18Y185.40
G1Z-1.52F381.0
Y187.70F2286.0
X154.48
Y185.40
X152.18
X149.00Y182.22
Y190.88
X157.65
Y182.22
X149.00
Z12.70
G0X152.18Y185.40
Z-0.76
G1Z-3.05F381.0
Y187.70F2286.0
X154.48
Y185.40
X152.18
X149.00Y182.22
Y190.88
X157.65
Y182.22
X149.00
Z12.70
G0X152.18Y185.40
Z-2.29
G1Z-4.57F381.0
Y187.70F2286.0
X154.48
Y185.40
X152.18
X149.00Y182.22
Y190.88
X157.65
Y182.22
X149.00
Z12.70
G0X152.18Y185.40
Z-3.81
G1Z-6.10F381.0
Y187.70F2286.0
X154.48
Y185.40
X152.18
X149.00Y182.22
Y190.88
X157.65
Y182.22
X149.00
Z12.70
G0X152.18Y185.40
Z-5.33
G1Z-7.62F381.0
Y187.70F2286.0
X154.48
Y185.40
X152.18
X149.00Y182.22
Y190.88
X157.65
Y182.22
X149.00
Z12.70
G0X152.18Y185.40
Z-6.86
G1Z-9.14F381.0
Y187.70F2286.0
X154.48
Y185.40
X152.18
X149.00Y182.22
Y190.88
X157.65
Y182.22
X149.00
Z12.70
G0X152.18Y185.40
Z-8.38
G1Z-10.67F381.0
Y187.70F2286.0
X154.48
Y185.40
X152.18
X149.00Y182.22
Y190.88
X157.65
Y182.22
X149.00
Z12.70
G0X152.18Y185.40
Z-9.91
G1Z-12.19F381.0
Y187.70F2286.0
X154.48
Y185.40
X152.18
X149.00Y182.22
Y190.88
X157.65
Y182.22
X149.00
Z12.70
G0X152.18Y185.40
Z-11.21
G1Z-13.50F381.0
Y187.70F2286.0
X154.48
Y185.40
X152.18
X149.00Y182.22
Y190.88
X157.65
Y182.22
X149.00
Z12.70
G0X118.96Y185.40
G1Z-1.52F381.0
Y187.70F2286.0
X121.26
Y185.40
X118.96
X115.78Y182.22
Y190.88
X124.44
Y182.22
X115.78
Z12.70
G0X118.96Y185.40
Z-0.76
G1Z-3.05F381.0
Y187.70F2286.0
X121.26
Y185.40
X118.96
X115.78Y182.22
Y190.88
X124.44
Y182.22
X115.78
Z12.70
G0X118.96Y185.40
Z-2.29
G1Z-4.57F381.0
Y187.70F2286.0
X121.26
Y185.40
X118.96
X115.78Y182.22
Y190.88
X124.44
Y182.22
X115.78
Z12.70
G0X118.96Y185.40
Z-3.81
G1Z-6.10F381.0
Y187.70F2286.0
X121.26
Y185.40
X118.96
X115.78Y182.22
Y190.88
X124.44
Y182.22
X115.78
Z12.70
G0X118.96Y185.40
Z-5.33
G1Z-7.62F381.0
Y187.70F2286.0
X121.26
Y185.40
X118.96
X115.78Y182.22
Y190.88
X124.44
Y182.22
X115.78
Z12.70
G0X118.96Y185.40
Z-6.86
G1Z-9.14F381.0
Y187.70F2286.0
X121.26
Y185.40
X118.96
X115.78Y182.22
Y190.88
X124.44
Y182.22
X115.78
Z12.70
G0X118.96Y185.40
Z-8.38
G1Z-10.67F381.0
Y187.70F2286.0
X121.26
Y185.40
X118.96
X115.78Y182.22
Y190.88
X124.44
Y182.22
X115.78
Z12.70
G0X118.96Y185.40
Z-9.91
G1Z-12.19F381.0
Y187.70F2286.0
X121.26
Y185.40
X118.96
X115.78Y182.22
Y190.88
X124.44
Y182.22
X115.78
Z12.70
G0X118.96Y185.40
Z-11.21
G1Z-13.50F381.0
Y187.70F2286.0
X121.26
Y185.40
X118.96
X115.78Y182.22
Y190.88
X124.44
Y182.22
X115.78
Z12.70
G0X85.74Y185.40
G1Z-1.52F381.0
Y187.70F2286.0
X88.04
Y185.40
X85.74
X82.56Y182.22
Y190.88
X91.22
Y182.22
X82.56
Z12.70
G0X85.74Y185.40
Z-0.76
G1Z-3.05F381.0
Y187.70F2286.0
X88.04
Y185.40
X85.74
X82.56Y182.22
Y190.88
X91.22
Y182.22
X82.56
Z12.70
G0X85.74Y185.40
Z-2.29
G1Z-4.57F381.0
Y187.70F2286.0
X88.04
Y185.40
X85.74
X82.56Y182.22
Y190.88
X91.22
Y182.22
X82.56
Z12.70
G0X85.74Y185.40
Z-3.81
G1Z-6.10F381.0
Y187.70F2286.0
X88.04
Y185.40
X85.74
X82.56Y182.22
Y190.88
X91.22
Y182.22
X82.56
Z12.70
G0X85.74Y185.40
Z-5.33
G1Z-7.62F381.0
Y187.70F2286.0
X88.04
Y185.40
X85.74
X82.56Y182.22
Y190.88
X91.22
Y182.22
X82.56
Z12.70
G0X85.74Y185.40
Z-6.86
G1Z-9.14F381.0
Y187.70F2286.0
X88.04
Y185.40
X85.74
X82.56Y182.22
Y190.88
X91.22
Y182.22
X82.56
Z12.70
G0X85.74Y185.40
Z-8.38
G1Z-10.67F381.0
Y187.70F2286.0
X88.04
Y185.40
X85.74
X82.56Y182.22
Y190.88
X91.22
Y182.22
X82.56
Z12.70
G0X85.74Y185.40
Z-9.91
G1Z-12.19F381.0
Y187.70F2286.0
X88.04
Y185.40
X85.74
X82.56Y182.22
Y190.88
X91.22
Y182.22
X82.56
Z12.70
G0X85.74Y185.40
Z-11.21
G1Z-13.50F381.0
Y187.70F2286.0
X88.04
Y185.40
X85.74
X82.56Y182.22
Y190.88
X91.22
Y182.22
X82.56
Z12.70
G0X52.52Y185.40
G1Z-1.52F381.0
Y187.70F2286.0
X54.82
Y185.40
X52.52
X49.34Y182.22
Y190.88
X57.99
Y182.22
X49.34
Z12.70
G0X52.52Y185.40
Z-0.76
G1Z-3.05F381.0
Y187.70F2286.0
X54.82
Y185.40
X52.52
X49.34Y182.22
Y190.88
X57.99
Y182.22
X49.34
Z12.70
G0X52.52Y185.40
Z-2.29
G1Z-4.57F381.0
Y187.70F2286.0
X54.82
Y185.40
X52.52
X49.34Y182.22
Y190.88
X57.99
Y182.22
X49.34
Z12.70
G0X52.52Y185.40
Z-3.81
G1Z-6.10F381.0
Y187.70F2286.0
X54.82
Y185.40
X52.52
X49.34Y182.22
Y190.88
X57.99
Y182.22
X49.34
Z12.70
G0X52.52Y185.40
Z-5.33
G1Z-7.62F381.0
Y187.70F2286.0
X54.82
Y185.40
X52.52
X49.34Y182.22
Y190.88
X57.99
Y182.22
X49.34
Z12.70
G0X52.52Y185.40
Z-6.86
G1Z-9.14F381.0
Y187.70F2286.0
X54.82
Y185.40
X52.52
X49.34Y182.22
Y190.88
X57.99
Y182.22
X49.34
Z12.70
G0X52.52Y185.40
Z-8.38
G1Z-10.67F381.0
Y187.70F2286.0
X54.82
Y185.40
X52.52
X49.34Y182.22
Y190.88
X57.99
Y182.22
X49.34
Z12.70
G0X52.52Y185.40
Z-9.91
G1Z-12.19F381.0
Y187.70F2286.0
X54.82
Y185.40
X52.52
X49.34Y182.22
Y190.88
X57.99
Y182.22
X49.34
Z12.70
G0X52.52Y185.40
Z-11.21
G1Z-13.50F381.0
Y187.70F2286.0
X54.82
Y185.40
X52.52
X49.34Y182.22
Y190.88
X57.99
Y182.22
X49.34
Z12.70
G0X52.52Y218.62
G1Z-1.52F381.0
Y220.92F2286.0
X54.82
Y218.62
X52.52
X49.34Y215.44
Y224.09
X57.99
Y215.44
X49.34
Z12.70
G0X52.52Y218.62
Z-0.76
G1Z-3.05F381.0
Y220.92F2286.0
X54.82
Y218.62
X52.52
X49.34Y215.44
Y224.09
X57.99
Y215.44
X49.34
Z12.70
G0X52.52Y218.62
Z-2.29
G1Z-4.57F381.0
Y220.92F2286.0
X54.82
Y218.62
X52.52
X49.34Y215.44
Y224.09
X57.99
Y215.44
X49.34
Z12.70
G0X52.52Y218.62
Z-3.81
G1Z-6.10F381.0
Y220.92F2286.0
X54.82
Y218.62
X52.52
X49.34Y215.44
Y224.09
X57.99
Y215.44
X49.34
Z12.70
G0X52.52Y218.62
Z-5.33
G1Z-7.62F381.0
Y220.92F2286.0
X54.82
Y218.62
X52.52
X49.34Y215.44
Y224.09
X57.99
Y215.44
X49.34
Z12.70
G0X52.52Y218.62
Z-6.86
G1Z-9.14F381.0
Y220.92F2286.0
X54.82
Y218.62
X52.52
X49.34Y215.44
Y224.09
X57.99
Y215.44
X49.34
Z12.70
G0X52.52Y218.62
Z-8.38
G1Z-10.67F381.0
Y220.92F2286.0
X54.82
Y218.62
X52.52
X49.34Y215.44
Y224.09
X57.99
Y215.44
X49.34
Z12.70
G0X52.52Y218.62
Z-9.91
G1Z-12.19F381.0
Y220.92F2286.0
X54.82
Y218.62
X52.52
X49.34Y215.44
Y224.09
X57.99
Y215.44
X49.34
Z12.70
G0X52.52Y218.62
Z-11.21
G1Z-13.50F381.0
Y220.92F2286.0
X54.82
Y218.62
X52.52
X49.34Y215.44
Y224.09
X57.99
Y215.44
X49.34
Z12.70
G0X85.74Y218.62
G1Z-1.52F381.0
Y220.92F2286.0
X88.04
Y218.62
X85.74
X82.56Y215.44
Y224.09
X91.22
Y215.44
X82.56
Z12.70
G0X85.74Y218.62
Z-0.76
G1Z-3.05F381.0
Y220.92F2286.0
X88.04
Y218.62
X85.74
X82.56Y215.44
Y224.09
X91.22
Y215.44
X82.56
Z12.70
G0X85.74Y218.62
Z-2.29
G1Z-4.57F381.0
Y220.92F2286.0
X88.04
Y218.62
X85.74
X82.56Y215.44
Y224.09
X91.22
Y215.44
X82.56
Z12.70
G0X85.74Y218.62
Z-3.81
G1Z-6.10F381.0
Y220.92F2286.0
X88.04
Y218.62
X85.74
X82.56Y215.44
Y224.09
X91.22
Y215.44
X82.56
Z12.70
G0X85.74Y218.62
Z-5.33
G1Z-7.62F381.0
Y220.92F2286.0
X88.04
Y218.62
X85.74
X82.56Y215.44
Y224.09
X91.22
Y215.44
X82.56
Z12.70
G0X85.74Y218.62
Z-6.86
G1Z-9.14F381.0
Y220.92F2286.0
X88.04
Y218.62
X85.74
X82.56Y215.44
Y224.09
X91.22
Y215.44
X82.56
Z12.70
G0X85.74Y218.62
Z-8.38
G1Z-10.67F381.0
Y220.92F2286.0
X88.04
Y218.62
X85.74
X82.56Y215.44
Y224.09
X91.22
Y215.44
X82.56
Z12.70
G0X85.74Y218.62
Z-9.91
G1Z-12.19F381.0
Y220.92F2286.0
X88.04
Y218.62
X85.74
X82.56Y215.44
Y224.09
X91.22
Y215.44
X82.56
Z12.70
G0X85.74Y218.62
Z-11.21
G1Z-13.50F381.0
Y220.92F2286.0
X88.04
Y218.62
X85.74
X82.56Y215.44
Y224.09
X91.22
Y215.44
X82.56
Z12.70
G0X118.96Y218.62
G1Z-1.52F381.0
Y220.92F2286.0
X121.26
Y218.62
X118.96
X115.78Y215.44
Y224.09
X124.44
Y215.44
X115.78
Z12.70
G0X118.96Y218.62
Z-0.76
G1Z-3.05F381.0
Y220.92F2286.0
X121.26
Y218.62
X118.96
X115.78Y215.44
Y224.09
X124.44
Y215.44
X115.78
Z12.70
G0X118.96Y218.62
Z-2.29
G1Z-4.57F381.0
Y220.92F2286.0
X121.26
Y218.62
X118.96
X115.78Y215.44
Y224.09
X124.44
Y215.44
X115.78
Z12.70
G0X118.96Y218.62
Z-3.81
G1Z-6.10F381.0
Y220.92F2286.0
X121.26
Y218.62
X118.96
X115.78Y215.44
Y224.09
X124.44
Y215.44
X115.78
Z12.70
G0X118.96Y218.62
Z-5.33
G1Z-7.62F381.0
Y220.92F2286.0
X121.26
Y218.62
X118.96
X115.78Y215.44
Y224.09
X124.44
Y215.44
X115.78
Z12.70
G0X118.96Y218.62
Z-6.86
G1Z-9.14F381.0
Y220.92F2286.0
X121.26
Y218.62
X118.96
X115.78Y215.44
Y224.09
X124.44
Y215.44
X115.78
Z12.70
G0X118.96Y218.62
Z-8.38
G1Z-10.67F381.0
Y220.92F2286.0
X121.26
Y218.62
X118.96
X115.78Y215.44
Y224.09
X124.44
Y215.44
X115.78
Z12.70
G0X118.96Y218.62
Z-9.91
G1Z-12.19F381.0
Y220.92F2286.0
X121.26
Y218.62
X118.96
X115.78Y215.44
Y224.09
X124.44
Y215.44
X115.78
Z12.70
G0X118.96Y218.62
Z-11.21
G1Z-13.50F381.0
Y220.92F2286.0
X121.26
Y218.62
X118.96
X115.78Y215.44
Y224.09
X124.44
Y215.44
X115.78
Z12.70
G0X152.18Y218.62
G1Z-1.52F381.0
Y220.92F2286.0
X154.48
Y218.62
X152.18
X149.00Y215.44
Y224.09
X157.65
Y215.44
X149.00
Z12.70
G0X152.18Y218.62
Z-0.76
G1Z-3.05F381.0
Y220.92F2286.0
X154.48
Y218.62
X152.18
X149.00Y215.44
Y224.09
X157.65
Y215.44
X149.00
Z12.70
G0X152.18Y218.62
Z-2.29
G1Z-4.57F381.0
Y220.92F2286.0
X154.48
Y218.62
X152.18
X149.00Y215.44
Y224.09
X157.65
Y215.44
X149.00
Z12.70
G0X152.18Y218.62
Z-3.81
G1Z-6.10F381.0
Y220.92F2286.0
X154.48
Y218.62
X152.18
X149.00Y215.44
Y224.09
X157.65
Y215.44
X149.00
Z12.70
G0X152.18Y218.62
Z-5.33
G1Z-7.62F381.0
Y220.92F2286.0
X154.48
Y218.62
X152.18
X149.00Y215.44
Y224.09
X157.65
Y215.44
X149.00
Z12.70
G0X152.18Y218.62
Z-6.86
G1Z-9.14F381.0
Y220.92F2286.0
X154.48
Y218.62
X152.18
X149.00Y215.44
Y224.09
X157.65
Y215.44
X149.00
Z12.70
G0X152.18Y218.62
Z-8.38
G1Z-10.67F381.0
Y220.92F2286.0
X154.48
Y218.62
X152.18
X149.00Y215.44
Y224.09
X157.65
Y215.44
X149.00
Z12.70
G0X152.18Y218.62
Z-9.91
G1Z-12.19F381.0
Y220.92F2286.0
X154.48
Y218.62
X152.18
X149.00Y215.44
Y224.09
X157.65
Y215.44
X149.00
Z12.70
G0X152.18Y218.62
Z-11.21
G1Z-13.50F381.0
Y220.92F2286.0
X154.48
Y218.62
X152.18
X149.00Y215.44
Y224.09
X157.65
Y215.44
X149.00
Z12.70
G0X185.40Y218.62
G1Z-1.52F381.0
Y220.92F2286.0
X187.70
Y218.62
X185.40
X182.22Y215.44
Y224.09
X190.88
Y215.44
X182.22
Z12.70
G0X185.40Y218.62
Z-0.76
G1Z-3.05F381.0
Y220.92F2286.0
X187.70
Y218.62
X185.40
X182.22Y215.44
Y224.09
X190.88
Y215.44
X182.22
Z12.70
G0X185.40Y218.62
Z-2.29
G1Z-4.57F381.0
Y220.92F2286.0
X187.70
Y218.62
X185.40
X182.22Y215.44
Y224.09
X190.88
Y215.44
X182.22
Z12.70
G0X185.40Y218.62
Z-3.81
G1Z-6.10F381.0
Y220.92F2286.0
X187.70
Y218.62
X185.40
X182.22Y215.44
Y224.09
X190.88
Y215.44
X182.22
Z12.70
G0X185.40Y218.62
Z-5.33
G1Z-7.62F381.0
Y220.92F2286.0
X187.70
Y218.62
X185.40
X182.22Y215.44
Y224.09
X190.88
Y215.44
X182.22
Z12.70
G0X185.40Y218.62
Z-6.86
G1Z-9.14F381.0
Y220.92F2286.0
X187.70
Y218.62
X185.40
X182.22Y215.44
Y224.09
X190.88
Y215.44
X182.22
Z12.70
G0X185.40Y218.62
Z-8.38
G1Z-10.67F381.0
Y220.92F2286.0
X187.70
Y218.62
X185.40
X182.22Y215.44
Y224.09
X190.88
Y215.44
X182.22
Z12.70
G0X185.40Y218.62
Z-9.91
G1Z-12.19F381.0
Y220.92F2286.0
X187.70
Y218.62
X185.40
X182.22Y215.44
Y224.09
X190.88
Y215.44
X182.22
Z12.70
G0X185.40Y218.62
Z-11.21
G1Z-13.50F381.0
Y220.92F2286.0
X187.70
Y218.62
X185.40
X182.22Y215.44
Y224.09
X190.88
Y215.44
X182.22
Z12.70
G0X218.62Y218.62
G1Z-1.52F381.0
Y220.92F2286.0
X220.92
Y218.62
X218.62
X215.44Y215.44
Y224.09
X224.09
Y215.44
X215.44
Z12.70
G0X218.62Y218.62
Z-0.76
G1Z-3.05F381.0
Y220.92F2286.0
X220.92
Y218.62
X218.62
X215.44Y215.44
Y224.09
X224.09
Y215.44
X215.44
Z12.70
G0X218.62Y218.62
Z-2.29
G1Z-4.57F381.0
Y220.92F2286.0
X220.92
Y218.62
X218.62
X215.44Y215.44
Y224.09
X224.09
Y215.44
X215.44
Z12.70
G0X218.62Y218.62
Z-3.81
G1Z-6.10F381.0
Y220.92F2286.0
X220.92
Y218.62
X218.62
X215.44Y215.44
Y224.09
X224.09
Y215.44
X215.44
Z12.70
G0X218.62Y218.62
Z-5.33
G1Z-7.62F381.0
Y220.92F2286.0
X220.92
Y218.62
X218.62
X215.44Y215.44
Y224.09
X224.09
Y215.44
X215.44
Z12.70
G0X218.62Y218.62
Z-6.86
G1Z-9.14F381.0
Y220.92F2286.0
X220.92
Y218.62
X218.62
X215.44Y215.44
Y224.09
X224.09
Y215.44
X215.44
Z12.70
G0X218.62Y218.62
Z-8.38
G1Z-10.67F381.0
Y220.92F2286.0
X220.92
Y218.62
X218.62
X215.44Y215.44
Y224.09
X224.09
Y215.44
X215.44
Z12.70
G0X218.62Y218.62
Z-9.91
G1Z-12.19F381.0
Y220.92F2286.0
X220.92
Y218.62
X218.62
X215.44Y215.44
Y224.09
X224.09
Y215.44
X215.44
Z12.70
G0X218.62Y218.62
Z-11.21
G1Z-13.50F381.0
Y220.92F2286.0
X220.92
Y218.62
X218.62
X215.44Y215.44
Y224.09
X224.09
Y215.44
X215.44
Z12.70
G0X251.84Y218.62
G1Z-1.52F381.0
Y220.92F2286.0
X254.14
Y218.62
X251.84
X248.66Y215.44
Y224.09
X257.31
Y215.44
X248.66
Z12.70
G0X251.84Y218.62
Z-0.76
G1Z-3.05F381.0
Y220.92F2286.0
X254.14
Y218.62
X251.84
X248.66Y215.44
Y224.09
X257.31
Y215.44
X248.66
Z12.70
G0X251.84Y218.62
Z-2.29
G1Z-4.57F381.0
Y220.92F2286.0
X254.14
Y218.62
X251.84
X248.66Y215.44
Y224.09
X257.31
Y215.44
X248.66
Z12.70
G0X251.84Y218.62
Z-3.81
G1Z-6.10F381.0
Y220.92F2286.0
X254.14
Y218.62
X251.84
X248.66Y215.44
Y224.09
X257.31
Y215.44
X248.66
Z12.70
G0X251.84Y218.62
Z-5.33
G1Z-7.62F381.0
Y220.92F2286.0
X254.14
Y218.62
X251.84
X248.66Y215.44
Y224.09
X257.31
Y215.44
X248.66
Z12.70
G0X251.84Y218.62
Z-6.86
G1Z-9.14F381.0
Y220.92F2286.0
X254.14
Y218.62
X251.84
X248.66Y215.44
Y224.09
X257.31
Y215.44
X248.66
Z12.70
G0X251.84Y218.62
Z-8.38
G1Z-10.67F381.0
Y220.92F2286.0
X254.14
Y218.62
X251.84
X248.66Y215.44
Y224.09
X257.31
Y215.44
X248.66
Z12.70
G0X251.84Y218.62
Z-9.91
G1Z-12.19F381.0
Y220.92F2286.0
X254.14
Y218.62
X251.84
X248.66Y215.44
Y224.09
X257.31
Y215.44
X248.66
Z12.70
G0X251.84Y218.62
Z-11.21
G1Z-13.50F381.0
Y220.92F2286.0
X254.14
Y218.62
X251.84
X248.66Y215.44
Y224.09
X257.31
Y215.44
X248.66
Z12.70
G0X251.84Y185.40
G1Z-1.52F381.0
Y187.70F2286.0
X254.14
Y185.40
X251.84
X248.66Y182.22
Y190.88
X257.31
Y182.22
X248.66
Z12.70
G0X251.84Y185.40
Z-0.76
G1Z-3.05F381.0
Y187.70F2286.0
X254.14
Y185.40
X251.84
X248.66Y182.22
Y190.88
X257.31
Y182.22
X248.66
Z12.70
G0X251.84Y185.40
Z-2.29
G1Z-4.57F381.0
Y187.70F2286.0
X254.14
Y185.40
X251.84
X248.66Y182.22
Y190.88
X257.31
Y182.22
X248.66
Z12.70
G0X251.84Y185.40
Z-3.81
G1Z-6.10F381.0
Y187.70F2286.0
X254.14
Y185.40
X251.84
X248.66Y182.22
Y190.88
X257.31
Y182.22
X248.66
Z12.70
G0X251.84Y185.40
Z-5.33
G1Z-7.62F381.0
Y187.70F2286.0
X254.14
Y185.40
X251.84
X248.66Y182.22
Y190.88
X257.31
Y182.22
X248.66
Z12.70
G0X251.84Y185.40
Z-6.86
G1Z-9.14F381.0
Y187.70F2286.0
X254.14
Y185.40
X251.84
X248.66Y182.22
Y190.88
X257.31
Y182.22
X248.66
Z12.70
G0X251.84Y185.40
Z-8.38
G1Z-10.67F381.0
Y187.70F2286.0
X254.14
Y185.40
X251.84
X248.66Y182.22
Y190.88
X257.31
Y182.22
X248.66
Z12.70
G0X251.84Y185.40
Z-9.91
G1Z-12.19F381.0
Y187.70F2286.0
X254.14
Y185.40
X251.84
X248.66Y182.22
Y190.88
X257.31
Y182.22
X248.66
Z12.70
G0X251.84Y185.40
Z-11.21
G1Z-13.50F381.0
Y187.70F2286.0
X254.14
Y185.40
X251.84
X248.66Y182.22
Y190.88
X257.31
Y182.22
X248.66
Z12.70
G0X251.84Y152.18
G1Z-1.52F381.0
Y154.48F2286.0
X254.14
Y152.18
X251.84
X248.66Y149.00
Y157.65
X257.31
Y149.00
X248.66
Z12.70
G0X251.84Y152.18
Z-0.76
G1Z-3.05F381.0
Y154.48F2286.0
X254.14
Y152.18
X251.84
X248.66Y149.00
Y157.65
X257.31
Y149.00
X248.66
Z12.70
G0X251.84Y152.18
Z-2.29
G1Z-4.57F381.0
Y154.48F2286.0
X254.14
Y152.18
X251.84
X248.66Y149.00
Y157.65
X257.31
Y149.00
X248.66
Z12.70
G0X251.84Y152.18
Z-3.81
G1Z-6.10F381.0
Y154.48F2286.0
X254.14
Y152.18
X251.84
X248.66Y149.00
Y157.65
X257.31
Y149.00
X248.66
Z12.70
G0X251.84Y152.18
Z-5.33
G1Z-7.62F381.0
Y154.48F2286.0
X254.14
Y152.18
X251.84
X248.66Y149.00
Y157.65
X257.31
Y149.00
X248.66
Z12.70
G0X251.84Y152.18
Z-6.86
G1Z-9.14F381.0
Y154.48F2286.0
X254.14
Y152.18
X251.84
X248.66Y149.00
Y157.65
X257.31
Y149.00
X248.66
Z12.70
G0X251.84Y152.18
Z-8.38
G1Z-10.67F381.0
Y154.48F2286.0
X254.14
Y152.18
X251.84
X248.66Y149.00
Y157.65
X257.31
Y149.00
X248.66
Z12.70
G0X251.84Y152.18
Z-9.91
G1Z-12.19F381.0
Y154.48F2286.0
X254.14
Y152.18
X251.84
X248.66Y149.00
Y157.65
X257.31
Y149.00
X248.66
Z12.70
G0X251.84Y152.18
Z-11.21
G1Z-13.50F381.0
Y154.48F2286.0
X254.14
Y152.18
X251.84
X248.66Y149.00
Y157.65
X257.31
Y149.00
X248.66
Z12.70
G0X251.84Y118.96
G1Z-1.52F381.0
Y121.26F2286.0
X254.14
Y118.96
X251.84
X248.66Y115.78
Y124.44
X257.31
Y115.78
X248.66
Z12.70
G0X251.84Y118.96
Z-0.76
G1Z-3.05F381.0
Y121.26F2286.0
X254.14
Y118.96
X251.84
X248.66Y115.78
Y124.44
X257.31
Y115.78
X248.66
Z12.70
G0X251.84Y118.96
Z-2.29
G1Z-4.57F381.0
Y121.26F2286.0
X254.14
Y118.96
X251.84
X248.66Y115.78
Y124.44
X257.31
Y115.78
X248.66
Z12.70
G0X251.84Y118.96
Z-3.81
G1Z-6.10F381.0
Y121.26F2286.0
X254.14
Y118.96
X251.84
X248.66Y115.78
Y124.44
X257.31
Y115.78
X248.66
Z12.70
G0X251.84Y118.96
Z-5.33
G1Z-7.62F381.0
Y121.26F2286.0
X254.14
Y118.96
X251.84
X248.66Y115.78
Y124.44
X257.31
Y115.78
X248.66
Z12.70
G0X251.84Y118.96
Z-6.86
G1Z-9.14F381.0
Y121.26F2286.0
X254.14
Y118.96
X251.84
X248.66Y115.78
Y124.44
X257.31
Y115.78
X248.66
Z12.70
G0X251.84Y118.96
Z-8.38
G1Z-10.67F381.0
Y121.26F2286.0
X254.14
Y118.96
X251.84
X248.66Y115.78
Y124.44
X257.31
Y115.78
X248.66
Z12.70
G0X251.84Y118.96
Z-9.91
G1Z-12.19F381.0
Y121.26F2286.0
X254.14
Y118.96
X251.84
X248.66Y115.78
Y124.44
X257.31
Y115.78
X248.66
Z12.70
G0X251.84Y118.96
Z-11.21
G1Z-13.50F381.0
Y121.26F2286.0
X254.14
Y118.96
X251.84
X248.66Y115.78
Y124.44
X257.31
Y115.78
X248.66
Z12.70
G0X251.84Y85.74
G1Z-1.52F381.0
Y88.04F2286.0
X254.14
Y85.74
X251.84
X248.66Y82.56
Y91.21
X257.31
Y82.56
X248.66
Z12.70
G0X251.84Y85.74
Z-0.76
G1Z-3.05F381.0
Y88.04F2286.0
X254.14
Y85.74
X251.84
X248.66Y82.56
Y91.21
X257.31
Y82.56
X248.66
Z12.70
G0X251.84Y85.74
Z-2.29
G1Z-4.57F381.0
Y88.04F2286.0
X254.14
Y85.74
X251.84
X248.66Y82.56
Y91.21
X257.31
Y82.56
X248.66
Z12.70
G0X251.84Y85.74
Z-3.81
G1Z-6.10F381.0
Y88.04F2286.0
X254.14
Y85.74
X251.84
X248.66Y82.56
Y91.21
X257.31
Y82.56
X248.66
Z12.70
G0X251.84Y85.74
Z-5.33
G1Z-7.62F381.0
Y88.04F2286.0
X254.14
Y85.74
X251.84
X248.66Y82.56
Y91.21
X257.31
Y82.56
X248.66
Z12.70
G0X251.84Y85.74
Z-6.86
G1Z-9.14F381.0
Y88.04F2286.0
X254.14
Y85.74
X251.84
X248.66Y82.56
Y91.21
X257.31
Y82.56
X248.66
Z12.70
G0X251.84Y85.74
Z-8.38
G1Z-10.67F381.0
Y88.04F2286.0
X254.14
Y85.74
X251.84
X248.66Y82.56
Y91.21
X257.31
Y82.56
X248.66
Z12.70
G0X251.84Y85.74
Z-9.91
G1Z-12.19F381.0
Y88.04F2286.0
X254.14
Y85.74
X251.84
X248.66Y82.56
Y91.21
X257.31
Y82.56
X248.66
Z12.70
G0X251.84Y85.74
Z-11.21
G1Z-13.50F381.0
Y88.04F2286.0
X254.14
Y85.74
X251.84
X248.66Y82.56
Y91.21
X257.31
Y82.56
X248.66
Z12.70
G0X285.06Y85.74
G1Z-1.52F381.0
Y88.04F2286.0
X287.36
Y85.74
X285.06
X281.88Y82.56
Y91.21
X290.54
Y82.56
X281.88
Z12.70
G0X285.06Y85.74
Z-0.76
G1Z-3.05F381.0
Y88.04F2286.0
X287.36
Y85.74
X285.06
X281.88Y82.56
Y91.21
X290.54
Y82.56
X281.88
Z12.70
G0X285.06Y85.74
Z-2.29
G1Z-4.57F381.0
Y88.04F2286.0
X287.36
Y85.74
X285.06
X281.88Y82.56
Y91.21
X290.54
Y82.56
X281.88
Z12.70
G0X285.06Y85.74
Z-3.81
G1Z-6.10F381.0
Y88.04F2286.0
X287.36
Y85.74
X285.06
X281.88Y82.56
Y91.21
X290.54
Y82.56
X281.88
Z12.70
G0X285.06Y85.74
Z-5.33
G1Z-7.62F381.0
Y88.04F2286.0
X287.36
Y85.74
X285.06
X281.88Y82.56
Y91.21
X290.54
Y82.56
X281.88
Z12.70
G0X285.06Y85.74
Z-6.86
G1Z-9.14F381.0
Y88.04F2286.0
X287.36
Y85.74
X285.06
X281.88Y82.56
Y91.21
X290.54
Y82.56
X281.88
Z12.70
G0X285.06Y85.74
Z-8.38
G1Z-10.67F381.0
Y88.04F2286.0
X287.36
Y85.74
X285.06
X281.88Y82.56
Y91.21
X290.54
Y82.56
X281.88
Z12.70
G0X285.06Y85.74
Z-9.91
G1Z-12.19F381.0
Y88.04F2286.0
X287.36
Y85.74
X285.06
X281.88Y82.56
Y91.21
X290.54
Y82.56
X281.88
Z12.70
G0X285.06Y85.74
Z-11.21
G1Z-13.50F381.0
Y88.04F2286.0
X287.36
Y85.74
X285.06
X281.88Y82.56
Y91.21
X290.54
Y82.56
X281.88
Z12.70
G0X318.28Y85.74
G1Z-1.52F381.0
Y88.04F2286.0
X320.58
Y85.74
X318.28
X315.11Y82.56
Y91.21
X323.75
Y82.56
X315.11
Z12.70
G0X318.28Y85.74
Z-0.76
G1Z-3.05F381.0
Y88.04F2286.0
X320.58
Y85.74
X318.28
X315.11Y82.56
Y91.21
X323.75
Y82.56
X315.11
Z12.70
G0X318.28Y85.74
Z-2.29
G1Z-4.57F381.0
Y88.04F2286.0
X320.58
Y85.74
X318.28
X315.11Y82.56
Y91.21
X323.75
Y82.56
X315.11
Z12.70
G0X318.28Y85.74
Z-3.81
G1Z-6.10F381.0
Y88.04F2286.0
X320.58
Y85.74
X318.28
X315.11Y82.56
Y91.21
X323.75
Y82.56
X315.11
Z12.70
G0X318.28Y85.74
Z-5.33
G1Z-7.62F381.0
Y88.04F2286.0
X320.58
Y85.74
X318.28
X315.11Y82.56
Y91.21
X323.75
Y82.56
X315.11
Z12.70
G0X318.28Y85.74
Z-6.86
G1Z-9.14F381.0
Y88.04F2286.0
X320.58
Y85.74
X318.28
X315.11Y82.56
Y91.21
X323.75
Y82.56
X315.11
Z12.70
G0X318.28Y85.74
Z-8.38
G1Z-10.67F381.0
Y88.04F2286.0
X320.58
Y85.74
X318.28
X315.11Y82.56
Y91.21
X323.75
Y82.56
X315.11
Z12.70
G0X318.28Y85.74
Z-9.91
G1Z-12.19F381.0
Y88.04F2286.0
X320.58
Y85.74
X318.28
X315.11Y82.56
Y91.21
X323.75
Y82.56
X315.11
Z12.70
G0X318.28Y85.74
Z-11.21
G1Z-13.50F381.0
Y88.04F2286.0
X320.58
Y85.74
X318.28
X315.11Y82.56
Y91.21
X323.75
Y82.56
X315.11
Z12.70
G0X351.50Y85.74
G1Z-1.52F381.0
Y88.04F2286.0
X353.80
Y85.74
X351.50
X348.32Y82.56
Y91.21
X356.98
Y82.56
X348.32
Z12.70
G0X351.50Y85.74
Z-0.76
G1Z-3.05F381.0
Y88.04F2286.0
X353.80
Y85.74
X351.50
X348.32Y82.56
Y91.21
X356.98
Y82.56
X348.32
Z12.70
G0X351.50Y85.74
Z-2.29
G1Z-4.57F381.0
Y88.04F2286.0
X353.80
Y85.74
X351.50
X348.32Y82.56
Y91.21
X356.98
Y82.56
X348.32
Z12.70
G0X351.50Y85.74
Z-3.81
G1Z-6.10F381.0
Y88.04F2286.0
X353.80
Y85.74
X351.50
X348.32Y82.56
Y91.21
X356.98
Y82.56
X348.32
Z12.70
G0X351.50Y85.74
Z-5.33
G1Z-7.62F381.0
Y88.04F2286.0
X353.80
Y85.74
X351.50
X348.32Y82.56
Y91.21
X356.98
Y82.56
X348.32
Z12.70
G0X351.50Y85.74
Z-6.86
G1Z-9.14F381.0
Y88.04F2286.0
X353.80
Y85.74
X351.50
X348.32Y82.56
Y91.21
X356.98
Y82.56
X348.32
Z12.70
G0X351.50Y85.74
Z-8.38
G1Z-10.67F381.0
Y88.04F2286.0
X353.80
Y85.74
X351.50
X348.32Y82.56
Y91.21
X356.98
Y82.56
X348.32
Z12.70
G0X351.50Y85.74
Z-9.91
G1Z-12.19F381.0
Y88.04F2286.0
X353.80
Y85.74
X351.50
X348.32Y82.56
Y91.21
X356.98
Y82.56
X348.32
Z12.70
G0X351.50Y85.74
Z-11.21
G1Z-13.50F381.0
Y88.04F2286.0
X353.80
Y85.74
X351.50
X348.32Y82.56
Y91.21
X356.98
Y82.56
X348.32
Z12.70
G0X384.72Y85.74
G1Z-1.52F381.0
Y88.04F2286.0
X387.02
Y85.74
X384.72
X381.55Y82.56
Y91.21
X390.19
Y82.56
X381.55
Z12.70
G0X384.72Y85.74
Z-0.76
G1Z-3.05F381.0
Y88.04F2286.0
X387.02
Y85.74
X384.72
X381.55Y82.56
Y91.21
X390.19
Y82.56
X381.55
Z12.70
G0X384.72Y85.74
Z-2.29
G1Z-4.57F381.0
Y88.04F2286.0
X387.02
Y85.74
X384.72
X381.55Y82.56
Y91.21
X390.19
Y82.56
X381.55
Z12.70
G0X384.72Y85.74
Z-3.81
G1Z-6.10F381.0
Y88.04F2286.0
X387.02
Y85.74
X384.72
X381.55Y82.56
Y91.21
X390.19
Y82.56
X381.55
Z12.70
G0X384.72Y85.74
Z-5.33
G1Z-7.62F381.0
Y88.04F2286.0
X387.02
Y85.74
X384.72
X381.55Y82.56
Y91.21
X390.19
Y82.56
X381.55
Z12.70
G0X384.72Y85.74
Z-6.86
G1Z-9.14F381.0
Y88.04F2286.0
X387.02
Y85.74
X384.72
X381.55Y82.56
Y91.21
X390.19
Y82.56
X381.55
Z12.70
G0X384.72Y85.74
Z-8.38
G1Z-10.67F381.0
Y88.04F2286.0
X387.02
Y85.74
X384.72
X381.55Y82.56
Y91.21
X390.19
Y82.56
X381.55
Z12.70
G0X384.72Y85.74
Z-9.91
G1Z-12.19F381.0
Y88.04F2286.0
X387.02
Y85.74
X384.72
X381.55Y82.56
Y91.21
X390.19
Y82.56
X381.55
Z12.70
G0X384.72Y85.74
Z-11.21
G1Z-13.50F381.0
Y88.04F2286.0
X387.02
Y85.74
X384.72
X381.55Y82.56
Y91.21
X390.19
Y82.56
X381.55
Z12.70
G0X384.72Y118.96
G1Z-1.52F381.0
Y121.26F2286.0
X387.02
Y118.96
X384.72
X381.55Y115.78
Y124.44
X390.19
Y115.78
X381.55
Z12.70
G0X384.72Y118.96
Z-0.76
G1Z-3.05F381.0
Y121.26F2286.0
X387.02
Y118.96
X384.72
X381.55Y115.78
Y124.44
X390.19
Y115.78
X381.55
Z12.70
G0X384.72Y118.96
Z-2.29
G1Z-4.57F381.0
Y121.26F2286.0
X387.02
Y118.96
X384.72
X381.55Y115.78
Y124.44
X390.19
Y115.78
X381.55
Z12.70
G0X384.72Y118.96
Z-3.81
G1Z-6.10F381.0
Y121.26F2286.0
X387.02
Y118.96
X384.72
X381.55Y115.78
Y124.44
X390.19
Y115.78
X381.55
Z12.70
G0X384.72Y118.96
Z-5.33
G1Z-7.62F381.0
Y121.26F2286.0
X387.02
Y118.96
X384.72
X381.55Y115.78
Y124.44
X390.19
Y115.78
X381.55
Z12.70
G0X384.72Y118.96
Z-6.86
G1Z-9.14F381.0
Y121.26F2286.0
X387.02
Y118.96
X384.72
X381.55Y115.78
Y124.44
X390.19
Y115.78
X381.55
Z12.70
G0X384.72Y118.96
Z-8.38
G1Z-10.67F381.0
Y121.26F2286.0
X387.02
Y118.96
X384.72
X381.55Y115.78
Y124.44
X390.19
Y115.78
X381.55
Z12.70
G0X384.72Y118.96
Z-9.91
G1Z-12.19F381.0
Y121.26F2286.0
X387.02
Y118.96
X384.72
X381.55Y115.78
Y124.44
X390.19
Y115.78
X381.55
Z12.70
G0X384.72Y118.96
Z-11.21
G1Z-13.50F381.0
Y121.26F2286.0
X387.02
Y118.96
X384.72
X381.55Y115.78
Y124.44
X390.19
Y115.78
X381.55
Z12.70
G0X351.50Y118.96
G1Z-1.52F381.0
Y121.26F2286.0
X353.80
Y118.96
X351.50
X348.32Y115.78
Y124.44
X356.98
Y115.78
X348.32
Z12.70
G0X351.50Y118.96
Z-0.76
G1Z-3.05F381.0
Y121.26F2286.0
X353.80
Y118.96
X351.50
X348.32Y115.78
Y124.44
X356.98
Y115.78
X348.32
Z12.70
G0X351.50Y118.96
Z-2.29
G1Z-4.57F381.0
Y121.26F2286.0
X353.80
Y118.96
X351.50
X348.32Y115.78
Y124.44
X356.98
Y115.78
X348.32
Z12.70
G0X351.50Y118.96
Z-3.81
G1Z-6.10F381.0
Y121.26F2286.0
X353.80
Y118.96
X351.50
X348.32Y115.78
Y124.44
X356.98
Y115.78
X348.32
Z12.70
G0X351.50Y118.96
Z-5.33
G1Z-7.62F381.0
Y121.26F2286.0
X353.80
Y118.96
X351.50
X348.32Y115.78
Y124.44
X356.98
Y115.78
X348.32
Z12.70
G0X351.50Y118.96
Z-6.86
G1Z-9.14F381.0
Y121.26F2286.0
X353.80
Y118.96
X351.50
X348.32Y115.78
Y124.44
X356.98
Y115.78
X348.32
Z12.70
G0X351.50Y118.96
Z-8.38
G1Z-10.67F381.0
Y121.26F2286.0
X353.80
Y118.96
X351.50
X348.32Y115.78
Y124.44
X356.98
Y115.78
X348.32
Z12.70
G0X351.50Y118.96
Z-9.91
G1Z-12.19F381.0
Y121.26F2286.0
X353.80
Y118.96
X351.50
X348.32Y115.78
Y124.44
X356.98
Y115.78
X348.32
Z12.70
G0X351.50Y118.96
Z-11.21
G1Z-13.50F381.0
Y121.26F2286.0
X353.80
Y118.96
X351.50
X348.32Y115.78
Y124.44
X356.98
Y115.78
X348.32
Z12.70
G0X318.28Y118.96
G1Z-1.52F381.0
Y121.26F2286.0
X320.58
Y118.96
X318.28
X315.11Y115.78
Y124.44
X323.75
Y115.78
X315.11
Z12.70
G0X318.28Y118.96
Z-0.76
G1Z-3.05F381.0
Y121.26F2286.0
X320.58
Y118.96
X318.28
X315.11Y115.78
Y124.44
X323.75
Y115.78
X315.11
Z12.70
G0X318.28Y118.96
Z-2.29
G1Z-4.57F381.0
Y121.26F2286.0
X320.58
Y118.96
X318.28
X315.11Y115.78
Y124.44
X323.75
Y115.78
X315.11
Z12.70
G0X318.28Y118.96
Z-3.81
G1Z-6.10F381.0
Y121.26F2286.0
X320.58
Y118.96
X318.28
X315.11Y115.78
Y124.44
X323.75
Y115.78
X315.11
Z12.70
G0X318.28Y118.96
Z-5.33
G1Z-7.62F381.0
Y121.26F2286.0
X320.58
Y118.96
X318.28
X315.11Y115.78
Y124.44
X323.75
Y115.78
X315.11
Z12.70
G0X318.28Y118.96
Z-6.86
G1Z-9.14F381.0
Y121.26F2286.0
X320.58
Y118.96
X318.28
X315.11Y115.78
Y124.44
X323.75
Y115.78
X315.11
Z12.70
G0X318.28Y118.96
Z-8.38
G1Z-10.67F381.0
Y121.26F2286.0
X320.58
Y118.96
X318.28
X315.11Y115.78
Y124.44
X323.75
Y115.78
X315.11
Z12.70
G0X318.28Y118.96
Z-9.91
G1Z-12.19F381.0
Y121.26F2286.0
X320.58
Y118.96
X318.28
X315.11Y115.78
Y124.44
X323.75
Y115.78
X315.11
Z12.70
G0X318.28Y118.96
Z-11.21
G1Z-13.50F381.0
Y121.26F2286.0
X320.58
Y118.96
X318.28
X315.11Y115.78
Y124.44
X323.75
Y115.78
X315.11
Z12.70
G0X285.06Y118.96
G1Z-1.52F381.0
Y121.26F2286.0
X287.36
Y118.96
X285.06
X281.88Y115.78
Y124.44
X290.54
Y115.78
X281.88
Z12.70
G0X285.06Y118.96
Z-0.76
G1Z-3.05F381.0
Y121.26F2286.0
X287.36
Y118.96
X285.06
X281.88Y115.78
Y124.44
X290.54
Y115.78
X281.88
Z12.70
G0X285.06Y118.96
Z-2.29
G1Z-4.57F381.0
Y121.26F2286.0
X287.36
Y118.96
X285.06
X281.88Y115.78
Y124.44
X290.54
Y115.78
X281.88
Z12.70
G0X285.06Y118.96
Z-3.81
G1Z-6.10F381.0
Y121.26F2286.0
X287.36
Y118.96
X285.06
X281.88Y115.78
Y124.44
X290.54
Y115.78
X281.88
Z12.70
G0X285.06Y118.96
Z-5.33
G1Z-7.62F381.0
Y121.26F2286.0
X287.36
Y118.96
X285.06
X281.88Y115.78
Y124.44
X290.54
Y115.78
X281.88
Z12.70
G0X285.06Y118.96
Z-6.86
G1Z-9.14F381.0
Y121.26F2286.0
X287.36
Y118.96
X285.06
X281.88Y115.78
Y124.44
X290.54
Y115.78
X281.88
Z12.70
G0X285.06Y118.96
Z-8.38
G1Z-10.67F381.0
Y121.26F2286.0
X287.36
Y118.96
X285.06
X281.88Y115.78
Y124.44
X290.54
Y115.78
X281.88
Z12.70
G0X285.06Y118.96
Z-9.91
G1Z-12.19F381.0
Y121.26F2286.0
X287.36
Y118.96
X285.06
X281.88Y115.78
Y124.44
X290.54
Y115.78
X281.88
Z12.70
G0X285.06Y118.96
Z-11.21
G1Z-13.50F381.0
Y121.26F2286.0
X287.36
Y118.96
X285.06
X281.88Y115.78
Y124.44
X290.54
Y115.78
X281.88
Z12.70
G0X285.06Y152.18
G1Z-1.52F381.0
Y154.48F2286.0
X287.36
Y152.18
X285.06
X281.88Y149.00
Y157.65
X290.54
Y149.00
X281.88
Z12.70
G0X285.06Y152.18
Z-0.76
G1Z-3.05F381.0
Y154.48F2286.0
X287.36
Y152.18
X285.06
X281.88Y149.00
Y157.65
X290.54
Y149.00
X281.88
Z12.70
G0X285.06Y152.18
Z-2.29
G1Z-4.57F381.0
Y154.48F2286.0
X287.36
Y152.18
X285.06
X281.88Y149.00
Y157.65
X290.54
Y149.00
X281.88
Z12.70
G0X285.06Y152.18
Z-3.81
G1Z-6.10F381.0
Y154.48F2286.0
X287.36
Y152.18
X285.06
X281.88Y149.00
Y157.65
X290.54
Y149.00
X281.88
Z12.70
G0X285.06Y152.18
Z-5.33
G1Z-7.62F381.0
Y154.48F2286.0
X287.36
Y152.18
X285.06
X281.88Y149.00
Y157.65
X290.54
Y149.00
X281.88
Z12.70
G0X285.06Y152.18
Z-6.86
G1Z-9.14F381.0
Y154.48F2286.0
X287.36
Y152.18
X285.06
X281.88Y149.00
Y157.65
X290.54
Y149.00
X281.88
Z12.70
G0X285.06Y152.18
Z-8.38
G1Z-10.67F381.0
Y154.48F2286.0
X287.36
Y152.18
X285.06
X281.88Y149.00
Y157.65
X290.54
Y149.00
X281.88
Z12.70
G0X285.06Y152.18
Z-9.91
G1Z-12.19F381.0
Y154.48F2286.0
X287.36
Y152.18
X285.06
X281.88Y149.00
Y157.65
X290.54
Y149.00
X281.88
Z12.70
G0X285.06Y152.18
Z-11.21
G1Z-13.50F381.0
Y154.48F2286.0
X287.36
Y152.18
X285.06
X281.88Y149.00
Y157.65
X290.54
Y149.00
X281.88
Z12.70
G0X318.28Y152.18
G1Z-1.52F381.0
Y154.48F2286.0
X320.58
Y152.18
X318.28
X315.11Y149.00
Y157.65
X323.75
Y149.00
X315.11
Z12.70
G0X318.28Y152.18
Z-0.76
G1Z-3.05F381.0
Y154.48F2286.0
X320.58
Y152.18
X318.28
X315.11Y149.00
Y157.65
X323.75
Y149.00
X315.11
Z12.70
G0X318.28Y152.18
Z-2.29
G1Z-4.57F381.0
Y154.48F2286.0
X320.58
Y152.18
X318.28
X315.11Y149.00
Y157.65
X323.75
Y149.00
X315.11
Z12.70
G0X318.28Y152.18
Z-3.81
G1Z-6.10F381.0
Y154.48F2286.0
X320.58
Y152.18
X318.28
X315.11Y149.00
Y157.65
X323.75
Y149.00
X315.11
Z12.70
G0X318.28Y152.18
Z-5.33
G1Z-7.62F381.0
Y154.48F2286.0
X320.58
Y152.18
X318.28
X315.11Y149.00
Y157.65
X323.75
Y149.00
X315.11
Z12.70
G0X318.28Y152.18
Z-6.86
G1Z-9.14F381.0
Y154.48F2286.0
X320.58
Y152.18
X318.28
X315.11Y149.00
Y157.65
X323.75
Y149.00
X315.11
Z12.70
G0X318.28Y152.18
Z-8.38
G1Z-10.67F381.0
Y154.48F2286.0
X320.58
Y152.18
X318.28
X315.11Y149.00
Y157.65
X323.75
Y149.00
X315.11
Z12.70
G0X318.28Y152.18
Z-9.91
G1Z-12.19F381.0
Y154.48F2286.0
X320.58
Y152.18
X318.28
X315.11Y149.00
Y157.65
X323.75
Y149.00
X315.11
Z12.70
G0X318.28Y152.18
Z-11.21
G1Z-13.50F381.0
Y154.48F2286.0
X320.58
Y152.18
X318.28
X315.11Y149.00
Y157.65
X323.75
Y149.00
X315.11
Z12.70
G0X351.50Y152.18
G1Z-1.52F381.0
Y154.48F2286.0
X353.80
Y152.18
X351.50
X348.32Y149.00
Y157.65
X356.98
Y149.00
X348.32
Z12.70
G0X351.50Y152.18
Z-0.76
G1Z-3.05F381.0
Y154.48F2286.0
X353.80
Y152.18
X351.50
X348.32Y149.00
Y157.65
X356.98
Y149.00
X348.32
Z12.70
G0X351.50Y152.18
Z-2.29
G1Z-4.57F381.0
Y154.48F2286.0
X353.80
Y152.18
X351.50
X348.32Y149.00
Y157.65
X356.98
Y149.00
X348.32
Z12.70
G0X351.50Y152.18
Z-3.81
G1Z-6.10F381.0
Y154.48F2286.0
X353.80
Y152.18
X351.50
X348.32Y149.00
Y157.65
X356.98
Y149.00
X348.32
Z12.70
G0X351.50Y152.18
Z-5.33
G1Z-7.62F381.0
Y154.48F2286.0
X353.80
Y152.18
X351.50
X348.32Y149.00
Y157.65
X356.98
Y149.00
X348.32
Z12.70
G0X351.50Y152.18
Z-6.86
G1Z-9.14F381.0
Y154.48F2286.0
X353.80
Y152.18
X351.50
X348.32Y149.00
Y157.65
X356.98
Y149.00
X348.32
Z12.70
G0X351.50Y152.18
Z-8.38
G1Z-10.67F381.0
Y154.48F2286.0
X353.80
Y152.18
X351.50
X348.32Y149.00
Y157.65
X356.98
Y149.00
X348.32
Z12.70
G0X351.50Y152.18
Z-9.91
G1Z-12.19F381.0
Y154.48F2286.0
X353.80
Y152.18
X351.50
X348.32Y149.00
Y157.65
X356.98
Y149.00
X348.32
Z12.70
G0X351.50Y152.18
Z-11.21
G1Z-13.50F381.0
Y154.48F2286.0
X353.80
Y152.18
X351.50
X348.32Y149.00
Y157.65
X356.98
Y149.00
X348.32
Z12.70
G0X384.72Y152.18
G1Z-1.52F381.0
Y154.48F2286.0
X387.02
Y152.18
X384.72
X381.55Y149.00
Y157.65
X390.19
Y149.00
X381.55
Z12.70
G0X384.72Y152.18
Z-0.76
G1Z-3.05F381.0
Y154.48F2286.0
X387.02
Y152.18
X384.72
X381.55Y149.00
Y157.65
X390.19
Y149.00
X381.55
Z12.70
G0X384.72Y152.18
Z-2.29
G1Z-4.57F381.0
Y154.48F2286.0
X387.02
Y152.18
X384.72
X381.55Y149.00
Y157.65
X390.19
Y149.00
X381.55
Z12.70
G0X384.72Y152.18
Z-3.81
G1Z-6.10F381.0
Y154.48F2286.0
X387.02
Y152.18
X384.72
X381.55Y149.00
Y157.65
X390.19
Y149.00
X381.55
Z12.70
G0X384.72Y152.18
Z-5.33
G1Z-7.62F381.0
Y154.48F2286.0
X387.02
Y152.18
X384.72
X381.55Y149.00
Y157.65
X390.19
Y149.00
X381.55
Z12.70
G0X384.72Y152.18
Z-6.86
G1Z-9.14F381.0
Y154.48F2286.0
X387.02
Y152.18
X384.72
X381.55Y149.00
Y157.65
X390.19
Y149.00
X381.55
Z12.70
G0X384.72Y152.18
Z-8.38
G1Z-10.67F381.0
Y154.48F2286.0
X387.02
Y152.18
X384.72
X381.55Y149.00
Y157.65
X390.19
Y149.00
X381.55
Z12.70
G0X384.72Y152.18
Z-9.91
G1Z-12.19F381.0
Y154.48F2286.0
X387.02
Y152.18
X384.72
X381.55Y149.00
Y157.65
X390.19
Y149.00
X381.55
Z12.70
G0X384.72Y152.18
Z-11.21
G1Z-13.50F381.0
Y154.48F2286.0
X387.02
Y152.18
X384.72
X381.55Y149.00
Y157.65
X390.19
Y149.00
X381.55
Z12.70
G0X384.72Y185.40
G1Z-1.52F381.0
Y187.70F2286.0
X387.02
Y185.40
X384.72
X381.55Y182.22
Y190.88
X390.19
Y182.22
X381.55
Z12.70
G0X384.72Y185.40
Z-0.76
G1Z-3.05F381.0
Y187.70F2286.0
X387.02
Y185.40
X384.72
X381.55Y182.22
Y190.88
X390.19
Y182.22
X381.55
Z12.70
G0X384.72Y185.40
Z-2.29
G1Z-4.57F381.0
Y187.70F2286.0
X387.02
Y185.40
X384.72
X381.55Y182.22
Y190.88
X390.19
Y182.22
X381.55
Z12.70
G0X384.72Y185.40
Z-3.81
G1Z-6.10F381.0
Y187.70F2286.0
X387.02
Y185.40
X384.72
X381.55Y182.22
Y190.88
X390.19
Y182.22
X381.55
Z12.70
G0X384.72Y185.40
Z-5.33
G1Z-7.62F381.0
Y187.70F2286.0
X387.02
Y185.40
X384.72
X381.55Y182.22
Y190.88
X390.19
Y182.22
X381.55
Z12.70
G0X384.72Y185.40
Z-6.86
G1Z-9.14F381.0
Y187.70F2286.0
X387.02
Y185.40
X384.72
X381.55Y182.22
Y190.88
X390.19
Y182.22
X381.55
Z12.70
G0X384.72Y185.40
Z-8.38
G1Z-10.67F381.0
Y187.70F2286.0
X387.02
Y185.40
X384.72
X381.55Y182.22
Y190.88
X390.19
Y182.22
X381.55
Z12.70
G0X384.72Y185.40
Z-9.91
G1Z-12.19F381.0
