(Design File: C..Users.msidell.VIASAT.s.wordclock.carbide3d.BandBottom.c2d)
(stockMin:0.00mm, 0.00mm, -6.40mm)
(stockMax:324.00mm, 49.00mm, 0.00mm)
(STOCK/BLOCK,324.00, 49.00, 6.40,0.00, 0.00, 6.40)
G90
G21
(Move to safe Z to avoid workholding)
G53G0Z-5.000
(power.cord.-.Pocket)
M05
(TOOL/MILL,2.00, 0.00, 0.00, 0.00)
M6T282
M03S10000
(PREPOSITION FOR RAPID PLUNGE)
G0X232.05Y25.00
Z12.70
G1Z-0.51F254.0
Y26.00F812.8
X235.05
Y25.00
X232.05
X231.05Y24.00
Y27.00
X236.05
Y24.00
X231.05
Z12.70
G0X232.05Y25.00
Z-0.25
G1Z-1.02F254.0
Y26.00F812.8
X235.05
Y25.00
X232.05
X231.05Y24.00
Y27.00
X236.05
Y24.00
X231.05
Z12.70
G0X232.05Y25.00
Z-0.76
G1Z-1.52F254.0
Y26.00F812.8
X235.05
Y25.00
X232.05
X231.05Y24.00
Y27.00
X236.05
Y24.00
X231.05
Z12.70
G0X232.05Y25.00
Z-1.27
G1Z-2.03F254.0
Y26.00F812.8
X235.05
Y25.00
X232.05
X231.05Y24.00
Y27.00
X236.05
Y24.00
X231.05
Z12.70
G0X232.05Y25.00
Z-1.78
G1Z-2.54F254.0
Y26.00F812.8
X235.05
Y25.00
X232.05
X231.05Y24.00
Y27.00
X236.05
Y24.00
X231.05
Z12.70
G0X232.05Y25.00
Z-2.29
G1Z-3.05F254.0
Y26.00F812.8
X235.05
Y25.00
X232.05
X231.05Y24.00
Y27.00
X236.05
Y24.00
X231.05
Z12.70
G0X232.05Y25.00
Z-2.79
G1Z-3.56F254.0
Y26.00F812.8
X235.05
Y25.00
X232.05
X231.05Y24.00
Y27.00
X236.05
Y24.00
X231.05
Z12.70
G0X232.05Y25.00
Z-3.30
G1Z-4.06F254.0
Y26.00F812.8
X235.05
Y25.00
X232.05
X231.05Y24.00
Y27.00
X236.05
Y24.00
X231.05
Z12.70
G0X232.05Y25.00
Z-3.81
G1Z-4.57F254.0
Y26.00F812.8
X235.05
Y25.00
X232.05
X231.05Y24.00
Y27.00
X236.05
Y24.00
X231.05
Z12.70
G0X232.05Y25.00
Z-4.32
G1Z-5.08F254.0
Y26.00F812.8
X235.05
Y25.00
X232.05
X231.05Y24.00
Y27.00
X236.05
Y24.00
X231.05
Z12.70
G0X232.05Y25.00
Z-4.83
G1Z-5.59F254.0
Y26.00F812.8
X235.05
Y25.00
X232.05
X231.05Y24.00
Y27.00
X236.05
Y24.00
X231.05
Z12.70
G0X232.05Y25.00
Z-5.33
G1Z-6.10F254.0
Y26.00F812.8
X235.05
Y25.00
X232.05
X231.05Y24.00
Y27.00
X236.05
Y24.00
X231.05
Z12.70
G0X232.05Y25.00
Z-5.64
G1Z-6.40F254.0
Y26.00F812.8
X235.05
Y25.00
X232.05
X231.05Y24.00
Y27.00
X236.05
Y24.00
X231.05
Z12.70
(button.clearance.-.Pocket)
M03S10000
G0X66.28Y29.30
G1Z-0.51F254.0
X66.20Y29.39F812.8
X66.14Y29.48
X66.09Y29.57
X66.06Y29.67
X66.03Y29.75
X66.01Y29.84
X66.00Y29.96
Y30.04
X66.01Y30.15
X66.03Y30.25
X66.06Y30.34
X66.10Y30.44
X66.20Y30.60
X66.29Y30.71
X66.38Y30.79
X66.43Y30.82
X66.56Y30.90
X66.65Y30.94
X66.75Y30.97
X66.84Y30.99
X66.97Y31.00
X67.10
X67.20Y30.98
X67.29Y30.96
X67.39Y30.92
X67.48Y30.88
X67.57Y30.82
X67.63Y30.78
X67.70Y30.71
X67.79Y30.62
X67.88Y30.48
X67.92Y30.39
X67.96Y30.28
X67.98Y30.20
X67.99Y30.11
X68.00Y29.99
X67.99Y29.89
X67.98Y29.79
X67.96Y29.71
X67.92Y29.61
X67.88Y29.52
X67.82Y29.43
X67.78Y29.37
X67.71Y29.29
X67.63Y29.22
X67.57Y29.18
X67.48Y29.12
X67.39Y29.08
X67.28Y29.04
X67.21Y29.02
X67.11Y29.00
X67.00
X66.89
X66.79Y29.02
X66.71Y29.04
X66.61Y29.08
X66.52Y29.12
X66.44Y29.17
X66.37Y29.22
X66.28Y29.30
X65.58Y28.59
X65.41Y28.79
X65.28Y28.97
X65.19Y29.14
X65.11Y29.34
X65.06Y29.50
X65.02Y29.70
X65.00Y29.90
Y30.10
X65.02Y30.29
X65.06Y30.50
X65.12Y30.68
X65.20Y30.87
X65.28Y31.03
X65.41Y31.22
X65.58Y31.41
X65.73Y31.55
X65.87Y31.65
X66.03Y31.75
X66.12Y31.80
X66.31Y31.88
X66.50Y31.94
X66.70Y31.98
X66.91Y32.00
X67.09
X67.22Y31.99
X67.42Y31.96
X67.58Y31.91
X67.79Y31.84
X67.95Y31.76
X68.14Y31.65
X68.27Y31.55
X68.40Y31.43
X68.56Y31.25
X68.66Y31.11
X68.76Y30.95
X68.84Y30.78
X68.92Y30.58
X68.96Y30.42
X68.99Y30.21
X69.00Y30.00
X68.99Y29.78
X68.96Y29.59
X68.91Y29.41
X68.84Y29.22
X68.76Y29.05
X68.65Y28.87
X68.56Y28.74
X68.41Y28.59
X68.26Y28.44
X68.13Y28.35
X67.95Y28.24
X67.78Y28.16
X67.58Y28.08
X67.42Y28.04
X67.22Y28.01
X67.00Y28.00
X66.78Y28.01
X66.58Y28.04
X66.42Y28.08
X66.22Y28.16
X66.04Y28.24
X65.88Y28.34
X65.73Y28.45
X65.58Y28.59
X64.88Y27.88
X64.78Y27.98
X64.67Y28.11
X64.59Y28.20
X64.43Y28.45
X64.36Y28.57
X64.29Y28.70
X64.24Y28.81
X64.18Y28.97
X64.13Y29.12
X64.09Y29.25
X64.06Y29.39
X64.02Y29.67
X64.00Y29.86
Y30.14
X64.02Y30.33
X64.06Y30.62
X64.09Y30.75
X64.13Y30.88
X64.18Y31.03
X64.29Y31.29
X64.36Y31.43
X64.43Y31.55
X64.60Y31.80
X64.67Y31.90
X64.88Y32.12
X65.10Y32.33
X65.31Y32.48
X65.55Y32.63
X65.70Y32.70
X65.95Y32.81
X66.12Y32.87
X66.38Y32.94
X66.67Y32.98
X66.86Y33.00
X67.14
X67.33Y32.98
X67.62Y32.94
X67.88Y32.87
X68.03Y32.82
X68.19Y32.75
X68.44Y32.63
X68.70Y32.47
X68.89Y32.33
X69.02Y32.22
X69.12Y32.12
X69.33Y31.90
X69.40Y31.80
X69.48Y31.68
X69.57Y31.55
X69.64Y31.43
X69.76Y31.18
X69.82Y31.03
X69.87Y30.88
X69.94Y30.62
X69.98Y30.33
X70.00Y30.14
Y29.86
X69.98Y29.67
X69.94Y29.39
X69.91Y29.25
X69.87Y29.12
X69.82Y28.97
X69.76Y28.81
X69.64Y28.57
X69.57Y28.45
X69.48Y28.31
X69.33Y28.11
X69.22Y27.98
X69.02Y27.78
X68.89Y27.67
X68.69Y27.52
X68.55Y27.43
X68.43Y27.36
X68.18Y27.24
X68.03Y27.18
X67.88Y27.13
X67.62Y27.06
X67.33Y27.02
X67.14Y27.00
X66.86
X66.67Y27.02
X66.38Y27.06
X66.12Y27.13
X65.95Y27.19
X65.83Y27.23
X65.70Y27.29
X65.55Y27.37
X65.31Y27.52
X65.10Y27.67
X64.88Y27.88
X64.17Y27.17
X64.04Y27.31
X63.91Y27.46
X63.79Y27.61
X63.69Y27.76
X63.58Y27.92
X63.48Y28.09
X63.38Y28.29
X63.32Y28.43
X63.24Y28.63
X63.18Y28.81
X63.13Y28.99
X63.08Y29.19
X63.04Y29.40
X63.02Y29.57
X63.00Y29.80
Y30.00
Y30.20
X63.02Y30.42
X63.04Y30.60
X63.08Y30.81
X63.13Y31.00
X63.18Y31.18
X63.24Y31.37
X63.32Y31.57
X63.38Y31.71
X63.48Y31.91
X63.58Y32.08
X63.69Y32.24
X63.79Y32.39
X63.91Y32.54
X64.04Y32.69
X64.17Y32.83
X64.31Y32.96
X64.46Y33.09
X64.60Y33.20
X64.76Y33.31
X64.92Y33.42
X65.10Y33.52
X65.26Y33.60
X65.44Y33.68
X65.63Y33.76
X65.81Y33.82
X66.00Y33.87
X66.19Y33.92
X66.40Y33.95
X66.58Y33.98
X66.80Y33.99
X67.00Y34.00
X67.20Y33.99
X67.42Y33.98
X67.60Y33.95
X67.81Y33.92
X68.00Y33.87
X68.19Y33.82
X68.37Y33.76
X68.57Y33.68
X68.72Y33.61
X68.91Y33.52
X69.08Y33.42
X69.24Y33.31
X69.39Y33.21
X69.54Y33.09
X69.69Y32.96
X69.83Y32.83
X69.96Y32.69
X70.09Y32.54
X70.21Y32.39
X70.31Y32.24
X70.42Y32.08
X70.52Y31.91
X70.61Y31.71
X70.68Y31.57
X70.76Y31.37
X70.82Y31.18
X70.87Y31.00
X70.92Y30.81
X70.95Y30.60
X70.98Y30.42
X71.00Y30.20
Y30.00
Y29.80
X70.98Y29.57
X70.95Y29.40
X70.92Y29.19
X70.87Y28.99
X70.82Y28.81
X70.76Y28.63
X70.68Y28.43
X70.61Y28.29
X70.52Y28.09
X70.42Y27.92
X70.31Y27.76
X70.21Y27.61
X70.09Y27.46
X69.96Y27.31
X69.83Y27.17
X69.69Y27.04
X69.54Y26.91
X69.39Y26.79
X69.24Y26.69
X69.08Y26.58
X68.91Y26.48
X68.71Y26.38
X68.57Y26.32
X68.37Y26.24
X68.19Y26.18
X68.00Y26.13
X67.81Y26.08
X67.60Y26.04
X67.42Y26.02
X67.20Y26.00
X67.00
X66.80
X66.58Y26.02
X66.40Y26.04
X66.19Y26.08
X66.00Y26.13
X65.81Y26.18
X65.63Y26.24
X65.44Y26.32
X65.26Y26.39
X65.10Y26.48
X64.92Y26.58
X64.76Y26.68
X64.60Y26.80
X64.46Y26.91
X64.31Y27.04
X64.17Y27.17
Z12.70
G0X66.28Y29.30
Z-0.25
G1Z-1.02F254.0
X66.20Y29.39F812.8
X66.14Y29.48
X66.09Y29.57
X66.06Y29.67
X66.03Y29.75
X66.01Y29.84
X66.00Y29.96
Y30.04
X66.01Y30.15
X66.03Y30.25
X66.06Y30.34
X66.10Y30.44
X66.20Y30.60
X66.29Y30.71
X66.38Y30.79
X66.43Y30.82
X66.56Y30.90
X66.65Y30.94
X66.75Y30.97
X66.84Y30.99
X66.97Y31.00
X67.10
X67.20Y30.98
X67.29Y30.96
X67.39Y30.92
X67.48Y30.88
X67.57Y30.82
X67.63Y30.78
X67.70Y30.71
X67.79Y30.62
X67.88Y30.48
X67.92Y30.39
X67.96Y30.28
X67.98Y30.20
X67.99Y30.11
X68.00Y29.99
X67.99Y29.89
X67.98Y29.79
X67.96Y29.71
X67.92Y29.61
X67.88Y29.52
X67.82Y29.43
X67.78Y29.37
X67.71Y29.29
X67.63Y29.22
X67.57Y29.18
X67.48Y29.12
X67.39Y29.08
X67.28Y29.04
X67.21Y29.02
X67.11Y29.00
X67.00
X66.89
X66.79Y29.02
X66.71Y29.04
X66.61Y29.08
X66.52Y29.12
X66.44Y29.17
X66.37Y29.22
X66.28Y29.30
X65.58Y28.59
X65.41Y28.79
X65.28Y28.97
X65.19Y29.14
X65.11Y29.34
X65.06Y29.50
X65.02Y29.70
X65.00Y29.90
Y30.10
X65.02Y30.29
X65.06Y30.50
X65.12Y30.68
X65.20Y30.87
X65.28Y31.03
X65.41Y31.22
X65.58Y31.41
X65.73Y31.55
X65.87Y31.65
X66.03Y31.75
X66.12Y31.80
X66.31Y31.88
X66.50Y31.94
X66.70Y31.98
X66.91Y32.00
X67.09
X67.22Y31.99
X67.42Y31.96
X67.58Y31.91
X67.79Y31.84
X67.95Y31.76
X68.14Y31.65
X68.27Y31.55
X68.40Y31.43
X68.56Y31.25
X68.66Y31.11
X68.76Y30.95
X68.84Y30.78
X68.92Y30.58
X68.96Y30.42
X68.99Y30.21
X69.00Y30.00
X68.99Y29.78
X68.96Y29.59
X68.91Y29.41
X68.84Y29.22
X68.76Y29.05
X68.65Y28.87
X68.56Y28.74
X68.41Y28.59
X68.26Y28.44
X68.13Y28.35
X67.95Y28.24
X67.78Y28.16
X67.58Y28.08
X67.42Y28.04
X67.22Y28.01
X67.00Y28.00
X66.78Y28.01
X66.58Y28.04
X66.42Y28.08
X66.22Y28.16
X66.04Y28.24
X65.88Y28.34
X65.73Y28.45
X65.58Y28.59
X64.88Y27.88
X64.78Y27.98
X64.67Y28.11
X64.59Y28.20
X64.43Y28.45
X64.36Y28.57
X64.29Y28.70
X64.24Y28.81
X64.18Y28.97
X64.13Y29.12
X64.09Y29.25
X64.06Y29.39
X64.02Y29.67
X64.00Y29.86
Y30.14
X64.02Y30.33
X64.06Y30.62
X64.09Y30.75
X64.13Y30.88
X64.18Y31.03
X64.29Y31.29
X64.36Y31.43
X64.43Y31.55
X64.60Y31.80
X64.67Y31.90
X64.88Y32.12
X65.10Y32.33
X65.31Y32.48
X65.55Y32.63
X65.70Y32.70
X65.95Y32.81
X66.12Y32.87
X66.38Y32.94
X66.67Y32.98
X66.86Y33.00
X67.14
X67.33Y32.98
X67.62Y32.94
X67.88Y32.87
X68.03Y32.82
X68.19Y32.75
X68.44Y32.63
X68.70Y32.47
X68.89Y32.33
X69.02Y32.22
X69.12Y32.12
X69.33Y31.90
X69.40Y31.80
X69.48Y31.68
X69.57Y31.55
X69.64Y31.43
X69.76Y31.18
X69.82Y31.03
X69.87Y30.88
X69.94Y30.62
X69.98Y30.33
X70.00Y30.14
Y29.86
X69.98Y29.67
X69.94Y29.39
X69.91Y29.25
X69.87Y29.12
X69.82Y28.97
X69.76Y28.81
X69.64Y28.57
X69.57Y28.45
X69.48Y28.31
X69.33Y28.11
X69.22Y27.98
X69.02Y27.78
X68.89Y27.67
X68.69Y27.52
X68.55Y27.43
X68.43Y27.36
X68.18Y27.24
X68.03Y27.18
X67.88Y27.13
X67.62Y27.06
X67.33Y27.02
X67.14Y27.00
X66.86
X66.67Y27.02
X66.38Y27.06
X66.12Y27.13
X65.95Y27.19
X65.83Y27.23
X65.70Y27.29
X65.55Y27.37
X65.31Y27.52
X65.10Y27.67
X64.88Y27.88
X64.17Y27.17
X64.04Y27.31
X63.91Y27.46
X63.79Y27.61
X63.69Y27.76
X63.58Y27.92
X63.48Y28.09
X63.38Y28.29
X63.32Y28.43
X63.24Y28.63
X63.18Y28.81
X63.13Y28.99
X63.08Y29.19
X63.04Y29.40
X63.02Y29.57
X63.00Y29.80
Y30.00
Y30.20
X63.02Y30.42
X63.04Y30.60
X63.08Y30.81
X63.13Y31.00
X63.18Y31.18
X63.24Y31.37
X63.32Y31.57
X63.38Y31.71
X63.48Y31.91
X63.58Y32.08
X63.69Y32.24
X63.79Y32.39
X63.91Y32.54
X64.04Y32.69
X64.17Y32.83
X64.31Y32.96
X64.46Y33.09
X64.60Y33.20
X64.76Y33.31
X64.92Y33.42
X65.10Y33.52
X65.26Y33.60
X65.44Y33.68
X65.63Y33.76
X65.81Y33.82
X66.00Y33.87
X66.19Y33.92
X66.40Y33.95
X66.58Y33.98
X66.80Y33.99
X67.00Y34.00
X67.20Y33.99
X67.42Y33.98
X67.60Y33.95
X67.81Y33.92
X68.00Y33.87
X68.19Y33.82
X68.37Y33.76
X68.57Y33.68
X68.72Y33.61
X68.91Y33.52
X69.08Y33.42
X69.24Y33.31
X69.39Y33.21
X69.54Y33.09
X69.69Y32.96
X69.83Y32.83
X69.96Y32.69
X70.09Y32.54
X70.21Y32.39
X70.31Y32.24
X70.42Y32.08
X70.52Y31.91
X70.61Y31.71
X70.68Y31.57
X70.76Y31.37
X70.82Y31.18
X70.87Y31.00
X70.92Y30.81
X70.95Y30.60
X70.98Y30.42
X71.00Y30.20
Y30.00
Y29.80
X70.98Y29.57
X70.95Y29.40
X70.92Y29.19
X70.87Y28.99
X70.82Y28.81
X70.76Y28.63
X70.68Y28.43
X70.61Y28.29
X70.52Y28.09
X70.42Y27.92
X70.31Y27.76
X70.21Y27.61
X70.09Y27.46
X69.96Y27.31
X69.83Y27.17
X69.69Y27.04
X69.54Y26.91
X69.39Y26.79
X69.24Y26.69
X69.08Y26.58
X68.91Y26.48
X68.71Y26.38
X68.57Y26.32
X68.37Y26.24
X68.19Y26.18
X68.00Y26.13
X67.81Y26.08
X67.60Y26.04
X67.42Y26.02
X67.20Y26.00
X67.00
X66.80
X66.58Y26.02
X66.40Y26.04
X66.19Y26.08
X66.00Y26.13
X65.81Y26.18
X65.63Y26.24
X65.44Y26.32
X65.26Y26.39
X65.10Y26.48
X64.92Y26.58
X64.76Y26.68
X64.60Y26.80
X64.46Y26.91
X64.31Y27.04
X64.17Y27.17
Z12.70
G0X66.28Y29.30
Z-0.76
G1Z-1.52F254.0
X66.20Y29.39F812.8
X66.14Y29.48
X66.09Y29.57
X66.06Y29.67
X66.03Y29.75
X66.01Y29.84
X66.00Y29.96
Y30.04
X66.01Y30.15
X66.03Y30.25
X66.06Y30.34
X66.10Y30.44
X66.20Y30.60
X66.29Y30.71
X66.38Y30.79
X66.43Y30.82
X66.56Y30.90
X66.65Y30.94
X66.75Y30.97
X66.84Y30.99
X66.97Y31.00
X67.10
X67.20Y30.98
X67.29Y30.96
X67.39Y30.92
X67.48Y30.88
X67.57Y30.82
X67.63Y30.78
X67.70Y30.71
X67.79Y30.62
X67.88Y30.48
X67.92Y30.39
X67.96Y30.28
X67.98Y30.20
X67.99Y30.11
X68.00Y29.99
X67.99Y29.89
X67.98Y29.79
X67.96Y29.71
X67.92Y29.61
X67.88Y29.52
X67.82Y29.43
X67.78Y29.37
X67.71Y29.29
X67.63Y29.22
X67.57Y29.18
X67.48Y29.12
X67.39Y29.08
X67.28Y29.04
X67.21Y29.02
X67.11Y29.00
X67.00
X66.89
X66.79Y29.02
X66.71Y29.04
X66.61Y29.08
X66.52Y29.12
X66.44Y29.17
X66.37Y29.22
X66.28Y29.30
X65.58Y28.59
X65.41Y28.79
X65.28Y28.97
X65.19Y29.14
X65.11Y29.34
X65.06Y29.50
X65.02Y29.70
X65.00Y29.90
Y30.10
X65.02Y30.29
X65.06Y30.50
X65.12Y30.68
X65.20Y30.87
X65.28Y31.03
X65.41Y31.22
X65.58Y31.41
X65.73Y31.55
X65.87Y31.65
X66.03Y31.75
X66.12Y31.80
X66.31Y31.88
X66.50Y31.94
X66.70Y31.98
X66.91Y32.00
X67.09
X67.22Y31.99
X67.42Y31.96
X67.58Y31.91
X67.79Y31.84
X67.95Y31.76
X68.14Y31.65
X68.27Y31.55
X68.40Y31.43
X68.56Y31.25
X68.66Y31.11
X68.76Y30.95
X68.84Y30.78
X68.92Y30.58
X68.96Y30.42
X68.99Y30.21
X69.00Y30.00
X68.99Y29.78
X68.96Y29.59
X68.91Y29.41
X68.84Y29.22
X68.76Y29.05
X68.65Y28.87
X68.56Y28.74
X68.41Y28.59
X68.26Y28.44
X68.13Y28.35
X67.95Y28.24
X67.78Y28.16
X67.58Y28.08
X67.42Y28.04
X67.22Y28.01
X67.00Y28.00
X66.78Y28.01
X66.58Y28.04
X66.42Y28.08
X66.22Y28.16
X66.04Y28.24
X65.88Y28.34
X65.73Y28.45
X65.58Y28.59
X64.88Y27.88
X64.78Y27.98
X64.67Y28.11
X64.59Y28.20
X64.43Y28.45
X64.36Y28.57
X64.29Y28.70
X64.24Y28.81
X64.18Y28.97
X64.13Y29.12
X64.09Y29.25
X64.06Y29.39
X64.02Y29.67
X64.00Y29.86
Y30.14
X64.02Y30.33
X64.06Y30.62
X64.09Y30.75
X64.13Y30.88
X64.18Y31.03
X64.29Y31.29
X64.36Y31.43
X64.43Y31.55
X64.60Y31.80
X64.67Y31.90
X64.88Y32.12
X65.10Y32.33
X65.31Y32.48
X65.55Y32.63
X65.70Y32.70
X65.95Y32.81
X66.12Y32.87
X66.38Y32.94
X66.67Y32.98
X66.86Y33.00
X67.14
X67.33Y32.98
X67.62Y32.94
X67.88Y32.87
X68.03Y32.82
X68.19Y32.75
X68.44Y32.63
X68.70Y32.47
X68.89Y32.33
X69.02Y32.22
X69.12Y32.12
X69.33Y31.90
X69.40Y31.80
X69.48Y31.68
X69.57Y31.55
X69.64Y31.43
X69.76Y31.18
X69.82Y31.03
X69.87Y30.88
X69.94Y30.62
X69.98Y30.33
X70.00Y30.14
Y29.86
X69.98Y29.67
X69.94Y29.39
X69.91Y29.25
X69.87Y29.12
X69.82Y28.97
X69.76Y28.81
X69.64Y28.57
X69.57Y28.45
X69.48Y28.31
X69.33Y28.11
X69.22Y27.98
X69.02Y27.78
X68.89Y27.67
X68.69Y27.52
X68.55Y27.43
X68.43Y27.36
X68.18Y27.24
X68.03Y27.18
X67.88Y27.13
X67.62Y27.06
X67.33Y27.02
X67.14Y27.00
X66.86
X66.67Y27.02
X66.38Y27.06
X66.12Y27.13
X65.95Y27.19
X65.83Y27.23
X65.70Y27.29
X65.55Y27.37
X65.31Y27.52
X65.10Y27.67
X64.88Y27.88
X64.17Y27.17
X64.04Y27.31
X63.91Y27.46
X63.79Y27.61
X63.69Y27.76
X63.58Y27.92
X63.48Y28.09
X63.38Y28.29
X63.32Y28.43
X63.24Y28.63
X63.18Y28.81
X63.13Y28.99
X63.08Y29.19
X63.04Y29.40
X63.02Y29.57
X63.00Y29.80
Y30.00
Y30.20
X63.02Y30.42
X63.04Y30.60
X63.08Y30.81
X63.13Y31.00
X63.18Y31.18
X63.24Y31.37
X63.32Y31.57
X63.38Y31.71
X63.48Y31.91
X63.58Y32.08
X63.69Y32.24
X63.79Y32.39
X63.91Y32.54
X64.04Y32.69
X64.17Y32.83
X64.31Y32.96
X64.46Y33.09
X64.60Y33.20
X64.76Y33.31
X64.92Y33.42
X65.10Y33.52
X65.26Y33.60
X65.44Y33.68
X65.63Y33.76
X65.81Y33.82
X66.00Y33.87
X66.19Y33.92
X66.40Y33.95
X66.58Y33.98
X66.80Y33.99
X67.00Y34.00
X67.20Y33.99
X67.42Y33.98
X67.60Y33.95
X67.81Y33.92
X68.00Y33.87
X68.19Y33.82
X68.37Y33.76
X68.57Y33.68
X68.72Y33.61
X68.91Y33.52
X69.08Y33.42
X69.24Y33.31
X69.39Y33.21
X69.54Y33.09
X69.69Y32.96
X69.83Y32.83
X69.96Y32.69
X70.09Y32.54
X70.21Y32.39
X70.31Y32.24
X70.42Y32.08
X70.52Y31.91
X70.61Y31.71
X70.68Y31.57
X70.76Y31.37
X70.82Y31.18
X70.87Y31.00
X70.92Y30.81
X70.95Y30.60
X70.98Y30.42
X71.00Y30.20
Y30.00
Y29.80
X70.98Y29.57
X70.95Y29.40
X70.92Y29.19
X70.87Y28.99
X70.82Y28.81
X70.76Y28.63
X70.68Y28.43
X70.61Y28.29
X70.52Y28.09
X70.42Y27.92
X70.31Y27.76
X70.21Y27.61
X70.09Y27.46
X69.96Y27.31
X69.83Y27.17
X69.69Y27.04
X69.54Y26.91
X69.39Y26.79
X69.24Y26.69
X69.08Y26.58
X68.91Y26.48
X68.71Y26.38
X68.57Y26.32
X68.37Y26.24
X68.19Y26.18
X68.00Y26.13
X67.81Y26.08
X67.60Y26.04
X67.42Y26.02
X67.20Y26.00
X67.00
X66.80
X66.58Y26.02
X66.40Y26.04
X66.19Y26.08
X66.00Y26.13
X65.81Y26.18
X65.63Y26.24
X65.44Y26.32
X65.26Y26.39
X65.10Y26.48
X64.92Y26.58
X64.76Y26.68
X64.60Y26.80
X64.46Y26.91
X64.31Y27.04
X64.17Y27.17
Z12.70
G0X66.28Y29.30
Z-1.27
G1Z-2.03F254.0
X66.20Y29.39F812.8
X66.14Y29.48
X66.09Y29.57
X66.06Y29.67
X66.03Y29.75
X66.01Y29.84
X66.00Y29.96
Y30.04
X66.01Y30.15
X66.03Y30.25
X66.06Y30.34
X66.10Y30.44
X66.20Y30.60
X66.29Y30.71
X66.38Y30.79
X66.43Y30.82
X66.56Y30.90
X66.65Y30.94
X66.75Y30.97
X66.84Y30.99
X66.97Y31.00
X67.10
X67.20Y30.98
X67.29Y30.96
X67.39Y30.92
X67.48Y30.88
X67.57Y30.82
X67.63Y30.78
X67.70Y30.71
X67.79Y30.62
X67.88Y30.48
X67.92Y30.39
X67.96Y30.28
X67.98Y30.20
X67.99Y30.11
X68.00Y29.99
X67.99Y29.89
X67.98Y29.79
X67.96Y29.71
X67.92Y29.61
X67.88Y29.52
X67.82Y29.43
X67.78Y29.37
X67.71Y29.29
X67.63Y29.22
X67.57Y29.18
X67.48Y29.12
X67.39Y29.08
X67.28Y29.04
X67.21Y29.02
X67.11Y29.00
X67.00
X66.89
X66.79Y29.02
X66.71Y29.04
X66.61Y29.08
X66.52Y29.12
X66.44Y29.17
X66.37Y29.22
X66.28Y29.30
X65.58Y28.59
X65.41Y28.79
X65.28Y28.97
X65.19Y29.14
X65.11Y29.34
X65.06Y29.50
X65.02Y29.70
X65.00Y29.90
Y30.10
X65.02Y30.29
X65.06Y30.50
X65.12Y30.68
X65.20Y30.87
X65.28Y31.03
X65.41Y31.22
X65.58Y31.41
X65.73Y31.55
X65.87Y31.65
X66.03Y31.75
X66.12Y31.80
X66.31Y31.88
X66.50Y31.94
X66.70Y31.98
X66.91Y32.00
X67.09
X67.22Y31.99
X67.42Y31.96
X67.58Y31.91
X67.79Y31.84
X67.95Y31.76
X68.14Y31.65
X68.27Y31.55
X68.40Y31.43
X68.56Y31.25
X68.66Y31.11
X68.76Y30.95
X68.84Y30.78
X68.92Y30.58
X68.96Y30.42
X68.99Y30.21
X69.00Y30.00
X68.99Y29.78
X68.96Y29.59
X68.91Y29.41
X68.84Y29.22
X68.76Y29.05
X68.65Y28.87
X68.56Y28.74
X68.41Y28.59
X68.26Y28.44
X68.13Y28.35
X67.95Y28.24
X67.78Y28.16
X67.58Y28.08
X67.42Y28.04
X67.22Y28.01
X67.00Y28.00
X66.78Y28.01
X66.58Y28.04
X66.42Y28.08
X66.22Y28.16
X66.04Y28.24
X65.88Y28.34
X65.73Y28.45
X65.58Y28.59
X64.88Y27.88
X64.78Y27.98
X64.67Y28.11
X64.59Y28.20
X64.43Y28.45
X64.36Y28.57
X64.29Y28.70
X64.24Y28.81
X64.18Y28.97
X64.13Y29.12
X64.09Y29.25
X64.06Y29.39
X64.02Y29.67
X64.00Y29.86
Y30.14
X64.02Y30.33
X64.06Y30.62
X64.09Y30.75
X64.13Y30.88
X64.18Y31.03
X64.29Y31.29
X64.36Y31.43
X64.43Y31.55
X64.60Y31.80
X64.67Y31.90
X64.88Y32.12
X65.10Y32.33
X65.31Y32.48
X65.55Y32.63
X65.70Y32.70
X65.95Y32.81
X66.12Y32.87
X66.38Y32.94
X66.67Y32.98
X66.86Y33.00
X67.14
X67.33Y32.98
X67.62Y32.94
X67.88Y32.87
X68.03Y32.82
X68.19Y32.75
X68.44Y32.63
X68.70Y32.47
X68.89Y32.33
X69.02Y32.22
X69.12Y32.12
X69.33Y31.90
X69.40Y31.80
X69.48Y31.68
X69.57Y31.55
X69.64Y31.43
X69.76Y31.18
X69.82Y31.03
X69.87Y30.88
X69.94Y30.62
X69.98Y30.33
X70.00Y30.14
Y29.86
X69.98Y29.67
X69.94Y29.39
X69.91Y29.25
X69.87Y29.12
X69.82Y28.97
X69.76Y28.81
X69.64Y28.57
X69.57Y28.45
X69.48Y28.31
X69.33Y28.11
X69.22Y27.98
X69.02Y27.78
X68.89Y27.67
X68.69Y27.52
X68.55Y27.43
X68.43Y27.36
X68.18Y27.24
X68.03Y27.18
X67.88Y27.13
X67.62Y27.06
X67.33Y27.02
X67.14Y27.00
X66.86
X66.67Y27.02
X66.38Y27.06
X66.12Y27.13
X65.95Y27.19
X65.83Y27.23
X65.70Y27.29
X65.55Y27.37
X65.31Y27.52
X65.10Y27.67
X64.88Y27.88
X64.17Y27.17
X64.04Y27.31
X63.91Y27.46
X63.79Y27.61
X63.69Y27.76
X63.58Y27.92
X63.48Y28.09
X63.38Y28.29
X63.32Y28.43
X63.24Y28.63
X63.18Y28.81
X63.13Y28.99
X63.08Y29.19
X63.04Y29.40
X63.02Y29.57
X63.00Y29.80
Y30.00
Y30.20
X63.02Y30.42
X63.04Y30.60
X63.08Y30.81
X63.13Y31.00
X63.18Y31.18
X63.24Y31.37
X63.32Y31.57
X63.38Y31.71
X63.48Y31.91
X63.58Y32.08
X63.69Y32.24
X63.79Y32.39
X63.91Y32.54
X64.04Y32.69
X64.17Y32.83
X64.31Y32.96
X64.46Y33.09
X64.60Y33.20
X64.76Y33.31
X64.92Y33.42
X65.10Y33.52
X65.26Y33.60
X65.44Y33.68
X65.63Y33.76
X65.81Y33.82
X66.00Y33.87
X66.19Y33.92
X66.40Y33.95
X66.58Y33.98
X66.80Y33.99
X67.00Y34.00
X67.20Y33.99
X67.42Y33.98
X67.60Y33.95
X67.81Y33.92
X68.00Y33.87
X68.19Y33.82
X68.37Y33.76
X68.57Y33.68
X68.72Y33.61
X68.91Y33.52
X69.08Y33.42
X69.24Y33.31
X69.39Y33.21
X69.54Y33.09
X69.69Y32.96
X69.83Y32.83
X69.96Y32.69
X70.09Y32.54
X70.21Y32.39
X70.31Y32.24
X70.42Y32.08
X70.52Y31.91
X70.61Y31.71
X70.68Y31.57
X70.76Y31.37
X70.82Y31.18
X70.87Y31.00
X70.92Y30.81
X70.95Y30.60
X70.98Y30.42
X71.00Y30.20
Y30.00
Y29.80
X70.98Y29.57
X70.95Y29.40
X70.92Y29.19
X70.87Y28.99
X70.82Y28.81
X70.76Y28.63
X70.68Y28.43
X70.61Y28.29
X70.52Y28.09
X70.42Y27.92
X70.31Y27.76
X70.21Y27.61
X70.09Y27.46
X69.96Y27.31
X69.83Y27.17
X69.69Y27.04
X69.54Y26.91
X69.39Y26.79
X69.24Y26.69
X69.08Y26.58
X68.91Y26.48
X68.71Y26.38
X68.57Y26.32
X68.37Y26.24
X68.19Y26.18
X68.00Y26.13
X67.81Y26.08
X67.60Y26.04
X67.42Y26.02
X67.20Y26.00
X67.00
X66.80
X66.58Y26.02
X66.40Y26.04
X66.19Y26.08
X66.00Y26.13
X65.81Y26.18
X65.63Y26.24
X65.44Y26.32
X65.26Y26.39
X65.10Y26.48
X64.92Y26.58
X64.76Y26.68
X64.60Y26.80
X64.46Y26.91
X64.31Y27.04
X64.17Y27.17
Z12.70
G0X66.28Y29.30
Z-1.78
G1Z-2.54F254.0
X66.20Y29.39F812.8
X66.14Y29.48
X66.09Y29.57
X66.06Y29.67
X66.03Y29.75
X66.01Y29.84
X66.00Y29.96
Y30.04
X66.01Y30.15
X66.03Y30.25
X66.06Y30.34
X66.10Y30.44
X66.20Y30.60
X66.29Y30.71
X66.38Y30.79
X66.43Y30.82
X66.56Y30.90
X66.65Y30.94
X66.75Y30.97
X66.84Y30.99
X66.97Y31.00
X67.10
X67.20Y30.98
X67.29Y30.96
X67.39Y30.92
X67.48Y30.88
X67.57Y30.82
X67.63Y30.78
X67.70Y30.71
X67.79Y30.62
X67.88Y30.48
X67.92Y30.39
X67.96Y30.28
X67.98Y30.20
X67.99Y30.11
X68.00Y29.99
X67.99Y29.89
X67.98Y29.79
X67.96Y29.71
X67.92Y29.61
X67.88Y29.52
X67.82Y29.43
X67.78Y29.37
X67.71Y29.29
X67.63Y29.22
X67.57Y29.18
X67.48Y29.12
X67.39Y29.08
X67.28Y29.04
X67.21Y29.02
X67.11Y29.00
X67.00
X66.89
X66.79Y29.02
X66.71Y29.04
X66.61Y29.08
X66.52Y29.12
X66.44Y29.17
X66.37Y29.22
X66.28Y29.30
X65.58Y28.59
X65.41Y28.79
X65.28Y28.97
X65.19Y29.14
X65.11Y29.34
X65.06Y29.50
X65.02Y29.70
X65.00Y29.90
Y30.10
X65.02Y30.29
X65.06Y30.50
X65.12Y30.68
X65.20Y30.87
X65.28Y31.03
X65.41Y31.22
X65.58Y31.41
X65.73Y31.55
X65.87Y31.65
X66.03Y31.75
X66.12Y31.80
X66.31Y31.88
X66.50Y31.94
X66.70Y31.98
X66.91Y32.00
X67.09
X67.22Y31.99
X67.42Y31.96
X67.58Y31.91
X67.79Y31.84
X67.95Y31.76
X68.14Y31.65
X68.27Y31.55
X68.40Y31.43
X68.56Y31.25
X68.66Y31.11
X68.76Y30.95
X68.84Y30.78
X68.92Y30.58
X68.96Y30.42
X68.99Y30.21
X69.00Y30.00
X68.99Y29.78
X68.96Y29.59
X68.91Y29.41
X68.84Y29.22
X68.76Y29.05
X68.65Y28.87
X68.56Y28.74
X68.41Y28.59
X68.26Y28.44
X68.13Y28.35
X67.95Y28.24
X67.78Y28.16
X67.58Y28.08
X67.42Y28.04
X67.22Y28.01
X67.00Y28.00
X66.78Y28.01
X66.58Y28.04
X66.42Y28.08
X66.22Y28.16
X66.04Y28.24
X65.88Y28.34
X65.73Y28.45
X65.58Y28.59
X64.88Y27.88
X64.78Y27.98
X64.67Y28.11
X64.59Y28.20
X64.43Y28.45
X64.36Y28.57
X64.29Y28.70
X64.24Y28.81
X64.18Y28.97
X64.13Y29.12
X64.09Y29.25
X64.06Y29.39
X64.02Y29.67
X64.00Y29.86
Y30.14
X64.02Y30.33
X64.06Y30.62
X64.09Y30.75
X64.13Y30.88
X64.18Y31.03
X64.29Y31.29
X64.36Y31.43
X64.43Y31.55
X64.60Y31.80
X64.67Y31.90
X64.88Y32.12
X65.10Y32.33
X65.31Y32.48
X65.55Y32.63
X65.70Y32.70
X65.95Y32.81
X66.12Y32.87
X66.38Y32.94
X66.67Y32.98
X66.86Y33.00
X67.14
X67.33Y32.98
X67.62Y32.94
X67.88Y32.87
X68.03Y32.82
X68.19Y32.75
X68.44Y32.63
X68.70Y32.47
X68.89Y32.33
X69.02Y32.22
X69.12Y32.12
X69.33Y31.90
X69.40Y31.80
X69.48Y31.68
X69.57Y31.55
X69.64Y31.43
X69.76Y31.18
X69.82Y31.03
X69.87Y30.88
X69.94Y30.62
X69.98Y30.33
X70.00Y30.14
Y29.86
X69.98Y29.67
X69.94Y29.39
X69.91Y29.25
X69.87Y29.12
X69.82Y28.97
X69.76Y28.81
X69.64Y28.57
X69.57Y28.45
X69.48Y28.31
X69.33Y28.11
X69.22Y27.98
X69.02Y27.78
X68.89Y27.67
X68.69Y27.52
X68.55Y27.43
X68.43Y27.36
X68.18Y27.24
X68.03Y27.18
X67.88Y27.13
X67.62Y27.06
X67.33Y27.02
X67.14Y27.00
X66.86
X66.67Y27.02
X66.38Y27.06
X66.12Y27.13
X65.95Y27.19
X65.83Y27.23
X65.70Y27.29
X65.55Y27.37
X65.31Y27.52
X65.10Y27.67
X64.88Y27.88
X64.17Y27.17
X64.04Y27.31
X63.91Y27.46
X63.79Y27.61
X63.69Y27.76
X63.58Y27.92
X63.48Y28.09
X63.38Y28.29
X63.32Y28.43
X63.24Y28.63
X63.18Y28.81
X63.13Y28.99
X63.08Y29.19
X63.04Y29.40
X63.02Y29.57
X63.00Y29.80
Y30.00
Y30.20
X63.02Y30.42
X63.04Y30.60
X63.08Y30.81
X63.13Y31.00
X63.18Y31.18
X63.24Y31.37
X63.32Y31.57
X63.38Y31.71
X63.48Y31.91
X63.58Y32.08
X63.69Y32.24
X63.79Y32.39
X63.91Y32.54
X64.04Y32.69
X64.17Y32.83
X64.31Y32.96
X64.46Y33.09
X64.60Y33.20
X64.76Y33.31
X64.92Y33.42
X65.10Y33.52
X65.26Y33.60
X65.44Y33.68
X65.63Y33.76
X65.81Y33.82
X66.00Y33.87
X66.19Y33.92
X66.40Y33.95
X66.58Y33.98
X66.80Y33.99
X67.00Y34.00
X67.20Y33.99
X67.42Y33.98
X67.60Y33.95
X67.81Y33.92
X68.00Y33.87
X68.19Y33.82
X68.37Y33.76
X68.57Y33.68
X68.72Y33.61
X68.91Y33.52
X69.08Y33.42
X69.24Y33.31
X69.39Y33.21
X69.54Y33.09
X69.69Y32.96
X69.83Y32.83
X69.96Y32.69
X70.09Y32.54
X70.21Y32.39
X70.31Y32.24
X70.42Y32.08
X70.52Y31.91
X70.61Y31.71
X70.68Y31.57
X70.76Y31.37
X70.82Y31.18
X70.87Y31.00
X70.92Y30.81
X70.95Y30.60
X70.98Y30.42
X71.00Y30.20
Y30.00
Y29.80
X70.98Y29.57
X70.95Y29.40
X70.92Y29.19
X70.87Y28.99
X70.82Y28.81
X70.76Y28.63
X70.68Y28.43
X70.61Y28.29
X70.52Y28.09
X70.42Y27.92
X70.31Y27.76
X70.21Y27.61
X70.09Y27.46
X69.96Y27.31
X69.83Y27.17
X69.69Y27.04
X69.54Y26.91
X69.39Y26.79
X69.24Y26.69
X69.08Y26.58
X68.91Y26.48
X68.71Y26.38
X68.57Y26.32
X68.37Y26.24
X68.19Y26.18
X68.00Y26.13
X67.81Y26.08
X67.60Y26.04
X67.42Y26.02
X67.20Y26.00
X67.00
X66.80
X66.58Y26.02
X66.40Y26.04
X66.19Y26.08
X66.00Y26.13
X65.81Y26.18
X65.63Y26.24
X65.44Y26.32
X65.26Y26.39
X65.10Y26.48
X64.92Y26.58
X64.76Y26.68
X64.60Y26.80
X64.46Y26.91
X64.31Y27.04
X64.17Y27.17
Z12.70
G0X66.28Y29.30
Z-2.24
G1Z-3.00F254.0
X66.20Y29.39F812.8
X66.14Y29.48
X66.09Y29.57
X66.06Y29.67
X66.03Y29.75
X66.01Y29.84
X66.00Y29.96
Y30.04
X66.01Y30.15
X66.03Y30.25
X66.06Y30.34
X66.10Y30.44
X66.20Y30.60
X66.29Y30.71
X66.38Y30.79
X66.43Y30.82
X66.56Y30.90
X66.65Y30.94
X66.75Y30.97
X66.84Y30.99
X66.97Y31.00
X67.10
X67.20Y30.98
X67.29Y30.96
X67.39Y30.92
X67.48Y30.88
X67.57Y30.82
X67.63Y30.78
X67.70Y30.71
X67.79Y30.62
X67.88Y30.48
X67.92Y30.39
X67.96Y30.28
X67.98Y30.20
X67.99Y30.11
X68.00Y29.99
X67.99Y29.89
X67.98Y29.79
X67.96Y29.71
X67.92Y29.61
X67.88Y29.52
X67.82Y29.43
X67.78Y29.37
X67.71Y29.29
X67.63Y29.22
X67.57Y29.18
X67.48Y29.12
X67.39Y29.08
X67.28Y29.04
X67.21Y29.02
X67.11Y29.00
X67.00
X66.89
X66.79Y29.02
X66.71Y29.04
X66.61Y29.08
X66.52Y29.12
X66.44Y29.17
X66.37Y29.22
X66.28Y29.30
X65.58Y28.59
X65.41Y28.79
X65.28Y28.97
X65.19Y29.14
X65.11Y29.34
X65.06Y29.50
X65.02Y29.70
X65.00Y29.90
Y30.10
X65.02Y30.29
X65.06Y30.50
X65.12Y30.68
X65.20Y30.87
X65.28Y31.03
X65.41Y31.22
X65.58Y31.41
X65.73Y31.55
X65.87Y31.65
X66.03Y31.75
X66.12Y31.80
X66.31Y31.88
X66.50Y31.94
X66.70Y31.98
X66.91Y32.00
X67.09
X67.22Y31.99
X67.42Y31.96
X67.58Y31.91
X67.79Y31.84
X67.95Y31.76
X68.14Y31.65
X68.27Y31.55
X68.40Y31.43
X68.56Y31.25
X68.66Y31.11
X68.76Y30.95
X68.84Y30.78
X68.92Y30.58
X68.96Y30.42
X68.99Y30.21
X69.00Y30.00
X68.99Y29.78
X68.96Y29.59
X68.91Y29.41
X68.84Y29.22
X68.76Y29.05
X68.65Y28.87
X68.56Y28.74
X68.41Y28.59
X68.26Y28.44
X68.13Y28.35
X67.95Y28.24
X67.78Y28.16
X67.58Y28.08
X67.42Y28.04
X67.22Y28.01
X67.00Y28.00
X66.78Y28.01
X66.58Y28.04
X66.42Y28.08
X66.22Y28.16
X66.04Y28.24
X65.88Y28.34
X65.73Y28.45
X65.58Y28.59
X64.88Y27.88
X64.78Y27.98
X64.67Y28.11
X64.59Y28.20
X64.43Y28.45
X64.36Y28.57
X64.29Y28.70
X64.24Y28.81
X64.18Y28.97
X64.13Y29.12
X64.09Y29.25
X64.06Y29.39
X64.02Y29.67
X64.00Y29.86
Y30.14
X64.02Y30.33
X64.06Y30.62
X64.09Y30.75
X64.13Y30.88
X64.18Y31.03
X64.29Y31.29
X64.36Y31.43
X64.43Y31.55
X64.60Y31.80
X64.67Y31.90
X64.88Y32.12
X65.10Y32.33
X65.31Y32.48
X65.55Y32.63
X65.70Y32.70
X65.95Y32.81
X66.12Y32.87
X66.38Y32.94
X66.67Y32.98
X66.86Y33.00
X67.14
X67.33Y32.98
X67.62Y32.94
X67.88Y32.87
X68.03Y32.82
X68.19Y32.75
X68.44Y32.63
X68.70Y32.47
X68.89Y32.33
X69.02Y32.22
X69.12Y32.12
X69.33Y31.90
X69.40Y31.80
X69.48Y31.68
X69.57Y31.55
X69.64Y31.43
X69.76Y31.18
X69.82Y31.03
X69.87Y30.88
X69.94Y30.62
X69.98Y30.33
X70.00Y30.14
Y29.86
X69.98Y29.67
X69.94Y29.39
X69.91Y29.25
X69.87Y29.12
X69.82Y28.97
X69.76Y28.81
X69.64Y28.57
X69.57Y28.45
X69.48Y28.31
X69.33Y28.11
X69.22Y27.98
X69.02Y27.78
X68.89Y27.67
X68.69Y27.52
X68.55Y27.43
X68.43Y27.36
X68.18Y27.24
X68.03Y27.18
X67.88Y27.13
X67.62Y27.06
X67.33Y27.02
X67.14Y27.00
X66.86
X66.67Y27.02
X66.38Y27.06
X66.12Y27.13
X65.95Y27.19
X65.83Y27.23
X65.70Y27.29
X65.55Y27.37
X65.31Y27.52
X65.10Y27.67
X64.88Y27.88
X64.17Y27.17
X64.04Y27.31
X63.91Y27.46
X63.79Y27.61
X63.69Y27.76
X63.58Y27.92
X63.48Y28.09
X63.38Y28.29
X63.32Y28.43
X63.24Y28.63
X63.18Y28.81
X63.13Y28.99
X63.08Y29.19
X63.04Y29.40
X63.02Y29.57
X63.00Y29.80
Y30.00
Y30.20
X63.02Y30.42
X63.04Y30.60
X63.08Y30.81
X63.13Y31.00
X63.18Y31.18
X63.24Y31.37
X63.32Y31.57
X63.38Y31.71
X63.48Y31.91
X63.58Y32.08
X63.69Y32.24
X63.79Y32.39
X63.91Y32.54
X64.04Y32.69
X64.17Y32.83
X64.31Y32.96
X64.46Y33.09
X64.60Y33.20
X64.76Y33.31
X64.92Y33.42
X65.10Y33.52
X65.26Y33.60
X65.44Y33.68
X65.63Y33.76
X65.81Y33.82
X66.00Y33.87
X66.19Y33.92
X66.40Y33.95
X66.58Y33.98
X66.80Y33.99
X67.00Y34.00
X67.20Y33.99
X67.42Y33.98
X67.60Y33.95
X67.81Y33.92
X68.00Y33.87
X68.19Y33.82
X68.37Y33.76
X68.57Y33.68
X68.72Y33.61
X68.91Y33.52
X69.08Y33.42
X69.24Y33.31
X69.39Y33.21
X69.54Y33.09
X69.69Y32.96
X69.83Y32.83
X69.96Y32.69
X70.09Y32.54
X70.21Y32.39
X70.31Y32.24
X70.42Y32.08
X70.52Y31.91
X70.61Y31.71
X70.68Y31.57
X70.76Y31.37
X70.82Y31.18
X70.87Y31.00
X70.92Y30.81
X70.95Y30.60
X70.98Y30.42
X71.00Y30.20
Y30.00
Y29.80
X70.98Y29.57
X70.95Y29.40
X70.92Y29.19
X70.87Y28.99
X70.82Y28.81
X70.76Y28.63
X70.68Y28.43
X70.61Y28.29
X70.52Y28.09
X70.42Y27.92
X70.31Y27.76
X70.21Y27.61
X70.09Y27.46
X69.96Y27.31
X69.83Y27.17
X69.69Y27.04
X69.54Y26.91
X69.39Y26.79
X69.24Y26.69
X69.08Y26.58
X68.91Y26.48
X68.71Y26.38
X68.57Y26.32
X68.37Y26.24
X68.19Y26.18
X68.00Y26.13
X67.81Y26.08
X67.60Y26.04
X67.42Y26.02
X67.20Y26.00
X67.00
X66.80
X66.58Y26.02
X66.40Y26.04
X66.19Y26.08
X66.00Y26.13
X65.81Y26.18
X65.63Y26.24
X65.44Y26.32
X65.26Y26.39
X65.10Y26.48
X64.92Y26.58
X64.76Y26.68
X64.60Y26.80
X64.46Y26.91
X64.31Y27.04
X64.17Y27.17
Z12.70
(button.hole.-.Pocket)
M03S10000
G0X66.63Y29.66
G1Z-3.51F254.0
X66.59Y29.71F812.8
X66.55Y29.78
X66.51Y29.89
X66.50Y29.99
Y30.07
X66.54Y30.19
X66.58Y30.27
X66.60Y30.30
X66.70Y30.40
X66.78Y30.45
X66.88Y30.48
X66.99Y30.50
X67.08Y30.49
X67.18Y30.46
X67.25Y30.43
X67.31Y30.39
X67.39Y30.31
X67.44Y30.24
X67.47Y30.17
X67.49Y30.07
X67.50Y29.98
X67.48Y29.87
X67.45Y29.78
X67.39Y29.69
X67.32Y29.62
X67.23Y29.55
X67.17Y29.53
X67.08Y29.51
X66.97Y29.50
X66.92Y29.51
X66.83Y29.53
X66.72Y29.58
X66.68Y29.62
X66.63Y29.66
X65.93Y28.95
X65.79Y29.11
X65.72Y29.21
X65.65Y29.34
X65.59Y29.48
X65.55Y29.63
X65.52Y29.77
X65.50Y29.93
Y30.07
X65.52Y30.23
X65.55Y30.37
X65.59Y30.53
X65.65Y30.65
X65.72Y30.79
X65.79Y30.89
X65.86Y30.98
X66.01Y31.12
X66.11Y31.21
X66.23Y31.29
X66.34Y31.35
X66.47Y31.40
X66.62Y31.45
X66.77Y31.48
X66.93Y31.50
X67.07
X67.23Y31.48
X67.38Y31.45
X67.53Y31.40
X67.65Y31.35
X67.77Y31.29
X67.90Y31.20
X67.98Y31.13
X68.13Y30.98
X68.20Y30.90
X68.29Y30.76
X68.35Y30.66
X68.41Y30.52
X68.45Y30.37
X68.48Y30.23
X68.50Y30.08
Y29.92
X68.48Y29.77
X68.45Y29.63
X68.40Y29.47
X68.35Y29.34
X68.29Y29.23
X68.20Y29.10
X68.12Y29.00
X68.00Y28.88
X67.90Y28.80
X67.77Y28.71
X67.66Y28.65
X67.52Y28.59
X67.37Y28.55
X67.23Y28.52
X67.08Y28.50
X66.92
X66.76Y28.52
X66.71Y28.53
X66.54Y28.57
X66.44Y28.61
X66.28Y28.68
X66.16Y28.75
X66.04Y28.85
X65.93Y28.95
X65.23Y28.23
X65.14Y28.33
X65.00Y28.50
X64.92Y28.61
X64.86Y28.71
X64.75Y28.91
X64.66Y29.13
X64.58Y29.38
X64.53Y29.62
X64.50Y29.87
Y30.13
X64.53Y30.38
X64.58Y30.62
X64.65Y30.87
X64.75Y31.09
X64.86Y31.29
X64.92Y31.39
X65.00Y31.50
X65.13Y31.66
X65.33Y31.86
X65.50Y32.00
X65.60Y32.07
X65.72Y32.15
X65.91Y32.25
X66.13Y32.35
X66.38Y32.42
X66.62Y32.47
X66.87Y32.50
X67.13
X67.38Y32.47
X67.62Y32.42
X67.87Y32.35
X68.09Y32.25
X68.28Y32.15
X68.50Y32.00
X68.66Y31.87
X68.87Y31.66
X69.00Y31.50
X69.15Y31.27
X69.25Y31.09
X69.35Y30.87
X69.42Y30.62
X69.47Y30.38
X69.50Y30.13
Y29.87
X69.47Y29.62
X69.42Y29.38
X69.34Y29.13
X69.25Y28.91
X69.15Y28.72
X69.00Y28.50
X68.86Y28.33
X68.67Y28.14
X68.50Y28.00
X68.28Y27.85
X68.09Y27.75
X67.87Y27.65
X67.62Y27.58
X67.38Y27.53
X67.13Y27.50
X66.87
X66.62Y27.53
X66.49Y27.55
X66.25Y27.61
X66.13Y27.65
X66.03Y27.69
X65.81Y27.80
X65.60Y27.93
X65.41Y28.07
X65.32Y28.15
X65.23Y28.23
Z12.70
G0X66.63Y29.66
Z-3.25
G1Z-4.02F254.0
X66.59Y29.71F812.8
X66.55Y29.78
X66.51Y29.89
X66.50Y29.99
Y30.07
X66.54Y30.19
X66.58Y30.27
X66.60Y30.30
X66.70Y30.40
X66.78Y30.45
X66.88Y30.48
X66.99Y30.50
X67.08Y30.49
X67.18Y30.46
X67.25Y30.43
X67.31Y30.39
X67.39Y30.31
X67.44Y30.24
X67.47Y30.17
X67.49Y30.07
X67.50Y29.98
X67.48Y29.87
X67.45Y29.78
X67.39Y29.69
X67.32Y29.62
X67.23Y29.55
X67.17Y29.53
X67.08Y29.51
X66.97Y29.50
X66.92Y29.51
X66.83Y29.53
X66.72Y29.58
X66.68Y29.62
X66.63Y29.66
X65.93Y28.95
X65.79Y29.11
X65.72Y29.21
X65.65Y29.34
X65.59Y29.48
X65.55Y29.63
X65.52Y29.77
X65.50Y29.93
Y30.07
X65.52Y30.23
X65.55Y30.37
X65.59Y30.53
X65.65Y30.65
X65.72Y30.79
X65.79Y30.89
X65.86Y30.98
X66.01Y31.12
X66.11Y31.21
X66.23Y31.29
X66.34Y31.35
X66.47Y31.40
X66.62Y31.45
X66.77Y31.48
X66.93Y31.50
X67.07
X67.23Y31.48
X67.38Y31.45
X67.53Y31.40
X67.65Y31.35
X67.77Y31.29
X67.90Y31.20
X67.98Y31.13
X68.13Y30.98
X68.20Y30.90
X68.29Y30.76
X68.35Y30.66
X68.41Y30.52
X68.45Y30.37
X68.48Y30.23
X68.50Y30.08
Y29.92
X68.48Y29.77
X68.45Y29.63
X68.40Y29.47
X68.35Y29.34
X68.29Y29.23
X68.20Y29.10
X68.12Y29.00
X68.00Y28.88
X67.90Y28.80
X67.77Y28.71
X67.66Y28.65
X67.52Y28.59
X67.37Y28.55
X67.23Y28.52
X67.08Y28.50
X66.92
X66.76Y28.52
X66.71Y28.53
X66.54Y28.57
X66.44Y28.61
X66.28Y28.68
X66.16Y28.75
X66.04Y28.85
X65.93Y28.95
X65.23Y28.23
X65.14Y28.33
X65.00Y28.50
X64.92Y28.61
X64.86Y28.71
X64.75Y28.91
X64.66Y29.13
X64.58Y29.38
X64.53Y29.62
X64.50Y29.87
Y30.13
X64.53Y30.38
X64.58Y30.62
X64.65Y30.87
X64.75Y31.09
X64.86Y31.29
X64.92Y31.39
X65.00Y31.50
X65.13Y31.66
X65.33Y31.86
X65.50Y32.00
X65.60Y32.07
X65.72Y32.15
X65.91Y32.25
X66.13Y32.35
X66.38Y32.42
X66.62Y32.47
X66.87Y32.50
X67.13
X67.38Y32.47
X67.62Y32.42
X67.87Y32.35
X68.09Y32.25
X68.28Y32.15
X68.50Y32.00
X68.66Y31.87
X68.87Y31.66
X69.00Y31.50
X69.15Y31.27
X69.25Y31.09
X69.35Y30.87
X69.42Y30.62
X69.47Y30.38
X69.50Y30.13
Y29.87
X69.47Y29.62
X69.42Y29.38
X69.34Y29.13
X69.25Y28.91
X69.15Y28.72
X69.00Y28.50
X68.86Y28.33
X68.67Y28.14
X68.50Y28.00
X68.28Y27.85
X68.09Y27.75
X67.87Y27.65
X67.62Y27.58
X67.38Y27.53
X67.13Y27.50
X66.87
X66.62Y27.53
X66.49Y27.55
X66.25Y27.61
X66.13Y27.65
X66.03Y27.69
X65.81Y27.80
X65.60Y27.93
X65.41Y28.07
X65.32Y28.15
X65.23Y28.23
Z12.70
G0X66.63Y29.66
Z-3.76
G1Z-4.52F254.0
X66.59Y29.71F812.8
X66.55Y29.78
X66.51Y29.89
X66.50Y29.99
Y30.07
X66.54Y30.19
X66.58Y30.27
X66.60Y30.30
X66.70Y30.40
X66.78Y30.45
X66.88Y30.48
X66.99Y30.50
X67.08Y30.49
X67.18Y30.46
X67.25Y30.43
X67.31Y30.39
X67.39Y30.31
X67.44Y30.24
X67.47Y30.17
X67.49Y30.07
X67.50Y29.98
X67.48Y29.87
X67.45Y29.78
X67.39Y29.69
X67.32Y29.62
X67.23Y29.55
X67.17Y29.53
X67.08Y29.51
X66.97Y29.50
X66.92Y29.51
X66.83Y29.53
X66.72Y29.58
X66.68Y29.62
X66.63Y29.66
X65.93Y28.95
X65.79Y29.11
X65.72Y29.21
X65.65Y29.34
X65.59Y29.48
X65.55Y29.63
X65.52Y29.77
X65.50Y29.93
Y30.07
X65.52Y30.23
X65.55Y30.37
X65.59Y30.53
X65.65Y30.65
X65.72Y30.79
X65.79Y30.89
X65.86Y30.98
X66.01Y31.12
X66.11Y31.21
X66.23Y31.29
X66.34Y31.35
X66.47Y31.40
X66.62Y31.45
X66.77Y31.48
X66.93Y31.50
X67.07
X67.23Y31.48
X67.38Y31.45
X67.53Y31.40
X67.65Y31.35
X67.77Y31.29
X67.90Y31.20
X67.98Y31.13
X68.13Y30.98
X68.20Y30.90
X68.29Y30.76
X68.35Y30.66
X68.41Y30.52
X68.45Y30.37
X68.48Y30.23
X68.50Y30.08
Y29.92
X68.48Y29.77
X68.45Y29.63
X68.40Y29.47
X68.35Y29.34
X68.29Y29.23
X68.20Y29.10
X68.12Y29.00
X68.00Y28.88
X67.90Y28.80
X67.77Y28.71
X67.66Y28.65
X67.52Y28.59
X67.37Y28.55
X67.23Y28.52
X67.08Y28.50
X66.92
X66.76Y28.52
X66.71Y28.53
X66.54Y28.57
X66.44Y28.61
X66.28Y28.68
X66.16Y28.75
X66.04Y28.85
X65.93Y28.95
X65.23Y28.23
X65.14Y28.33
X65.00Y28.50
X64.92Y28.61
X64.86Y28.71
X64.75Y28.91
X64.66Y29.13
X64.58Y29.38
X64.53Y29.62
X64.50Y29.87
Y30.13
X64.53Y30.38
X64.58Y30.62
X64.65Y30.87
X64.75Y31.09
X64.86Y31.29
X64.92Y31.39
X65.00Y31.50
X65.13Y31.66
X65.33Y31.86
X65.50Y32.00
X65.60Y32.07
X65.72Y32.15
X65.91Y32.25
X66.13Y32.35
X66.38Y32.42
X66.62Y32.47
X66.87Y32.50
X67.13
X67.38Y32.47
X67.62Y32.42
X67.87Y32.35
X68.09Y32.25
X68.28Y32.15
X68.50Y32.00
X68.66Y31.87
X68.87Y31.66
X69.00Y31.50
X69.15Y31.27
X69.25Y31.09
X69.35Y30.87
X69.42Y30.62
X69.47Y30.38
X69.50Y30.13
Y29.87
X69.47Y29.62
X69.42Y29.38
X69.34Y29.13
X69.25Y28.91
X69.15Y28.72
X69.00Y28.50
X68.86Y28.33
X68.67Y28.14
X68.50Y28.00
X68.28Y27.85
X68.09Y27.75
X67.87Y27.65
X67.62Y27.58
X67.38Y27.53
X67.13Y27.50
X66.87
X66.62Y27.53
X66.49Y27.55
X66.25Y27.61
X66.13Y27.65
X66.03Y27.69
X65.81Y27.80
X65.60Y27.93
X65.41Y28.07
X65.32Y28.15
X65.23Y28.23
Z12.70
G0X66.63Y29.66
Z-4.27
G1Z-5.03F254.0
X66.59Y29.71F812.8
X66.55Y29.78
X66.51Y29.89
X66.50Y29.99
Y30.07
X66.54Y30.19
X66.58Y30.27
X66.60Y30.30
X66.70Y30.40
X66.78Y30.45
X66.88Y30.48
X66.99Y30.50
X67.08Y30.49
X67.18Y30.46
X67.25Y30.43
X67.31Y30.39
X67.39Y30.31
X67.44Y30.24
X67.47Y30.17
X67.49Y30.07
X67.50Y29.98
X67.48Y29.87
X67.45Y29.78
X67.39Y29.69
X67.32Y29.62
X67.23Y29.55
X67.17Y29.53
X67.08Y29.51
X66.97Y29.50
X66.92Y29.51
X66.83Y29.53
X66.72Y29.58
X66.68Y29.62
X66.63Y29.66
X65.93Y28.95
X65.79Y29.11
X65.72Y29.21
X65.65Y29.34
X65.59Y29.48
X65.55Y29.63
X65.52Y29.77
X65.50Y29.93
Y30.07
X65.52Y30.23
X65.55Y30.37
X65.59Y30.53
X65.65Y30.65
X65.72Y30.79
X65.79Y30.89
X65.86Y30.98
X66.01Y31.12
X66.11Y31.21
X66.23Y31.29
X66.34Y31.35
X66.47Y31.40
X66.62Y31.45
X66.77Y31.48
X66.93Y31.50
X67.07
X67.23Y31.48
X67.38Y31.45
X67.53Y31.40
X67.65Y31.35
X67.77Y31.29
X67.90Y31.20
X67.98Y31.13
X68.13Y30.98
X68.20Y30.90
X68.29Y30.76
X68.35Y30.66
X68.41Y30.52
X68.45Y30.37
X68.48Y30.23
X68.50Y30.08
Y29.92
X68.48Y29.77
X68.45Y29.63
X68.40Y29.47
X68.35Y29.34
X68.29Y29.23
X68.20Y29.10
X68.12Y29.00
X68.00Y28.88
X67.90Y28.80
X67.77Y28.71
X67.66Y28.65
X67.52Y28.59
X67.37Y28.55
X67.23Y28.52
X67.08Y28.50
X66.92
X66.76Y28.52
X66.71Y28.53
X66.54Y28.57
X66.44Y28.61
X66.28Y28.68
X66.16Y28.75
X66.04Y28.85
X65.93Y28.95
X65.23Y28.23
X65.14Y28.33
X65.00Y28.50
X64.92Y28.61
X64.86Y28.71
X64.75Y28.91
X64.66Y29.13
X64.58Y29.38
X64.53Y29.62
X64.50Y29.87
Y30.13
X64.53Y30.38
X64.58Y30.62
X64.65Y30.87
X64.75Y31.09
X64.86Y31.29
X64.92Y31.39
X65.00Y31.50
X65.13Y31.66
X65.33Y31.86
X65.50Y32.00
X65.60Y32.07
X65.72Y32.15
X65.91Y32.25
X66.13Y32.35
X66.38Y32.42
X66.62Y32.47
X66.87Y32.50
X67.13
X67.38Y32.47
X67.62Y32.42
X67.87Y32.35
X68.09Y32.25
X68.28Y32.15
X68.50Y32.00
X68.66Y31.87
X68.87Y31.66
X69.00Y31.50
X69.15Y31.27
X69.25Y31.09
X69.35Y30.87
X69.42Y30.62
X69.47Y30.38
X69.50Y30.13
Y29.87
X69.47Y29.62
X69.42Y29.38
X69.34Y29.13
X69.25Y28.91
X69.15Y28.72
X69.00Y28.50
X68.86Y28.33
X68.67Y28.14
X68.50Y28.00
X68.28Y27.85
X68.09Y27.75
X67.87Y27.65
X67.62Y27.58
X67.38Y27.53
X67.13Y27.50
X66.87
X66.62Y27.53
X66.49Y27.55
X66.25Y27.61
X66.13Y27.65
X66.03Y27.69
X65.81Y27.80
X65.60Y27.93
X65.41Y28.07
X65.32Y28.15
X65.23Y28.23
Z12.70
G0X66.63Y29.66
Z-4.78
G1Z-5.54F254.0
X66.59Y29.71F812.8
X66.55Y29.78
X66.51Y29.89
X66.50Y29.99
Y30.07
X66.54Y30.19
X66.58Y30.27
X66.60Y30.30
X66.70Y30.40
X66.78Y30.45
X66.88Y30.48
X66.99Y30.50
X67.08Y30.49
X67.18Y30.46
X67.25Y30.43
X67.31Y30.39
X67.39Y30.31
X67.44Y30.24
X67.47Y30.17
X67.49Y30.07
X67.50Y29.98
X67.48Y29.87
X67.45Y29.78
X67.39Y29.69
X67.32Y29.62
X67.23Y29.55
X67.17Y29.53
X67.08Y29.51
X66.97Y29.50
X66.92Y29.51
X66.83Y29.53
X66.72Y29.58
X66.68Y29.62
X66.63Y29.66
X65.93Y28.95
X65.79Y29.11
X65.72Y29.21
X65.65Y29.34
X65.59Y29.48
X65.55Y29.63
X65.52Y29.77
X65.50Y29.93
Y30.07
X65.52Y30.23
X65.55Y30.37
X65.59Y30.53
X65.65Y30.65
X65.72Y30.79
X65.79Y30.89
X65.86Y30.98
X66.01Y31.12
X66.11Y31.21
X66.23Y31.29
X66.34Y31.35
X66.47Y31.40
X66.62Y31.45
X66.77Y31.48
X66.93Y31.50
X67.07
X67.23Y31.48
X67.38Y31.45
X67.53Y31.40
X67.65Y31.35
X67.77Y31.29
X67.90Y31.20
X67.98Y31.13
X68.13Y30.98
X68.20Y30.90
X68.29Y30.76
X68.35Y30.66
X68.41Y30.52
X68.45Y30.37
X68.48Y30.23
X68.50Y30.08
Y29.92
X68.48Y29.77
X68.45Y29.63
X68.40Y29.47
X68.35Y29.34
X68.29Y29.23
X68.20Y29.10
X68.12Y29.00
X68.00Y28.88
X67.90Y28.80
X67.77Y28.71
X67.66Y28.65
X67.52Y28.59
X67.37Y28.55
X67.23Y28.52
X67.08Y28.50
X66.92
X66.76Y28.52
X66.71Y28.53
X66.54Y28.57
X66.44Y28.61
X66.28Y28.68
X66.16Y28.75
X66.04Y28.85
X65.93Y28.95
X65.23Y28.23
X65.14Y28.33
X65.00Y28.50
X64.92Y28.61
X64.86Y28.71
X64.75Y28.91
X64.66Y29.13
X64.58Y29.38
X64.53Y29.62
X64.50Y29.87
Y30.13
X64.53Y30.38
X64.58Y30.62
X64.65Y30.87
X64.75Y31.09
X64.86Y31.29
X64.92Y31.39
X65.00Y31.50
X65.13Y31.66
X65.33Y31.86
X65.50Y32.00
X65.60Y32.07
X65.72Y32.15
X65.91Y32.25
X66.13Y32.35
X66.38Y32.42
X66.62Y32.47
X66.87Y32.50
X67.13
X67.38Y32.47
X67.62Y32.42
X67.87Y32.35
X68.09Y32.25
X68.28Y32.15
X68.50Y32.00
X68.66Y31.87
X68.87Y31.66
X69.00Y31.50
X69.15Y31.27
X69.25Y31.09
X69.35Y30.87
X69.42Y30.62
X69.47Y30.38
X69.50Y30.13
Y29.87
X69.47Y29.62
X69.42Y29.38
X69.34Y29.13
X69.25Y28.91
X69.15Y28.72
X69.00Y28.50
X68.86Y28.33
X68.67Y28.14
X68.50Y28.00
X68.28Y27.85
X68.09Y27.75
X67.87Y27.65
X67.62Y27.58
X67.38Y27.53
X67.13Y27.50
X66.87
X66.62Y27.53
X66.49Y27.55
X66.25Y27.61
X66.13Y27.65
X66.03Y27.69
X65.81Y27.80
X65.60Y27.93
X65.41Y28.07
X65.32Y28.15
X65.23Y28.23
Z12.70
G0X66.63Y29.66
Z-5.29
G1Z-6.05F254.0
X66.59Y29.71F812.8
X66.55Y29.78
X66.51Y29.89
X66.50Y29.99
Y30.07
X66.54Y30.19
X66.58Y30.27
X66.60Y30.30
X66.70Y30.40
X66.78Y30.45
X66.88Y30.48
X66.99Y30.50
X67.08Y30.49
X67.18Y30.46
X67.25Y30.43
X67.31Y30.39
X67.39Y30.31
X67.44Y30.24
X67.47Y30.17
X67.49Y30.07
X67.50Y29.98
X67.48Y29.87
X67.45Y29.78
X67.39Y29.69
X67.32Y29.62
X67.23Y29.55
X67.17Y29.53
X67.08Y29.51
X66.97Y29.50
X66.92Y29.51
X66.83Y29.53
X66.72Y29.58
X66.68Y29.62
X66.63Y29.66
X65.93Y28.95
X65.79Y29.11
X65.72Y29.21
X65.65Y29.34
X65.59Y29.48
X65.55Y29.63
X65.52Y29.77
X65.50Y29.93
Y30.07
X65.52Y30.23
X65.55Y30.37
X65.59Y30.53
X65.65Y30.65
X65.72Y30.79
X65.79Y30.89
X65.86Y30.98
X66.01Y31.12
X66.11Y31.21
X66.23Y31.29
X66.34Y31.35
X66.47Y31.40
X66.62Y31.45
X66.77Y31.48
X66.93Y31.50
X67.07
X67.23Y31.48
X67.38Y31.45
X67.53Y31.40
X67.65Y31.35
X67.77Y31.29
X67.90Y31.20
X67.98Y31.13
X68.13Y30.98
X68.20Y30.90
X68.29Y30.76
X68.35Y30.66
X68.41Y30.52
X68.45Y30.37
X68.48Y30.23
X68.50Y30.08
Y29.92
X68.48Y29.77
X68.45Y29.63
X68.40Y29.47
X68.35Y29.34
X68.29Y29.23
X68.20Y29.10
X68.12Y29.00
X68.00Y28.88
X67.90Y28.80
X67.77Y28.71
X67.66Y28.65
X67.52Y28.59
X67.37Y28.55
X67.23Y28.52
X67.08Y28.50
X66.92
X66.76Y28.52
X66.71Y28.53
X66.54Y28.57
X66.44Y28.61
X66.28Y28.68
X66.16Y28.75
X66.04Y28.85
X65.93Y28.95
X65.23Y28.23
X65.14Y28.33
X65.00Y28.50
X64.92Y28.61
X64.86Y28.71
X64.75Y28.91
X64.66Y29.13
X64.58Y29.38
X64.53Y29.62
X64.50Y29.87
Y30.13
X64.53Y30.38
X64.58Y30.62
X64.65Y30.87
X64.75Y31.09
X64.86Y31.29
X64.92Y31.39
X65.00Y31.50
X65.13Y31.66
X65.33Y31.86
X65.50Y32.00
X65.60Y32.07
X65.72Y32.15
X65.91Y32.25
X66.13Y32.35
X66.38Y32.42
X66.62Y32.47
X66.87Y32.50
X67.13
X67.38Y32.47
X67.62Y32.42
X67.87Y32.35
X68.09Y32.25
X68.28Y32.15
X68.50Y32.00
X68.66Y31.87
X68.87Y31.66
X69.00Y31.50
X69.15Y31.27
X69.25Y31.09
X69.35Y30.87
X69.42Y30.62
X69.47Y30.38
X69.50Y30.13
Y29.87
X69.47Y29.62
X69.42Y29.38
X69.34Y29.13
X69.25Y28.91
X69.15Y28.72
X69.00Y28.50
X68.86Y28.33
X68.67Y28.14
X68.50Y28.00
X68.28Y27.85
X68.09Y27.75
X67.87Y27.65
X67.62Y27.58
X67.38Y27.53
X67.13Y27.50
X66.87
X66.62Y27.53
X66.49Y27.55
X66.25Y27.61
X66.13Y27.65
X66.03Y27.69
X65.81Y27.80
X65.60Y27.93
X65.41Y28.07
X65.32Y28.15
X65.23Y28.23
Z12.70
G0X66.63Y29.66
Z-5.64
G1Z-6.40F254.0
X66.59Y29.71F812.8
X66.55Y29.78
X66.51Y29.89
X66.50Y29.99
Y30.07
X66.54Y30.19
X66.58Y30.27
X66.60Y30.30
X66.70Y30.40
X66.78Y30.45
X66.88Y30.48
X66.99Y30.50
X67.08Y30.49
X67.18Y30.46
X67.25Y30.43
X67.31Y30.39
X67.39Y30.31
X67.44Y30.24
X67.47Y30.17
X67.49Y30.07
X67.50Y29.98
X67.48Y29.87
X67.45Y29.78
X67.39Y29.69
X67.32Y29.62
X67.23Y29.55
X67.17Y29.53
X67.08Y29.51
X66.97Y29.50
X66.92Y29.51
X66.83Y29.53
X66.72Y29.58
X66.68Y29.62
X66.63Y29.66
X65.93Y28.95
X65.79Y29.11
X65.72Y29.21
X65.65Y29.34
X65.59Y29.48
X65.55Y29.63
X65.52Y29.77
X65.50Y29.93
Y30.07
X65.52Y30.23
X65.55Y30.37
X65.59Y30.53
X65.65Y30.65
X65.72Y30.79
X65.79Y30.89
X65.86Y30.98
X66.01Y31.12
X66.11Y31.21
X66.23Y31.29
X66.34Y31.35
X66.47Y31.40
X66.62Y31.45
X66.77Y31.48
X66.93Y31.50
X67.07
X67.23Y31.48
X67.38Y31.45
X67.53Y31.40
X67.65Y31.35
X67.77Y31.29
X67.90Y31.20
X67.98Y31.13
X68.13Y30.98
X68.20Y30.90
X68.29Y30.76
X68.35Y30.66
X68.41Y30.52
X68.45Y30.37
X68.48Y30.23
X68.50Y30.08
Y29.92
X68.48Y29.77
X68.45Y29.63
X68.40Y29.47
X68.35Y29.34
X68.29Y29.23
X68.20Y29.10
X68.12Y29.00
X68.00Y28.88
X67.90Y28.80
X67.77Y28.71
X67.66Y28.65
X67.52Y28.59
X67.37Y28.55
X67.23Y28.52
X67.08Y28.50
X66.92
X66.76Y28.52
X66.71Y28.53
X66.54Y28.57
X66.44Y28.61
X66.28Y28.68
X66.16Y28.75
X66.04Y28.85
X65.93Y28.95
X65.23Y28.23
X65.14Y28.33
X65.00Y28.50
X64.92Y28.61
X64.86Y28.71
X64.75Y28.91
X64.66Y29.13
X64.58Y29.38
X64.53Y29.62
X64.50Y29.87
Y30.13
X64.53Y30.38
X64.58Y30.62
X64.65Y30.87
X64.75Y31.09
X64.86Y31.29
X64.92Y31.39
X65.00Y31.50
X65.13Y31.66
X65.33Y31.86
X65.50Y32.00
X65.60Y32.07
X65.72Y32.15
X65.91Y32.25
X66.13Y32.35
X66.38Y32.42
X66.62Y32.47
X66.87Y32.50
X67.13
X67.38Y32.47
X67.62Y32.42
X67.87Y32.35
X68.09Y32.25
X68.28Y32.15
X68.50Y32.00
X68.66Y31.87
X68.87Y31.66
X69.00Y31.50
X69.15Y31.27
X69.25Y31.09
X69.35Y30.87
X69.42Y30.62
X69.47Y30.38
X69.50Y30.13
Y29.87
X69.47Y29.62
X69.42Y29.38
X69.34Y29.13
X69.25Y28.91
X69.15Y28.72
X69.00Y28.50
X68.86Y28.33
X68.67Y28.14
X68.50Y28.00
X68.28Y27.85
X68.09Y27.75
X67.87Y27.65
X67.62Y27.58
X67.38Y27.53
X67.13Y27.50
X66.87
X66.62Y27.53
X66.49Y27.55
X66.25Y27.61
X66.13Y27.65
X66.03Y27.69
X65.81Y27.80
X65.60Y27.93
X65.41Y28.07
X65.32Y28.15
X65.23Y28.23
Z12.70
(sensor.slot.-.Pocket)
M03S10000
G0X225.55Y46.00
G1Z-0.51F304.8
Y47.00F762.0
X241.55
Y46.00
X225.55
X224.55Y45.00
Y48.00
X242.55
Y45.00
X224.55
X223.55Y44.00
Y49.00
X243.55
Y44.00
X223.55
Z12.70
G0X225.55Y46.00
Z-0.25
G1Z-1.02F304.8
Y47.00F762.0
X241.55
Y46.00
X225.55
X224.55Y45.00
Y48.00
X242.55
Y45.00
X224.55
X223.55Y44.00
Y49.00
X243.55
Y44.00
X223.55
Z12.70
G0X225.55Y46.00
Z-0.76
G1Z-1.52F304.8
Y47.00F762.0
X241.55
Y46.00
X225.55
X224.55Y45.00
Y48.00
X242.55
Y45.00
X224.55
X223.55Y44.00
Y49.00
X243.55
Y44.00
X223.55
Z12.70
G0X225.55Y46.00
Z-1.27
G1Z-2.03F304.8
Y47.00F762.0
X241.55
Y46.00
X225.55
X224.55Y45.00
Y48.00
X242.55
Y45.00
X224.55
X223.55Y44.00
Y49.00
X243.55
Y44.00
X223.55
Z12.70
G0X225.55Y46.00
Z-1.78
G1Z-2.54F304.8
Y47.00F762.0
X241.55
Y46.00
X225.55
X224.55Y45.00
Y48.00
X242.55
Y45.00
X224.55
X223.55Y44.00
Y49.00
X243.55
Y44.00
X223.55
Z12.70
G0X225.55Y46.00
Z-2.29
G1Z-3.05F304.8
Y47.00F762.0
X241.55
Y46.00
X225.55
X224.55Y45.00
Y48.00
X242.55
Y45.00
X224.55
X223.55Y44.00
Y49.00
X243.55
Y44.00
X223.55
Z12.70
G0X225.55Y46.00
Z-2.79
G1Z-3.56F304.8
Y47.00F762.0
X241.55
Y46.00
X225.55
X224.55Y45.00
Y48.00
X242.55
Y45.00
X224.55
X223.55Y44.00
Y49.00
X243.55
Y44.00
X223.55
Z12.70
G0X225.55Y46.00
Z-3.30
G1Z-4.06F304.8
Y47.00F762.0
X241.55
Y46.00
X225.55
X224.55Y45.00
Y48.00
X242.55
Y45.00
X224.55
X223.55Y44.00
Y49.00
X243.55
Y44.00
X223.55
Z12.70
G0X225.55Y46.00
Z-3.81
G1Z-4.57F304.8
Y47.00F762.0
X241.55
Y46.00
X225.55
X224.55Y45.00
Y48.00
X242.55
Y45.00
X224.55
X223.55Y44.00
Y49.00
X243.55
Y44.00
X223.55
Z12.70
G0X225.55Y46.00
Z-4.32
G1Z-5.08F304.8
Y47.00F762.0
X241.55
Y46.00
X225.55
X224.55Y45.00
Y48.00
X242.55
Y45.00
X224.55
X223.55Y44.00
Y49.00
X243.55
Y44.00
X223.55
Z12.70
G0X225.55Y46.00
Z-4.83
G1Z-5.59F304.8
Y47.00F762.0
X241.55
Y46.00
X225.55
X224.55Y45.00
Y48.00
X242.55
Y45.00
X224.55
X223.55Y44.00
Y49.00
X243.55
Y44.00
X223.55
Z12.70
G0X225.55Y46.00
Z-5.33
G1Z-6.10F304.8
Y47.00F762.0
X241.55
Y46.00
X225.55
X224.55Y45.00
Y48.00
X242.55
Y45.00
X224.55
X223.55Y44.00
Y49.00
X243.55
Y44.00
X223.55
Z12.70
G0X225.55Y46.00
Z-5.64
G1Z-6.40F304.8
Y47.00F762.0
X241.55
Y46.00
X225.55
X224.55Y45.00
Y48.00
X242.55
Y45.00
X224.55
X223.55Y44.00
Y49.00
X243.55
Y44.00
X223.55
Z12.70
M02
