(Design File: C:/Users/msidell.VIASAT/s/carbide/WordClockBracket.c2d)
(stockMin:0.00mm, 0.00mm, -13.50mm)
(stockMax:419.10mm, 50.80mm, 0.00mm)
(STOCK/BLOCK,419.10, 50.80, 13.50,0.00, 0.00, 13.50)
G90
G21
(Move to safe Z to avoid workholding)
G53G0Z-5.000
(slot)
M05
(TOOL/MILL,3.17, 0.00, 0.00, 0.00)
M6T102
M03S10000
(PREPOSITION FOR RAPID PLUNGE)
G0X109.59Y-0.00
Z12.70
G1Z-1.27F203.2
Y50.80F508.0
X110.41
Y-0.00
X109.59
Z-2.54F203.2
Y50.80F508.0
X110.41
Y-0.00
X109.59
Z-3.00F203.2
Y50.80F508.0
X110.41
Y-0.00
X109.59
Z12.70
(socket)
M03S10000
G0X-0.03Y24.91
G1Z-1.27F203.2
Y25.90F508.0
X23.13
Y24.91
X-0.03
X-1.61Y23.32
Y27.48
X24.71
Y23.32
X-1.61
Z12.70
G0X-0.03Y24.91
G1Z-2.54F203.2
Y25.90F508.0
X23.13
Y24.91
X-0.03
X-1.61Y23.32
Y27.48
X24.71
Y23.32
X-1.61
Z12.70
G0X-0.03Y24.91
G1Z-3.81F203.2
Y25.90F508.0
X23.13
Y24.91
X-0.03
X-1.61Y23.32
Y27.48
X24.71
Y23.32
X-1.61
Z12.70
G0X-0.03Y24.91
G1Z-5.08F203.2
Y25.90F508.0
X23.13
Y24.91
X-0.03
X-1.61Y23.32
Y27.48
X24.71
Y23.32
X-1.61
Z12.70
G0X-0.03Y24.91
G1Z-6.35F203.2
Y25.90F508.0
X23.13
Y24.91
X-0.03
X-1.61Y23.32
Y27.48
X24.71
Y23.32
X-1.61
Z12.70
M02
