(Design File: C..Users.msidell.VIASAT.s.carbide.CenterJig.c2d)
(stockMin:0.00mm, 0.00mm, -13.00mm)
(stockMax:330.20mm, 127.00mm, 0.00mm)
(STOCK/BLOCK,330.20, 127.00, 13.00,0.00, 0.00, 13.00)
G90
G21
(Move to safe Z to avoid workholding)
G53G0Z-5.000
(notch.-.Pocket)
M05
(TOOL/MILL,6.35, 0.00, 0.00, 0.00)
M6T201
M03S10000
(PREPOSITION FOR RAPID PLUNGE)
G0X161.35Y2.35
Z12.70
G1Z-0.69F254.0
Y8.65F1524.0
X203.65
Y2.35
X161.35
X158.18Y-0.82
Y11.82
X206.82
Y-0.82
X158.18
Z12.70
G0X161.35Y2.35
Z-0.34
G1Z-1.37F254.0
Y8.65F1524.0
X203.65
Y2.35
X161.35
X158.18Y-0.82
Y11.82
X206.82
Y-0.82
X158.18
Z12.70
G0X161.35Y2.35
Z-1.03
G1Z-2.06F254.0
Y8.65F1524.0
X203.65
Y2.35
X161.35
X158.18Y-0.82
Y11.82
X206.82
Y-0.82
X158.18
Z12.70
G0X161.35Y2.35
Z-1.72
G1Z-2.74F254.0
Y8.65F1524.0
X203.65
Y2.35
X161.35
X158.18Y-0.82
Y11.82
X206.82
Y-0.82
X158.18
Z12.70
G0X161.35Y2.35
Z-2.40
G1Z-3.43F254.0
Y8.65F1524.0
X203.65
Y2.35
X161.35
X158.18Y-0.82
Y11.82
X206.82
Y-0.82
X158.18
Z12.70
G0X161.35Y2.35
Z-3.09
G1Z-4.12F254.0
Y8.65F1524.0
X203.65
Y2.35
X161.35
X158.18Y-0.82
Y11.82
X206.82
Y-0.82
X158.18
Z12.70
G0X161.35Y2.35
Z-3.77
G1Z-4.80F254.0
Y8.65F1524.0
X203.65
Y2.35
X161.35
X158.18Y-0.82
Y11.82
X206.82
Y-0.82
X158.18
Z12.70
G0X161.35Y2.35
Z-4.46
G1Z-5.49F254.0
Y8.65F1524.0
X203.65
Y2.35
X161.35
X158.18Y-0.82
Y11.82
X206.82
Y-0.82
X158.18
Z12.70
G0X161.35Y2.35
Z-5.15
G1Z-6.17F254.0
Y8.65F1524.0
X203.65
Y2.35
X161.35
X158.18Y-0.82
Y11.82
X206.82
Y-0.82
X158.18
Z12.70
G0X161.35Y2.35
Z-5.83
G1Z-6.86F254.0
Y8.65F1524.0
X203.65
Y2.35
X161.35
X158.18Y-0.82
Y11.82
X206.82
Y-0.82
X158.18
Z12.70
G0X161.35Y2.35
Z-6.52
G1Z-7.55F254.0
Y8.65F1524.0
X203.65
Y2.35
X161.35
X158.18Y-0.82
Y11.82
X206.82
Y-0.82
X158.18
Z12.70
G0X161.35Y2.35
Z-7.20
G1Z-8.23F254.0
Y8.65F1524.0
X203.65
Y2.35
X161.35
X158.18Y-0.82
Y11.82
X206.82
Y-0.82
X158.18
Z12.70
G0X161.35Y2.35
Z-7.89
G1Z-8.92F254.0
Y8.65F1524.0
X203.65
Y2.35
X161.35
X158.18Y-0.82
Y11.82
X206.82
Y-0.82
X158.18
Z12.70
G0X161.35Y2.35
Z-8.58
G1Z-9.60F254.0
Y8.65F1524.0
X203.65
Y2.35
X161.35
X158.18Y-0.82
Y11.82
X206.82
Y-0.82
X158.18
Z12.70
G0X161.35Y2.35
Z-9.26
G1Z-10.29F254.0
Y8.65F1524.0
X203.65
Y2.35
X161.35
X158.18Y-0.82
Y11.82
X206.82
Y-0.82
X158.18
Z12.70
G0X161.35Y2.35
Z-9.95
G1Z-10.98F254.0
Y8.65F1524.0
X203.65
Y2.35
X161.35
X158.18Y-0.82
Y11.82
X206.82
Y-0.82
X158.18
Z12.70
G0X161.35Y2.35
Z-10.63
G1Z-11.66F254.0
Y8.65F1524.0
X203.65
Y2.35
X161.35
X158.18Y-0.82
Y11.82
X206.82
Y-0.82
X158.18
Z12.70
G0X161.35Y2.35
Z-11.32
G1Z-12.35F254.0
Y8.65F1524.0
X203.65
Y2.35
X161.35
X158.18Y-0.82
Y11.82
X206.82
Y-0.82
X158.18
Z12.70
G0X161.35Y2.35
Z-11.97
G1Z-13.00F254.0
Y8.65F1524.0
X203.65
Y2.35
X161.35
X158.18Y-0.82
Y11.82
X206.82
Y-0.82
X158.18
Z12.70
M02
