(Design File: C..Users.msidell.VIASAT.s.carbide.CornerJig.c2d)
(stockMin:0.00mm, 0.00mm, -13.49mm)
(stockMax:406.40mm, 406.40mm, 0.00mm)
(STOCK/BLOCK,406.40, 406.40, 13.49,0.00, 0.00, 13.49)
G90
G21
(Move to safe Z to avoid workholding)
G53G0Z-5.000
(slot.-.Pocket)
M05
(TOOL/MILL,6.35, 0.00, 0.00, 0.00)
M6T201
M03S10000
(PREPOSITION FOR RAPID PLUNGE)
G0X74.56Y75.28
Z12.70
G1Z-0.69F254.0
X74.01Y75.86F1524.0
X73.46Y76.46
X73.17Y76.78
X72.60Y77.47
X72.09Y78.09
X71.37Y79.05
X70.83Y79.80
X70.29Y80.60
X69.63Y81.64
X69.22Y82.34
X69.01Y82.72
X68.62Y83.44
X68.37Y83.92
X68.03Y84.61
X67.83Y85.01
X67.48Y85.79
X67.18Y86.51
X66.78Y87.51
X66.66Y87.85
X66.56Y88.12
X66.24Y89.05
X66.01Y89.80
X65.86Y90.33
X65.64Y91.13
X65.42Y92.04
X65.27Y92.75
X65.07Y93.73
X64.94Y94.57
X64.81Y95.50
X64.70Y96.40
X64.63Y97.24
X64.57Y98.14
X64.53Y99.42
Y115.47
X67.47
Y99.89
X67.48Y99.17
X67.52Y98.32
X67.56Y97.55
X67.64Y96.72
X67.74Y95.81
X67.84Y95.09
X67.99Y94.23
X68.13Y93.47
X68.30Y92.69
X68.50Y91.87
X68.73Y91.03
X68.93Y90.35
X69.17Y89.63
X69.46Y88.79
X69.75Y88.04
X70.05Y87.31
X70.36Y86.59
X70.67Y85.92
X71.04Y85.19
X71.41Y84.48
X71.78Y83.81
X72.22Y83.08
X72.66Y82.38
X73.05Y81.79
X73.44Y81.22
X73.94Y80.54
X74.39Y79.95
X74.87Y79.35
X75.43Y78.68
X75.95Y78.10
X76.43Y77.58
X77.05Y76.95
X77.55Y76.46
X78.10Y75.95
X78.69Y75.42
X79.27Y74.93
X79.93Y74.41
X80.58Y73.91
X81.23Y73.44
X81.84Y73.01
X82.41Y72.64
X83.13Y72.19
X83.81Y71.78
X84.44Y71.43
X85.20Y71.03
X85.87Y70.70
X86.58Y70.36
X87.31Y70.04
X88.11Y69.72
X88.78Y69.46
X89.62Y69.17
X90.42Y68.91
X91.00Y68.74
X91.89Y68.50
X92.73Y68.29
X93.51Y68.12
X94.25Y67.98
X94.99Y67.86
X95.82Y67.74
X96.72Y67.64
X97.58Y67.56
X98.38Y67.51
X99.16Y67.48
X99.89Y67.47
X115.47
Y64.53
X100.06
X99.16
X98.15Y64.57
X97.22Y64.63
X96.39Y64.71
X95.51Y64.81
X94.56Y64.94
X93.73Y65.07
X93.33Y65.15
X92.36Y65.35
X92.00Y65.43
X91.13Y65.64
X90.74Y65.74
X89.91Y65.98
X88.96Y66.27
X88.22Y66.52
X87.39Y66.83
X86.58Y67.15
X85.79Y67.48
X84.97Y67.85
X84.69Y67.99
X83.88Y68.39
X83.11Y68.80
X82.36Y69.21
X81.59Y69.67
X81.27Y69.86
X80.52Y70.35
X80.22Y70.55
X79.78Y70.85
X79.13Y71.31
X78.81Y71.55
X78.07Y72.11
X77.49Y72.58
X76.78Y73.17
X76.46Y73.46
X75.86Y74.01
X75.49Y74.36
X75.28Y74.56
X74.56Y75.28
X72.29Y73.05
X71.70Y73.68
X71.07Y74.37
X70.79Y74.69
X70.17Y75.42
X69.58Y76.15
X69.01Y76.89
X68.79Y77.19
X68.22Y78.00
X67.65Y78.84
X67.47Y79.12
X66.93Y79.98
X66.46Y80.78
X66.25Y81.15
X65.80Y81.97
X65.55Y82.45
X65.16Y83.25
X64.96Y83.65
X64.57Y84.52
X64.23Y85.32
X63.83Y86.34
X63.55Y87.10
X63.24Y88.03
X62.96Y88.91
X62.81Y89.45
X62.57Y90.32
X62.32Y91.34
X62.15Y92.13
X61.95Y93.18
X61.80Y94.09
X61.66Y95.09
X61.55Y96.05
X61.46Y97.04
X61.40Y97.99
X61.36Y99.08
X61.35Y99.42
Y118.65
X70.65
Y99.93
X70.66Y99.26
X70.69Y98.46
X70.73Y97.77
X70.80Y97.04
X70.89Y96.24
X70.98Y95.58
X71.12Y94.76
X71.24Y94.10
X71.39Y93.42
X71.56Y92.70
X71.78Y91.92
X71.96Y91.30
X72.19Y90.60
X72.44Y89.88
X72.70Y89.19
X72.97Y88.54
X73.25Y87.91
X73.53Y87.30
X73.86Y86.64
X74.22Y85.96
X74.54Y85.39
X74.91Y84.76
X75.31Y84.13
X75.69Y83.55
X76.04Y83.04
X76.50Y82.41
X76.89Y81.90
X77.34Y81.35
X77.80Y80.79
X78.32Y80.22
X78.75Y79.75
X79.27Y79.22
X79.74Y78.77
X80.27Y78.27
X80.79Y77.80
X81.29Y77.38
X81.90Y76.89
X82.46Y76.46
X83.04Y76.04
X83.61Y75.65
X84.13Y75.30
X84.77Y74.90
X85.38Y74.54
X85.95Y74.23
X86.64Y73.86
X87.26Y73.55
X87.91Y73.25
X88.58Y72.95
X89.25Y72.68
X89.88Y72.44
X90.60Y72.19
X91.33Y71.95
X91.91Y71.78
X92.70Y71.56
X93.44Y71.39
X94.13Y71.24
X94.81Y71.11
X95.50Y70.99
X96.23Y70.89
X97.02Y70.80
X97.78Y70.73
X98.51Y70.69
X99.26Y70.66
X99.93Y70.65
X118.65
Y61.35
X100.03
X99.08Y61.36
X97.99Y61.40
X97.00Y61.46
X96.05Y61.55
X95.10Y61.66
X94.10Y61.80
X93.17Y61.95
X92.71Y62.03
X91.69Y62.24
X91.30Y62.33
X90.31Y62.57
X89.90Y62.68
X89.00Y62.94
X87.98Y63.25
X87.17Y63.53
X86.26Y63.86
X85.39Y64.20
X84.50Y64.58
X83.63Y64.97
X83.30Y65.13
X82.42Y65.57
X81.59Y66.00
X80.79Y66.45
X79.93Y66.96
X79.60Y67.16
X78.77Y67.69
X78.43Y67.92
X77.98Y68.23
X77.25Y68.75
X76.87Y69.03
X76.14Y69.59
X75.45Y70.15
X74.69Y70.79
X74.37Y71.07
X73.68Y71.70
X73.31Y72.05
X73.05Y72.29
X72.29Y73.05
X70.05Y70.81
X69.39Y71.50
X68.68Y72.28
X68.40Y72.60
X67.72Y73.39
X67.08Y74.19
X66.49Y74.96
X66.20Y75.35
X65.61Y76.19
X65.02Y77.06
X64.78Y77.44
X64.24Y78.30
X63.69Y79.22
X63.48Y79.59
X62.99Y80.50
X62.74Y80.98
X62.29Y81.89
X62.09Y82.29
X61.66Y83.27
X61.28Y84.16
X60.88Y85.18
X60.55Y86.08
X60.22Y87.05
X59.91Y88.03
X59.76Y88.56
X59.49Y89.53
X59.24Y90.59
X59.13Y91.08
X59.03Y91.53
X58.82Y92.61
X58.65Y93.64
X58.51Y94.69
X58.39Y95.74
X58.30Y96.80
X58.23Y97.83
X58.19Y98.96
X58.18Y99.42
X58.17Y121.83
X73.83
Y99.96
Y99.35
X73.86Y98.63
X73.90Y98.00
X73.96Y97.35
X74.04Y96.64
X74.13Y96.02
X74.24Y95.34
X74.36Y94.72
X74.49Y94.12
X74.64Y93.49
X74.82Y92.82
X74.99Y92.24
X75.21Y91.58
X75.42Y90.97
X75.65Y90.38
X75.88Y89.81
X76.14Y89.22
X76.40Y88.67
X76.70Y88.05
X77.00Y87.49
X77.30Y86.96
X77.63Y86.40
X77.96Y85.87
X78.31Y85.34
X78.65Y84.86
X79.03Y84.33
X79.41Y83.84
X79.80Y83.35
X80.19Y82.89
X80.64Y82.38
X81.04Y81.95
X81.52Y81.46
X81.92Y81.07
X82.42Y80.61
X82.88Y80.20
X83.32Y79.82
X83.86Y79.39
X84.35Y79.02
X84.86Y78.65
X85.38Y78.29
X85.86Y77.97
X86.40Y77.63
X86.96Y77.30
X87.50Y77.00
X88.05Y76.70
X88.64Y76.41
X89.19Y76.15
X89.79Y75.89
X90.41Y75.64
X90.99Y75.42
X91.58Y75.21
X92.25Y74.99
X92.81Y74.83
X93.46Y74.65
X94.11Y74.49
X94.75Y74.35
X95.36Y74.23
X95.98Y74.13
X96.64Y74.04
X97.33Y73.96
X98.00Y73.90
X98.63Y73.86
X99.36Y73.83
X99.96
X121.83
Y58.17
X100.02
X99.43Y58.18
X98.96Y58.19
X97.83Y58.23
X96.78Y58.30
X95.72Y58.39
X95.17Y58.45
X94.67Y58.51
X93.64Y58.65
X92.59Y58.83
X92.11Y58.92
X91.05Y59.13
X90.57Y59.24
X89.53Y59.49
X89.03Y59.63
X88.09Y59.89
X87.03Y60.22
X86.10Y60.54
X85.64Y60.70
X85.12Y60.90
X84.18Y61.27
X83.27Y61.66
X82.29Y62.09
X81.90Y62.28
X80.96Y62.75
X80.08Y63.21
X79.22Y63.69
X78.30Y64.24
X77.89Y64.49
X77.03Y65.04
X76.63Y65.31
X76.19Y65.61
X75.37Y66.19
X74.98Y66.48
X74.19Y67.08
X73.39Y67.72
X72.60Y68.40
X72.28Y68.68
X71.50Y69.39
X71.13Y69.74
X70.81Y70.05
X70.05Y70.81
Z12.70
G0X74.56Y75.28
Z-0.34
G1Z-1.37F254.0
X74.01Y75.86F1524.0
X73.46Y76.46
X73.17Y76.78
X72.60Y77.47
X72.09Y78.09
X71.37Y79.05
X70.83Y79.80
X70.29Y80.60
X69.63Y81.64
X69.22Y82.34
X69.01Y82.72
X68.62Y83.44
X68.37Y83.92
X68.03Y84.61
X67.83Y85.01
X67.48Y85.79
X67.18Y86.51
X66.78Y87.51
X66.66Y87.85
X66.56Y88.12
X66.24Y89.05
X66.01Y89.80
X65.86Y90.33
X65.64Y91.13
X65.42Y92.04
X65.27Y92.75
X65.07Y93.73
X64.94Y94.57
X64.81Y95.50
X64.70Y96.40
X64.63Y97.24
X64.57Y98.14
X64.53Y99.42
Y115.47
X67.47
Y99.89
X67.48Y99.17
X67.52Y98.32
X67.56Y97.55
X67.64Y96.72
X67.74Y95.81
X67.84Y95.09
X67.99Y94.23
X68.13Y93.47
X68.30Y92.69
X68.50Y91.87
X68.73Y91.03
X68.93Y90.35
X69.17Y89.63
X69.46Y88.79
X69.75Y88.04
X70.05Y87.31
X70.36Y86.59
X70.67Y85.92
X71.04Y85.19
X71.41Y84.48
X71.78Y83.81
X72.22Y83.08
X72.66Y82.38
X73.05Y81.79
X73.44Y81.22
X73.94Y80.54
X74.39Y79.95
X74.87Y79.35
X75.43Y78.68
X75.95Y78.10
X76.43Y77.58
X77.05Y76.95
X77.55Y76.46
X78.10Y75.95
X78.69Y75.42
X79.27Y74.93
X79.93Y74.41
X80.58Y73.91
X81.23Y73.44
X81.84Y73.01
X82.41Y72.64
X83.13Y72.19
X83.81Y71.78
X84.44Y71.43
X85.20Y71.03
X85.87Y70.70
X86.58Y70.36
X87.31Y70.04
X88.11Y69.72
X88.78Y69.46
X89.62Y69.17
X90.42Y68.91
X91.00Y68.74
X91.89Y68.50
X92.73Y68.29
X93.51Y68.12
X94.25Y67.98
X94.99Y67.86
X95.82Y67.74
X96.72Y67.64
X97.58Y67.56
X98.38Y67.51
X99.16Y67.48
X99.89Y67.47
X115.47
Y64.53
X100.06
X99.16
X98.15Y64.57
X97.22Y64.63
X96.39Y64.71
X95.51Y64.81
X94.56Y64.94
X93.73Y65.07
X93.33Y65.15
X92.36Y65.35
X92.00Y65.43
X91.13Y65.64
X90.74Y65.74
X89.91Y65.98
X88.96Y66.27
X88.22Y66.52
X87.39Y66.83
X86.58Y67.15
X85.79Y67.48
X84.97Y67.85
X84.69Y67.99
X83.88Y68.39
X83.11Y68.80
X82.36Y69.21
X81.59Y69.67
X81.27Y69.86
X80.52Y70.35
X80.22Y70.55
X79.78Y70.85
X79.13Y71.31
X78.81Y71.55
X78.07Y72.11
X77.49Y72.58
X76.78Y73.17
X76.46Y73.46
X75.86Y74.01
X75.49Y74.36
X75.28Y74.56
X74.56Y75.28
X72.29Y73.05
X71.70Y73.68
X71.07Y74.37
X70.79Y74.69
X70.17Y75.42
X69.58Y76.15
X69.01Y76.89
X68.79Y77.19
X68.22Y78.00
X67.65Y78.84
X67.47Y79.12
X66.93Y79.98
X66.46Y80.78
X66.25Y81.15
X65.80Y81.97
X65.55Y82.45
X65.16Y83.25
X64.96Y83.65
X64.57Y84.52
X64.23Y85.32
X63.83Y86.34
X63.55Y87.10
X63.24Y88.03
X62.96Y88.91
X62.81Y89.45
X62.57Y90.32
X62.32Y91.34
X62.15Y92.13
X61.95Y93.18
X61.80Y94.09
X61.66Y95.09
X61.55Y96.05
X61.46Y97.04
X61.40Y97.99
X61.36Y99.08
X61.35Y99.42
Y118.65
X70.65
Y99.93
X70.66Y99.26
X70.69Y98.46
X70.73Y97.77
X70.80Y97.04
X70.89Y96.24
X70.98Y95.58
X71.12Y94.76
X71.24Y94.10
X71.39Y93.42
X71.56Y92.70
X71.78Y91.92
X71.96Y91.30
X72.19Y90.60
X72.44Y89.88
X72.70Y89.19
X72.97Y88.54
X73.25Y87.91
X73.53Y87.30
X73.86Y86.64
X74.22Y85.96
X74.54Y85.39
X74.91Y84.76
X75.31Y84.13
X75.69Y83.55
X76.04Y83.04
X76.50Y82.41
X76.89Y81.90
X77.34Y81.35
X77.80Y80.79
X78.32Y80.22
X78.75Y79.75
X79.27Y79.22
X79.74Y78.77
X80.27Y78.27
X80.79Y77.80
X81.29Y77.38
X81.90Y76.89
X82.46Y76.46
X83.04Y76.04
X83.61Y75.65
X84.13Y75.30
X84.77Y74.90
X85.38Y74.54
X85.95Y74.23
X86.64Y73.86
X87.26Y73.55
X87.91Y73.25
X88.58Y72.95
X89.25Y72.68
X89.88Y72.44
X90.60Y72.19
X91.33Y71.95
X91.91Y71.78
X92.70Y71.56
X93.44Y71.39
X94.13Y71.24
X94.81Y71.11
X95.50Y70.99
X96.23Y70.89
X97.02Y70.80
X97.78Y70.73
X98.51Y70.69
X99.26Y70.66
X99.93Y70.65
X118.65
Y61.35
X100.03
X99.08Y61.36
X97.99Y61.40
X97.00Y61.46
X96.05Y61.55
X95.10Y61.66
X94.10Y61.80
X93.17Y61.95
X92.71Y62.03
X91.69Y62.24
X91.30Y62.33
X90.31Y62.57
X89.90Y62.68
X89.00Y62.94
X87.98Y63.25
X87.17Y63.53
X86.26Y63.86
X85.39Y64.20
X84.50Y64.58
X83.63Y64.97
X83.30Y65.13
X82.42Y65.57
X81.59Y66.00
X80.79Y66.45
X79.93Y66.96
X79.60Y67.16
X78.77Y67.69
X78.43Y67.92
X77.98Y68.23
X77.25Y68.75
X76.87Y69.03
X76.14Y69.59
X75.45Y70.15
X74.69Y70.79
X74.37Y71.07
X73.68Y71.70
X73.31Y72.05
X73.05Y72.29
X72.29Y73.05
X70.05Y70.81
X69.39Y71.50
X68.68Y72.28
X68.40Y72.60
X67.72Y73.39
X67.08Y74.19
X66.49Y74.96
X66.20Y75.35
X65.61Y76.19
X65.02Y77.06
X64.78Y77.44
X64.24Y78.30
X63.69Y79.22
X63.48Y79.59
X62.99Y80.50
X62.74Y80.98
X62.29Y81.89
X62.09Y82.29
X61.66Y83.27
X61.28Y84.16
X60.88Y85.18
X60.55Y86.08
X60.22Y87.05
X59.91Y88.03
X59.76Y88.56
X59.49Y89.53
X59.24Y90.59
X59.13Y91.08
X59.03Y91.53
X58.82Y92.61
X58.65Y93.64
X58.51Y94.69
X58.39Y95.74
X58.30Y96.80
X58.23Y97.83
X58.19Y98.96
X58.18Y99.42
X58.17Y121.83
X73.83
Y99.96
Y99.35
X73.86Y98.63
X73.90Y98.00
X73.96Y97.35
X74.04Y96.64
X74.13Y96.02
X74.24Y95.34
X74.36Y94.72
X74.49Y94.12
X74.64Y93.49
X74.82Y92.82
X74.99Y92.24
X75.21Y91.58
X75.42Y90.97
X75.65Y90.38
X75.88Y89.81
X76.14Y89.22
X76.40Y88.67
X76.70Y88.05
X77.00Y87.49
X77.30Y86.96
X77.63Y86.40
X77.96Y85.87
X78.31Y85.34
X78.65Y84.86
X79.03Y84.33
X79.41Y83.84
X79.80Y83.35
X80.19Y82.89
X80.64Y82.38
X81.04Y81.95
X81.52Y81.46
X81.92Y81.07
X82.42Y80.61
X82.88Y80.20
X83.32Y79.82
X83.86Y79.39
X84.35Y79.02
X84.86Y78.65
X85.38Y78.29
X85.86Y77.97
X86.40Y77.63
X86.96Y77.30
X87.50Y77.00
X88.05Y76.70
X88.64Y76.41
X89.19Y76.15
X89.79Y75.89
X90.41Y75.64
X90.99Y75.42
X91.58Y75.21
X92.25Y74.99
X92.81Y74.83
X93.46Y74.65
X94.11Y74.49
X94.75Y74.35
X95.36Y74.23
X95.98Y74.13
X96.64Y74.04
X97.33Y73.96
X98.00Y73.90
X98.63Y73.86
X99.36Y73.83
X99.96
X121.83
Y58.17
X100.02
X99.43Y58.18
X98.96Y58.19
X97.83Y58.23
X96.78Y58.30
X95.72Y58.39
X95.17Y58.45
X94.67Y58.51
X93.64Y58.65
X92.59Y58.83
X92.11Y58.92
X91.05Y59.13
X90.57Y59.24
X89.53Y59.49
X89.03Y59.63
X88.09Y59.89
X87.03Y60.22
X86.10Y60.54
X85.64Y60.70
X85.12Y60.90
X84.18Y61.27
X83.27Y61.66
X82.29Y62.09
X81.90Y62.28
X80.96Y62.75
X80.08Y63.21
X79.22Y63.69
X78.30Y64.24
X77.89Y64.49
X77.03Y65.04
X76.63Y65.31
X76.19Y65.61
X75.37Y66.19
X74.98Y66.48
X74.19Y67.08
X73.39Y67.72
X72.60Y68.40
X72.28Y68.68
X71.50Y69.39
X71.13Y69.74
X70.81Y70.05
X70.05Y70.81
Z12.70
G0X74.56Y75.28
Z-1.03
G1Z-2.06F254.0
X74.01Y75.86F1524.0
X73.46Y76.46
X73.17Y76.78
X72.60Y77.47
X72.09Y78.09
X71.37Y79.05
X70.83Y79.80
X70.29Y80.60
X69.63Y81.64
X69.22Y82.34
X69.01Y82.72
X68.62Y83.44
X68.37Y83.92
X68.03Y84.61
X67.83Y85.01
X67.48Y85.79
X67.18Y86.51
X66.78Y87.51
X66.66Y87.85
X66.56Y88.12
X66.24Y89.05
X66.01Y89.80
X65.86Y90.33
X65.64Y91.13
X65.42Y92.04
X65.27Y92.75
X65.07Y93.73
X64.94Y94.57
X64.81Y95.50
X64.70Y96.40
X64.63Y97.24
X64.57Y98.14
X64.53Y99.42
Y115.47
X67.47
Y99.89
X67.48Y99.17
X67.52Y98.32
X67.56Y97.55
X67.64Y96.72
X67.74Y95.81
X67.84Y95.09
X67.99Y94.23
X68.13Y93.47
X68.30Y92.69
X68.50Y91.87
X68.73Y91.03
X68.93Y90.35
X69.17Y89.63
X69.46Y88.79
X69.75Y88.04
X70.05Y87.31
X70.36Y86.59
X70.67Y85.92
X71.04Y85.19
X71.41Y84.48
X71.78Y83.81
X72.22Y83.08
X72.66Y82.38
X73.05Y81.79
X73.44Y81.22
X73.94Y80.54
X74.39Y79.95
X74.87Y79.35
X75.43Y78.68
X75.95Y78.10
X76.43Y77.58
X77.05Y76.95
X77.55Y76.46
X78.10Y75.95
X78.69Y75.42
X79.27Y74.93
X79.93Y74.41
X80.58Y73.91
X81.23Y73.44
X81.84Y73.01
X82.41Y72.64
X83.13Y72.19
X83.81Y71.78
X84.44Y71.43
X85.20Y71.03
X85.87Y70.70
X86.58Y70.36
X87.31Y70.04
X88.11Y69.72
X88.78Y69.46
X89.62Y69.17
X90.42Y68.91
X91.00Y68.74
X91.89Y68.50
X92.73Y68.29
X93.51Y68.12
X94.25Y67.98
X94.99Y67.86
X95.82Y67.74
X96.72Y67.64
X97.58Y67.56
X98.38Y67.51
X99.16Y67.48
X99.89Y67.47
X115.47
Y64.53
X100.06
X99.16
X98.15Y64.57
X97.22Y64.63
X96.39Y64.71
X95.51Y64.81
X94.56Y64.94
X93.73Y65.07
X93.33Y65.15
X92.36Y65.35
X92.00Y65.43
X91.13Y65.64
X90.74Y65.74
X89.91Y65.98
X88.96Y66.27
X88.22Y66.52
X87.39Y66.83
X86.58Y67.15
X85.79Y67.48
X84.97Y67.85
X84.69Y67.99
X83.88Y68.39
X83.11Y68.80
X82.36Y69.21
X81.59Y69.67
X81.27Y69.86
X80.52Y70.35
X80.22Y70.55
X79.78Y70.85
X79.13Y71.31
X78.81Y71.55
X78.07Y72.11
X77.49Y72.58
X76.78Y73.17
X76.46Y73.46
X75.86Y74.01
X75.49Y74.36
X75.28Y74.56
X74.56Y75.28
X72.29Y73.05
X71.70Y73.68
X71.07Y74.37
X70.79Y74.69
X70.17Y75.42
X69.58Y76.15
X69.01Y76.89
X68.79Y77.19
X68.22Y78.00
X67.65Y78.84
X67.47Y79.12
X66.93Y79.98
X66.46Y80.78
X66.25Y81.15
X65.80Y81.97
X65.55Y82.45
X65.16Y83.25
X64.96Y83.65
X64.57Y84.52
X64.23Y85.32
X63.83Y86.34
X63.55Y87.10
X63.24Y88.03
X62.96Y88.91
X62.81Y89.45
X62.57Y90.32
X62.32Y91.34
X62.15Y92.13
X61.95Y93.18
X61.80Y94.09
X61.66Y95.09
X61.55Y96.05
X61.46Y97.04
X61.40Y97.99
X61.36Y99.08
X61.35Y99.42
Y118.65
X70.65
Y99.93
X70.66Y99.26
X70.69Y98.46
X70.73Y97.77
X70.80Y97.04
X70.89Y96.24
X70.98Y95.58
X71.12Y94.76
X71.24Y94.10
X71.39Y93.42
X71.56Y92.70
X71.78Y91.92
X71.96Y91.30
X72.19Y90.60
X72.44Y89.88
X72.70Y89.19
X72.97Y88.54
X73.25Y87.91
X73.53Y87.30
X73.86Y86.64
X74.22Y85.96
X74.54Y85.39
X74.91Y84.76
X75.31Y84.13
X75.69Y83.55
X76.04Y83.04
X76.50Y82.41
X76.89Y81.90
X77.34Y81.35
X77.80Y80.79
X78.32Y80.22
X78.75Y79.75
X79.27Y79.22
X79.74Y78.77
X80.27Y78.27
X80.79Y77.80
X81.29Y77.38
X81.90Y76.89
X82.46Y76.46
X83.04Y76.04
X83.61Y75.65
X84.13Y75.30
X84.77Y74.90
X85.38Y74.54
X85.95Y74.23
X86.64Y73.86
X87.26Y73.55
X87.91Y73.25
X88.58Y72.95
X89.25Y72.68
X89.88Y72.44
X90.60Y72.19
X91.33Y71.95
X91.91Y71.78
X92.70Y71.56
X93.44Y71.39
X94.13Y71.24
X94.81Y71.11
X95.50Y70.99
X96.23Y70.89
X97.02Y70.80
X97.78Y70.73
X98.51Y70.69
X99.26Y70.66
X99.93Y70.65
X118.65
Y61.35
X100.03
X99.08Y61.36
X97.99Y61.40
X97.00Y61.46
X96.05Y61.55
X95.10Y61.66
X94.10Y61.80
X93.17Y61.95
X92.71Y62.03
X91.69Y62.24
X91.30Y62.33
X90.31Y62.57
X89.90Y62.68
X89.00Y62.94
X87.98Y63.25
X87.17Y63.53
X86.26Y63.86
X85.39Y64.20
X84.50Y64.58
X83.63Y64.97
X83.30Y65.13
X82.42Y65.57
X81.59Y66.00
X80.79Y66.45
X79.93Y66.96
X79.60Y67.16
X78.77Y67.69
X78.43Y67.92
X77.98Y68.23
X77.25Y68.75
X76.87Y69.03
X76.14Y69.59
X75.45Y70.15
X74.69Y70.79
X74.37Y71.07
X73.68Y71.70
X73.31Y72.05
X73.05Y72.29
X72.29Y73.05
X70.05Y70.81
X69.39Y71.50
X68.68Y72.28
X68.40Y72.60
X67.72Y73.39
X67.08Y74.19
X66.49Y74.96
X66.20Y75.35
X65.61Y76.19
X65.02Y77.06
X64.78Y77.44
X64.24Y78.30
X63.69Y79.22
X63.48Y79.59
X62.99Y80.50
X62.74Y80.98
X62.29Y81.89
X62.09Y82.29
X61.66Y83.27
X61.28Y84.16
X60.88Y85.18
X60.55Y86.08
X60.22Y87.05
X59.91Y88.03
X59.76Y88.56
X59.49Y89.53
X59.24Y90.59
X59.13Y91.08
X59.03Y91.53
X58.82Y92.61
X58.65Y93.64
X58.51Y94.69
X58.39Y95.74
X58.30Y96.80
X58.23Y97.83
X58.19Y98.96
X58.18Y99.42
X58.17Y121.83
X73.83
Y99.96
Y99.35
X73.86Y98.63
X73.90Y98.00
X73.96Y97.35
X74.04Y96.64
X74.13Y96.02
X74.24Y95.34
X74.36Y94.72
X74.49Y94.12
X74.64Y93.49
X74.82Y92.82
X74.99Y92.24
X75.21Y91.58
X75.42Y90.97
X75.65Y90.38
X75.88Y89.81
X76.14Y89.22
X76.40Y88.67
X76.70Y88.05
X77.00Y87.49
X77.30Y86.96
X77.63Y86.40
X77.96Y85.87
X78.31Y85.34
X78.65Y84.86
X79.03Y84.33
X79.41Y83.84
X79.80Y83.35
X80.19Y82.89
X80.64Y82.38
X81.04Y81.95
X81.52Y81.46
X81.92Y81.07
X82.42Y80.61
X82.88Y80.20
X83.32Y79.82
X83.86Y79.39
X84.35Y79.02
X84.86Y78.65
X85.38Y78.29
X85.86Y77.97
X86.40Y77.63
X86.96Y77.30
X87.50Y77.00
X88.05Y76.70
X88.64Y76.41
X89.19Y76.15
X89.79Y75.89
X90.41Y75.64
X90.99Y75.42
X91.58Y75.21
X92.25Y74.99
X92.81Y74.83
X93.46Y74.65
X94.11Y74.49
X94.75Y74.35
X95.36Y74.23
X95.98Y74.13
X96.64Y74.04
X97.33Y73.96
X98.00Y73.90
X98.63Y73.86
X99.36Y73.83
X99.96
X121.83
Y58.17
X100.02
X99.43Y58.18
X98.96Y58.19
X97.83Y58.23
X96.78Y58.30
X95.72Y58.39
X95.17Y58.45
X94.67Y58.51
X93.64Y58.65
X92.59Y58.83
X92.11Y58.92
X91.05Y59.13
X90.57Y59.24
X89.53Y59.49
X89.03Y59.63
X88.09Y59.89
X87.03Y60.22
X86.10Y60.54
X85.64Y60.70
X85.12Y60.90
X84.18Y61.27
X83.27Y61.66
X82.29Y62.09
X81.90Y62.28
X80.96Y62.75
X80.08Y63.21
X79.22Y63.69
X78.30Y64.24
X77.89Y64.49
X77.03Y65.04
X76.63Y65.31
X76.19Y65.61
X75.37Y66.19
X74.98Y66.48
X74.19Y67.08
X73.39Y67.72
X72.60Y68.40
X72.28Y68.68
X71.50Y69.39
X71.13Y69.74
X70.81Y70.05
X70.05Y70.81
Z12.70
G0X74.56Y75.28
Z-1.72
G1Z-2.74F254.0
X74.01Y75.86F1524.0
X73.46Y76.46
X73.17Y76.78
X72.60Y77.47
X72.09Y78.09
X71.37Y79.05
X70.83Y79.80
X70.29Y80.60
X69.63Y81.64
X69.22Y82.34
X69.01Y82.72
X68.62Y83.44
X68.37Y83.92
X68.03Y84.61
X67.83Y85.01
X67.48Y85.79
X67.18Y86.51
X66.78Y87.51
X66.66Y87.85
X66.56Y88.12
X66.24Y89.05
X66.01Y89.80
X65.86Y90.33
X65.64Y91.13
X65.42Y92.04
X65.27Y92.75
X65.07Y93.73
X64.94Y94.57
X64.81Y95.50
X64.70Y96.40
X64.63Y97.24
X64.57Y98.14
X64.53Y99.42
Y115.47
X67.47
Y99.89
X67.48Y99.17
X67.52Y98.32
X67.56Y97.55
X67.64Y96.72
X67.74Y95.81
X67.84Y95.09
X67.99Y94.23
X68.13Y93.47
X68.30Y92.69
X68.50Y91.87
X68.73Y91.03
X68.93Y90.35
X69.17Y89.63
X69.46Y88.79
X69.75Y88.04
X70.05Y87.31
X70.36Y86.59
X70.67Y85.92
X71.04Y85.19
X71.41Y84.48
X71.78Y83.81
X72.22Y83.08
X72.66Y82.38
X73.05Y81.79
X73.44Y81.22
X73.94Y80.54
X74.39Y79.95
X74.87Y79.35
X75.43Y78.68
X75.95Y78.10
X76.43Y77.58
X77.05Y76.95
X77.55Y76.46
X78.10Y75.95
X78.69Y75.42
X79.27Y74.93
X79.93Y74.41
X80.58Y73.91
X81.23Y73.44
X81.84Y73.01
X82.41Y72.64
X83.13Y72.19
X83.81Y71.78
X84.44Y71.43
X85.20Y71.03
X85.87Y70.70
X86.58Y70.36
X87.31Y70.04
X88.11Y69.72
X88.78Y69.46
X89.62Y69.17
X90.42Y68.91
X91.00Y68.74
X91.89Y68.50
X92.73Y68.29
X93.51Y68.12
X94.25Y67.98
X94.99Y67.86
X95.82Y67.74
X96.72Y67.64
X97.58Y67.56
X98.38Y67.51
X99.16Y67.48
X99.89Y67.47
X115.47
Y64.53
X100.06
X99.16
X98.15Y64.57
X97.22Y64.63
X96.39Y64.71
X95.51Y64.81
X94.56Y64.94
X93.73Y65.07
X93.33Y65.15
X92.36Y65.35
X92.00Y65.43
X91.13Y65.64
X90.74Y65.74
X89.91Y65.98
X88.96Y66.27
X88.22Y66.52
X87.39Y66.83
X86.58Y67.15
X85.79Y67.48
X84.97Y67.85
X84.69Y67.99
X83.88Y68.39
X83.11Y68.80
X82.36Y69.21
X81.59Y69.67
X81.27Y69.86
X80.52Y70.35
X80.22Y70.55
X79.78Y70.85
X79.13Y71.31
X78.81Y71.55
X78.07Y72.11
X77.49Y72.58
X76.78Y73.17
X76.46Y73.46
X75.86Y74.01
X75.49Y74.36
X75.28Y74.56
X74.56Y75.28
X72.29Y73.05
X71.70Y73.68
X71.07Y74.37
X70.79Y74.69
X70.17Y75.42
X69.58Y76.15
X69.01Y76.89
X68.79Y77.19
X68.22Y78.00
X67.65Y78.84
X67.47Y79.12
X66.93Y79.98
X66.46Y80.78
X66.25Y81.15
X65.80Y81.97
X65.55Y82.45
X65.16Y83.25
X64.96Y83.65
X64.57Y84.52
X64.23Y85.32
X63.83Y86.34
X63.55Y87.10
X63.24Y88.03
X62.96Y88.91
X62.81Y89.45
X62.57Y90.32
X62.32Y91.34
X62.15Y92.13
X61.95Y93.18
X61.80Y94.09
X61.66Y95.09
X61.55Y96.05
X61.46Y97.04
X61.40Y97.99
X61.36Y99.08
X61.35Y99.42
Y118.65
X70.65
Y99.93
X70.66Y99.26
X70.69Y98.46
X70.73Y97.77
X70.80Y97.04
X70.89Y96.24
X70.98Y95.58
X71.12Y94.76
X71.24Y94.10
X71.39Y93.42
X71.56Y92.70
X71.78Y91.92
X71.96Y91.30
X72.19Y90.60
X72.44Y89.88
X72.70Y89.19
X72.97Y88.54
X73.25Y87.91
X73.53Y87.30
X73.86Y86.64
X74.22Y85.96
X74.54Y85.39
X74.91Y84.76
X75.31Y84.13
X75.69Y83.55
X76.04Y83.04
X76.50Y82.41
X76.89Y81.90
X77.34Y81.35
X77.80Y80.79
X78.32Y80.22
X78.75Y79.75
X79.27Y79.22
X79.74Y78.77
X80.27Y78.27
X80.79Y77.80
X81.29Y77.38
X81.90Y76.89
X82.46Y76.46
X83.04Y76.04
X83.61Y75.65
X84.13Y75.30
X84.77Y74.90
X85.38Y74.54
X85.95Y74.23
X86.64Y73.86
X87.26Y73.55
X87.91Y73.25
X88.58Y72.95
X89.25Y72.68
X89.88Y72.44
X90.60Y72.19
X91.33Y71.95
X91.91Y71.78
X92.70Y71.56
X93.44Y71.39
X94.13Y71.24
X94.81Y71.11
X95.50Y70.99
X96.23Y70.89
X97.02Y70.80
X97.78Y70.73
X98.51Y70.69
X99.26Y70.66
X99.93Y70.65
X118.65
Y61.35
X100.03
X99.08Y61.36
X97.99Y61.40
X97.00Y61.46
X96.05Y61.55
X95.10Y61.66
X94.10Y61.80
X93.17Y61.95
X92.71Y62.03
X91.69Y62.24
X91.30Y62.33
X90.31Y62.57
X89.90Y62.68
X89.00Y62.94
X87.98Y63.25
X87.17Y63.53
X86.26Y63.86
X85.39Y64.20
X84.50Y64.58
X83.63Y64.97
X83.30Y65.13
X82.42Y65.57
X81.59Y66.00
X80.79Y66.45
X79.93Y66.96
X79.60Y67.16
X78.77Y67.69
X78.43Y67.92
X77.98Y68.23
X77.25Y68.75
X76.87Y69.03
X76.14Y69.59
X75.45Y70.15
X74.69Y70.79
X74.37Y71.07
X73.68Y71.70
X73.31Y72.05
X73.05Y72.29
X72.29Y73.05
X70.05Y70.81
X69.39Y71.50
X68.68Y72.28
X68.40Y72.60
X67.72Y73.39
X67.08Y74.19
X66.49Y74.96
X66.20Y75.35
X65.61Y76.19
X65.02Y77.06
X64.78Y77.44
X64.24Y78.30
X63.69Y79.22
X63.48Y79.59
X62.99Y80.50
X62.74Y80.98
X62.29Y81.89
X62.09Y82.29
X61.66Y83.27
X61.28Y84.16
X60.88Y85.18
X60.55Y86.08
X60.22Y87.05
X59.91Y88.03
X59.76Y88.56
X59.49Y89.53
X59.24Y90.59
X59.13Y91.08
X59.03Y91.53
X58.82Y92.61
X58.65Y93.64
X58.51Y94.69
X58.39Y95.74
X58.30Y96.80
X58.23Y97.83
X58.19Y98.96
X58.18Y99.42
X58.17Y121.83
X73.83
Y99.96
Y99.35
X73.86Y98.63
X73.90Y98.00
X73.96Y97.35
X74.04Y96.64
X74.13Y96.02
X74.24Y95.34
X74.36Y94.72
X74.49Y94.12
X74.64Y93.49
X74.82Y92.82
X74.99Y92.24
X75.21Y91.58
X75.42Y90.97
X75.65Y90.38
X75.88Y89.81
X76.14Y89.22
X76.40Y88.67
X76.70Y88.05
X77.00Y87.49
X77.30Y86.96
X77.63Y86.40
X77.96Y85.87
X78.31Y85.34
X78.65Y84.86
X79.03Y84.33
X79.41Y83.84
X79.80Y83.35
X80.19Y82.89
X80.64Y82.38
X81.04Y81.95
X81.52Y81.46
X81.92Y81.07
X82.42Y80.61
X82.88Y80.20
X83.32Y79.82
X83.86Y79.39
X84.35Y79.02
X84.86Y78.65
X85.38Y78.29
X85.86Y77.97
X86.40Y77.63
X86.96Y77.30
X87.50Y77.00
X88.05Y76.70
X88.64Y76.41
X89.19Y76.15
X89.79Y75.89
X90.41Y75.64
X90.99Y75.42
X91.58Y75.21
X92.25Y74.99
X92.81Y74.83
X93.46Y74.65
X94.11Y74.49
X94.75Y74.35
X95.36Y74.23
X95.98Y74.13
X96.64Y74.04
X97.33Y73.96
X98.00Y73.90
X98.63Y73.86
X99.36Y73.83
X99.96
X121.83
Y58.17
X100.02
X99.43Y58.18
X98.96Y58.19
X97.83Y58.23
X96.78Y58.30
X95.72Y58.39
X95.17Y58.45
X94.67Y58.51
X93.64Y58.65
X92.59Y58.83
X92.11Y58.92
X91.05Y59.13
X90.57Y59.24
X89.53Y59.49
X89.03Y59.63
X88.09Y59.89
X87.03Y60.22
X86.10Y60.54
X85.64Y60.70
X85.12Y60.90
X84.18Y61.27
X83.27Y61.66
X82.29Y62.09
X81.90Y62.28
X80.96Y62.75
X80.08Y63.21
X79.22Y63.69
X78.30Y64.24
X77.89Y64.49
X77.03Y65.04
X76.63Y65.31
X76.19Y65.61
X75.37Y66.19
X74.98Y66.48
X74.19Y67.08
X73.39Y67.72
X72.60Y68.40
X72.28Y68.68
X71.50Y69.39
X71.13Y69.74
X70.81Y70.05
X70.05Y70.81
Z12.70
G0X74.56Y75.28
Z-2.40
G1Z-3.43F254.0
X74.01Y75.86F1524.0
X73.46Y76.46
X73.17Y76.78
X72.60Y77.47
X72.09Y78.09
X71.37Y79.05
X70.83Y79.80
X70.29Y80.60
X69.63Y81.64
X69.22Y82.34
X69.01Y82.72
X68.62Y83.44
X68.37Y83.92
X68.03Y84.61
X67.83Y85.01
X67.48Y85.79
X67.18Y86.51
X66.78Y87.51
X66.66Y87.85
X66.56Y88.12
X66.24Y89.05
X66.01Y89.80
X65.86Y90.33
X65.64Y91.13
X65.42Y92.04
X65.27Y92.75
X65.07Y93.73
X64.94Y94.57
X64.81Y95.50
X64.70Y96.40
X64.63Y97.24
X64.57Y98.14
X64.53Y99.42
Y115.47
X67.47
Y99.89
X67.48Y99.17
X67.52Y98.32
X67.56Y97.55
X67.64Y96.72
X67.74Y95.81
X67.84Y95.09
X67.99Y94.23
X68.13Y93.47
X68.30Y92.69
X68.50Y91.87
X68.73Y91.03
X68.93Y90.35
X69.17Y89.63
X69.46Y88.79
X69.75Y88.04
X70.05Y87.31
X70.36Y86.59
X70.67Y85.92
X71.04Y85.19
X71.41Y84.48
X71.78Y83.81
X72.22Y83.08
X72.66Y82.38
X73.05Y81.79
X73.44Y81.22
X73.94Y80.54
X74.39Y79.95
X74.87Y79.35
X75.43Y78.68
X75.95Y78.10
X76.43Y77.58
X77.05Y76.95
X77.55Y76.46
X78.10Y75.95
X78.69Y75.42
X79.27Y74.93
X79.93Y74.41
X80.58Y73.91
X81.23Y73.44
X81.84Y73.01
X82.41Y72.64
X83.13Y72.19
X83.81Y71.78
X84.44Y71.43
X85.20Y71.03
X85.87Y70.70
X86.58Y70.36
X87.31Y70.04
X88.11Y69.72
X88.78Y69.46
X89.62Y69.17
X90.42Y68.91
X91.00Y68.74
X91.89Y68.50
X92.73Y68.29
X93.51Y68.12
X94.25Y67.98
X94.99Y67.86
X95.82Y67.74
X96.72Y67.64
X97.58Y67.56
X98.38Y67.51
X99.16Y67.48
X99.89Y67.47
X115.47
Y64.53
X100.06
X99.16
X98.15Y64.57
X97.22Y64.63
X96.39Y64.71
X95.51Y64.81
X94.56Y64.94
X93.73Y65.07
X93.33Y65.15
X92.36Y65.35
X92.00Y65.43
X91.13Y65.64
X90.74Y65.74
X89.91Y65.98
X88.96Y66.27
X88.22Y66.52
X87.39Y66.83
X86.58Y67.15
X85.79Y67.48
X84.97Y67.85
X84.69Y67.99
X83.88Y68.39
X83.11Y68.80
X82.36Y69.21
X81.59Y69.67
X81.27Y69.86
X80.52Y70.35
X80.22Y70.55
X79.78Y70.85
X79.13Y71.31
X78.81Y71.55
X78.07Y72.11
X77.49Y72.58
X76.78Y73.17
X76.46Y73.46
X75.86Y74.01
X75.49Y74.36
X75.28Y74.56
X74.56Y75.28
X72.29Y73.05
X71.70Y73.68
X71.07Y74.37
X70.79Y74.69
X70.17Y75.42
X69.58Y76.15
X69.01Y76.89
X68.79Y77.19
X68.22Y78.00
X67.65Y78.84
X67.47Y79.12
X66.93Y79.98
X66.46Y80.78
X66.25Y81.15
X65.80Y81.97
X65.55Y82.45
X65.16Y83.25
X64.96Y83.65
X64.57Y84.52
X64.23Y85.32
X63.83Y86.34
X63.55Y87.10
X63.24Y88.03
X62.96Y88.91
X62.81Y89.45
X62.57Y90.32
X62.32Y91.34
X62.15Y92.13
X61.95Y93.18
X61.80Y94.09
X61.66Y95.09
X61.55Y96.05
X61.46Y97.04
X61.40Y97.99
X61.36Y99.08
X61.35Y99.42
Y118.65
X70.65
Y99.93
X70.66Y99.26
X70.69Y98.46
X70.73Y97.77
X70.80Y97.04
X70.89Y96.24
X70.98Y95.58
X71.12Y94.76
X71.24Y94.10
X71.39Y93.42
X71.56Y92.70
X71.78Y91.92
X71.96Y91.30
X72.19Y90.60
X72.44Y89.88
X72.70Y89.19
X72.97Y88.54
X73.25Y87.91
X73.53Y87.30
X73.86Y86.64
X74.22Y85.96
X74.54Y85.39
X74.91Y84.76
X75.31Y84.13
X75.69Y83.55
X76.04Y83.04
X76.50Y82.41
X76.89Y81.90
X77.34Y81.35
X77.80Y80.79
X78.32Y80.22
X78.75Y79.75
X79.27Y79.22
X79.74Y78.77
X80.27Y78.27
X80.79Y77.80
X81.29Y77.38
X81.90Y76.89
X82.46Y76.46
X83.04Y76.04
X83.61Y75.65
X84.13Y75.30
X84.77Y74.90
X85.38Y74.54
X85.95Y74.23
X86.64Y73.86
X87.26Y73.55
X87.91Y73.25
X88.58Y72.95
X89.25Y72.68
X89.88Y72.44
X90.60Y72.19
X91.33Y71.95
X91.91Y71.78
X92.70Y71.56
X93.44Y71.39
X94.13Y71.24
X94.81Y71.11
X95.50Y70.99
X96.23Y70.89
X97.02Y70.80
X97.78Y70.73
X98.51Y70.69
X99.26Y70.66
X99.93Y70.65
X118.65
Y61.35
X100.03
X99.08Y61.36
X97.99Y61.40
X97.00Y61.46
X96.05Y61.55
X95.10Y61.66
X94.10Y61.80
X93.17Y61.95
X92.71Y62.03
X91.69Y62.24
X91.30Y62.33
X90.31Y62.57
X89.90Y62.68
X89.00Y62.94
X87.98Y63.25
X87.17Y63.53
X86.26Y63.86
X85.39Y64.20
X84.50Y64.58
X83.63Y64.97
X83.30Y65.13
X82.42Y65.57
X81.59Y66.00
X80.79Y66.45
X79.93Y66.96
X79.60Y67.16
X78.77Y67.69
X78.43Y67.92
X77.98Y68.23
X77.25Y68.75
X76.87Y69.03
X76.14Y69.59
X75.45Y70.15
X74.69Y70.79
X74.37Y71.07
X73.68Y71.70
X73.31Y72.05
X73.05Y72.29
X72.29Y73.05
X70.05Y70.81
X69.39Y71.50
X68.68Y72.28
X68.40Y72.60
X67.72Y73.39
X67.08Y74.19
X66.49Y74.96
X66.20Y75.35
X65.61Y76.19
X65.02Y77.06
X64.78Y77.44
X64.24Y78.30
X63.69Y79.22
X63.48Y79.59
X62.99Y80.50
X62.74Y80.98
X62.29Y81.89
X62.09Y82.29
X61.66Y83.27
X61.28Y84.16
X60.88Y85.18
X60.55Y86.08
X60.22Y87.05
X59.91Y88.03
X59.76Y88.56
X59.49Y89.53
X59.24Y90.59
X59.13Y91.08
X59.03Y91.53
X58.82Y92.61
X58.65Y93.64
X58.51Y94.69
X58.39Y95.74
X58.30Y96.80
X58.23Y97.83
X58.19Y98.96
X58.18Y99.42
X58.17Y121.83
X73.83
Y99.96
Y99.35
X73.86Y98.63
X73.90Y98.00
X73.96Y97.35
X74.04Y96.64
X74.13Y96.02
X74.24Y95.34
X74.36Y94.72
X74.49Y94.12
X74.64Y93.49
X74.82Y92.82
X74.99Y92.24
X75.21Y91.58
X75.42Y90.97
X75.65Y90.38
X75.88Y89.81
X76.14Y89.22
X76.40Y88.67
X76.70Y88.05
X77.00Y87.49
X77.30Y86.96
X77.63Y86.40
X77.96Y85.87
X78.31Y85.34
X78.65Y84.86
X79.03Y84.33
X79.41Y83.84
X79.80Y83.35
X80.19Y82.89
X80.64Y82.38
X81.04Y81.95
X81.52Y81.46
X81.92Y81.07
X82.42Y80.61
X82.88Y80.20
X83.32Y79.82
X83.86Y79.39
X84.35Y79.02
X84.86Y78.65
X85.38Y78.29
X85.86Y77.97
X86.40Y77.63
X86.96Y77.30
X87.50Y77.00
X88.05Y76.70
X88.64Y76.41
X89.19Y76.15
X89.79Y75.89
X90.41Y75.64
X90.99Y75.42
X91.58Y75.21
X92.25Y74.99
X92.81Y74.83
X93.46Y74.65
X94.11Y74.49
X94.75Y74.35
X95.36Y74.23
X95.98Y74.13
X96.64Y74.04
X97.33Y73.96
X98.00Y73.90
X98.63Y73.86
X99.36Y73.83
X99.96
X121.83
Y58.17
X100.02
X99.43Y58.18
X98.96Y58.19
X97.83Y58.23
X96.78Y58.30
X95.72Y58.39
X95.17Y58.45
X94.67Y58.51
X93.64Y58.65
X92.59Y58.83
X92.11Y58.92
X91.05Y59.13
X90.57Y59.24
X89.53Y59.49
X89.03Y59.63
X88.09Y59.89
X87.03Y60.22
X86.10Y60.54
X85.64Y60.70
X85.12Y60.90
X84.18Y61.27
X83.27Y61.66
X82.29Y62.09
X81.90Y62.28
X80.96Y62.75
X80.08Y63.21
X79.22Y63.69
X78.30Y64.24
X77.89Y64.49
X77.03Y65.04
X76.63Y65.31
X76.19Y65.61
X75.37Y66.19
X74.98Y66.48
X74.19Y67.08
X73.39Y67.72
X72.60Y68.40
X72.28Y68.68
X71.50Y69.39
X71.13Y69.74
X70.81Y70.05
X70.05Y70.81
Z12.70
G0X74.56Y75.28
Z-3.09
G1Z-4.12F254.0
X74.01Y75.86F1524.0
X73.46Y76.46
X73.17Y76.78
X72.60Y77.47
X72.09Y78.09
X71.37Y79.05
X70.83Y79.80
X70.29Y80.60
X69.63Y81.64
X69.22Y82.34
X69.01Y82.72
X68.62Y83.44
X68.37Y83.92
X68.03Y84.61
X67.83Y85.01
X67.48Y85.79
X67.18Y86.51
X66.78Y87.51
X66.66Y87.85
X66.56Y88.12
X66.24Y89.05
X66.01Y89.80
X65.86Y90.33
X65.64Y91.13
X65.42Y92.04
X65.27Y92.75
X65.07Y93.73
X64.94Y94.57
X64.81Y95.50
X64.70Y96.40
X64.63Y97.24
X64.57Y98.14
X64.53Y99.42
Y115.47
X67.47
Y99.89
X67.48Y99.17
X67.52Y98.32
X67.56Y97.55
X67.64Y96.72
X67.74Y95.81
X67.84Y95.09
X67.99Y94.23
X68.13Y93.47
X68.30Y92.69
X68.50Y91.87
X68.73Y91.03
X68.93Y90.35
X69.17Y89.63
X69.46Y88.79
X69.75Y88.04
X70.05Y87.31
X70.36Y86.59
X70.67Y85.92
X71.04Y85.19
X71.41Y84.48
X71.78Y83.81
X72.22Y83.08
X72.66Y82.38
X73.05Y81.79
X73.44Y81.22
X73.94Y80.54
X74.39Y79.95
X74.87Y79.35
X75.43Y78.68
X75.95Y78.10
X76.43Y77.58
X77.05Y76.95
X77.55Y76.46
X78.10Y75.95
X78.69Y75.42
X79.27Y74.93
X79.93Y74.41
X80.58Y73.91
X81.23Y73.44
X81.84Y73.01
X82.41Y72.64
X83.13Y72.19
X83.81Y71.78
X84.44Y71.43
X85.20Y71.03
X85.87Y70.70
X86.58Y70.36
X87.31Y70.04
X88.11Y69.72
X88.78Y69.46
X89.62Y69.17
X90.42Y68.91
X91.00Y68.74
X91.89Y68.50
X92.73Y68.29
X93.51Y68.12
X94.25Y67.98
X94.99Y67.86
X95.82Y67.74
X96.72Y67.64
X97.58Y67.56
X98.38Y67.51
X99.16Y67.48
X99.89Y67.47
X115.47
Y64.53
X100.06
X99.16
X98.15Y64.57
X97.22Y64.63
X96.39Y64.71
X95.51Y64.81
X94.56Y64.94
X93.73Y65.07
X93.33Y65.15
X92.36Y65.35
X92.00Y65.43
X91.13Y65.64
X90.74Y65.74
X89.91Y65.98
X88.96Y66.27
X88.22Y66.52
X87.39Y66.83
X86.58Y67.15
X85.79Y67.48
X84.97Y67.85
X84.69Y67.99
X83.88Y68.39
X83.11Y68.80
X82.36Y69.21
X81.59Y69.67
X81.27Y69.86
X80.52Y70.35
X80.22Y70.55
X79.78Y70.85
X79.13Y71.31
X78.81Y71.55
X78.07Y72.11
X77.49Y72.58
X76.78Y73.17
X76.46Y73.46
X75.86Y74.01
X75.49Y74.36
X75.28Y74.56
X74.56Y75.28
X72.29Y73.05
X71.70Y73.68
X71.07Y74.37
X70.79Y74.69
X70.17Y75.42
X69.58Y76.15
X69.01Y76.89
X68.79Y77.19
X68.22Y78.00
X67.65Y78.84
X67.47Y79.12
X66.93Y79.98
X66.46Y80.78
X66.25Y81.15
X65.80Y81.97
X65.55Y82.45
X65.16Y83.25
X64.96Y83.65
X64.57Y84.52
X64.23Y85.32
X63.83Y86.34
X63.55Y87.10
X63.24Y88.03
X62.96Y88.91
X62.81Y89.45
X62.57Y90.32
X62.32Y91.34
X62.15Y92.13
X61.95Y93.18
X61.80Y94.09
X61.66Y95.09
X61.55Y96.05
X61.46Y97.04
X61.40Y97.99
X61.36Y99.08
X61.35Y99.42
Y118.65
X70.65
Y99.93
X70.66Y99.26
X70.69Y98.46
X70.73Y97.77
X70.80Y97.04
X70.89Y96.24
X70.98Y95.58
X71.12Y94.76
X71.24Y94.10
X71.39Y93.42
X71.56Y92.70
X71.78Y91.92
X71.96Y91.30
X72.19Y90.60
X72.44Y89.88
X72.70Y89.19
X72.97Y88.54
X73.25Y87.91
X73.53Y87.30
X73.86Y86.64
X74.22Y85.96
X74.54Y85.39
X74.91Y84.76
X75.31Y84.13
X75.69Y83.55
X76.04Y83.04
X76.50Y82.41
X76.89Y81.90
X77.34Y81.35
X77.80Y80.79
X78.32Y80.22
X78.75Y79.75
X79.27Y79.22
X79.74Y78.77
X80.27Y78.27
X80.79Y77.80
X81.29Y77.38
X81.90Y76.89
X82.46Y76.46
X83.04Y76.04
X83.61Y75.65
X84.13Y75.30
X84.77Y74.90
X85.38Y74.54
X85.95Y74.23
X86.64Y73.86
X87.26Y73.55
X87.91Y73.25
X88.58Y72.95
X89.25Y72.68
X89.88Y72.44
X90.60Y72.19
X91.33Y71.95
X91.91Y71.78
X92.70Y71.56
X93.44Y71.39
X94.13Y71.24
X94.81Y71.11
X95.50Y70.99
X96.23Y70.89
X97.02Y70.80
X97.78Y70.73
X98.51Y70.69
X99.26Y70.66
X99.93Y70.65
X118.65
Y61.35
X100.03
X99.08Y61.36
X97.99Y61.40
X97.00Y61.46
X96.05Y61.55
X95.10Y61.66
X94.10Y61.80
X93.17Y61.95
X92.71Y62.03
X91.69Y62.24
X91.30Y62.33
X90.31Y62.57
X89.90Y62.68
X89.00Y62.94
X87.98Y63.25
X87.17Y63.53
X86.26Y63.86
X85.39Y64.20
X84.50Y64.58
X83.63Y64.97
X83.30Y65.13
X82.42Y65.57
X81.59Y66.00
X80.79Y66.45
X79.93Y66.96
X79.60Y67.16
X78.77Y67.69
X78.43Y67.92
X77.98Y68.23
X77.25Y68.75
X76.87Y69.03
X76.14Y69.59
X75.45Y70.15
X74.69Y70.79
X74.37Y71.07
X73.68Y71.70
X73.31Y72.05
X73.05Y72.29
X72.29Y73.05
X70.05Y70.81
X69.39Y71.50
X68.68Y72.28
X68.40Y72.60
X67.72Y73.39
X67.08Y74.19
X66.49Y74.96
X66.20Y75.35
X65.61Y76.19
X65.02Y77.06
X64.78Y77.44
X64.24Y78.30
X63.69Y79.22
X63.48Y79.59
X62.99Y80.50
X62.74Y80.98
X62.29Y81.89
X62.09Y82.29
X61.66Y83.27
X61.28Y84.16
X60.88Y85.18
X60.55Y86.08
X60.22Y87.05
X59.91Y88.03
X59.76Y88.56
X59.49Y89.53
X59.24Y90.59
X59.13Y91.08
X59.03Y91.53
X58.82Y92.61
X58.65Y93.64
X58.51Y94.69
X58.39Y95.74
X58.30Y96.80
X58.23Y97.83
X58.19Y98.96
X58.18Y99.42
X58.17Y121.83
X73.83
Y99.96
Y99.35
X73.86Y98.63
X73.90Y98.00
X73.96Y97.35
X74.04Y96.64
X74.13Y96.02
X74.24Y95.34
X74.36Y94.72
X74.49Y94.12
X74.64Y93.49
X74.82Y92.82
X74.99Y92.24
X75.21Y91.58
X75.42Y90.97
X75.65Y90.38
X75.88Y89.81
X76.14Y89.22
X76.40Y88.67
X76.70Y88.05
X77.00Y87.49
X77.30Y86.96
X77.63Y86.40
X77.96Y85.87
X78.31Y85.34
X78.65Y84.86
X79.03Y84.33
X79.41Y83.84
X79.80Y83.35
X80.19Y82.89
X80.64Y82.38
X81.04Y81.95
X81.52Y81.46
X81.92Y81.07
X82.42Y80.61
X82.88Y80.20
X83.32Y79.82
X83.86Y79.39
X84.35Y79.02
X84.86Y78.65
X85.38Y78.29
X85.86Y77.97
X86.40Y77.63
X86.96Y77.30
X87.50Y77.00
X88.05Y76.70
X88.64Y76.41
X89.19Y76.15
X89.79Y75.89
X90.41Y75.64
X90.99Y75.42
X91.58Y75.21
X92.25Y74.99
X92.81Y74.83
X93.46Y74.65
X94.11Y74.49
X94.75Y74.35
X95.36Y74.23
X95.98Y74.13
X96.64Y74.04
X97.33Y73.96
X98.00Y73.90
X98.63Y73.86
X99.36Y73.83
X99.96
X121.83
Y58.17
X100.02
X99.43Y58.18
X98.96Y58.19
X97.83Y58.23
X96.78Y58.30
X95.72Y58.39
X95.17Y58.45
X94.67Y58.51
X93.64Y58.65
X92.59Y58.83
X92.11Y58.92
X91.05Y59.13
X90.57Y59.24
X89.53Y59.49
X89.03Y59.63
X88.09Y59.89
X87.03Y60.22
X86.10Y60.54
X85.64Y60.70
X85.12Y60.90
X84.18Y61.27
X83.27Y61.66
X82.29Y62.09
X81.90Y62.28
X80.96Y62.75
X80.08Y63.21
X79.22Y63.69
X78.30Y64.24
X77.89Y64.49
X77.03Y65.04
X76.63Y65.31
X76.19Y65.61
X75.37Y66.19
X74.98Y66.48
X74.19Y67.08
X73.39Y67.72
X72.60Y68.40
X72.28Y68.68
X71.50Y69.39
X71.13Y69.74
X70.81Y70.05
X70.05Y70.81
Z12.70
G0X74.56Y75.28
Z-3.77
G1Z-4.80F254.0
X74.01Y75.86F1524.0
X73.46Y76.46
X73.17Y76.78
X72.60Y77.47
X72.09Y78.09
X71.37Y79.05
X70.83Y79.80
X70.29Y80.60
X69.63Y81.64
X69.22Y82.34
X69.01Y82.72
X68.62Y83.44
X68.37Y83.92
X68.03Y84.61
X67.83Y85.01
X67.48Y85.79
X67.18Y86.51
X66.78Y87.51
X66.66Y87.85
X66.56Y88.12
X66.24Y89.05
X66.01Y89.80
X65.86Y90.33
X65.64Y91.13
X65.42Y92.04
X65.27Y92.75
X65.07Y93.73
X64.94Y94.57
X64.81Y95.50
X64.70Y96.40
X64.63Y97.24
X64.57Y98.14
X64.53Y99.42
Y115.47
X67.47
Y99.89
X67.48Y99.17
X67.52Y98.32
X67.56Y97.55
X67.64Y96.72
X67.74Y95.81
X67.84Y95.09
X67.99Y94.23
X68.13Y93.47
X68.30Y92.69
X68.50Y91.87
X68.73Y91.03
X68.93Y90.35
X69.17Y89.63
X69.46Y88.79
X69.75Y88.04
X70.05Y87.31
X70.36Y86.59
X70.67Y85.92
X71.04Y85.19
X71.41Y84.48
X71.78Y83.81
X72.22Y83.08
X72.66Y82.38
X73.05Y81.79
X73.44Y81.22
X73.94Y80.54
X74.39Y79.95
X74.87Y79.35
X75.43Y78.68
X75.95Y78.10
X76.43Y77.58
X77.05Y76.95
X77.55Y76.46
X78.10Y75.95
X78.69Y75.42
X79.27Y74.93
X79.93Y74.41
X80.58Y73.91
X81.23Y73.44
X81.84Y73.01
X82.41Y72.64
X83.13Y72.19
X83.81Y71.78
X84.44Y71.43
X85.20Y71.03
X85.87Y70.70
X86.58Y70.36
X87.31Y70.04
X88.11Y69.72
X88.78Y69.46
X89.62Y69.17
X90.42Y68.91
X91.00Y68.74
X91.89Y68.50
X92.73Y68.29
X93.51Y68.12
X94.25Y67.98
X94.99Y67.86
X95.82Y67.74
X96.72Y67.64
X97.58Y67.56
X98.38Y67.51
X99.16Y67.48
X99.89Y67.47
X115.47
Y64.53
X100.06
X99.16
X98.15Y64.57
X97.22Y64.63
X96.39Y64.71
X95.51Y64.81
X94.56Y64.94
X93.73Y65.07
X93.33Y65.15
X92.36Y65.35
X92.00Y65.43
X91.13Y65.64
X90.74Y65.74
X89.91Y65.98
X88.96Y66.27
X88.22Y66.52
X87.39Y66.83
X86.58Y67.15
X85.79Y67.48
X84.97Y67.85
X84.69Y67.99
X83.88Y68.39
X83.11Y68.80
X82.36Y69.21
X81.59Y69.67
X81.27Y69.86
X80.52Y70.35
X80.22Y70.55
X79.78Y70.85
X79.13Y71.31
X78.81Y71.55
X78.07Y72.11
X77.49Y72.58
X76.78Y73.17
X76.46Y73.46
X75.86Y74.01
X75.49Y74.36
X75.28Y74.56
X74.56Y75.28
X72.29Y73.05
X71.70Y73.68
X71.07Y74.37
X70.79Y74.69
X70.17Y75.42
X69.58Y76.15
X69.01Y76.89
X68.79Y77.19
X68.22Y78.00
X67.65Y78.84
X67.47Y79.12
X66.93Y79.98
X66.46Y80.78
X66.25Y81.15
X65.80Y81.97
X65.55Y82.45
X65.16Y83.25
X64.96Y83.65
X64.57Y84.52
X64.23Y85.32
X63.83Y86.34
X63.55Y87.10
X63.24Y88.03
X62.96Y88.91
X62.81Y89.45
X62.57Y90.32
X62.32Y91.34
X62.15Y92.13
X61.95Y93.18
X61.80Y94.09
X61.66Y95.09
X61.55Y96.05
X61.46Y97.04
X61.40Y97.99
X61.36Y99.08
X61.35Y99.42
Y118.65
X70.65
Y99.93
X70.66Y99.26
X70.69Y98.46
X70.73Y97.77
X70.80Y97.04
X70.89Y96.24
X70.98Y95.58
X71.12Y94.76
X71.24Y94.10
X71.39Y93.42
X71.56Y92.70
X71.78Y91.92
X71.96Y91.30
X72.19Y90.60
X72.44Y89.88
X72.70Y89.19
X72.97Y88.54
X73.25Y87.91
X73.53Y87.30
X73.86Y86.64
X74.22Y85.96
X74.54Y85.39
X74.91Y84.76
X75.31Y84.13
X75.69Y83.55
X76.04Y83.04
X76.50Y82.41
X76.89Y81.90
X77.34Y81.35
X77.80Y80.79
X78.32Y80.22
X78.75Y79.75
X79.27Y79.22
X79.74Y78.77
X80.27Y78.27
X80.79Y77.80
X81.29Y77.38
X81.90Y76.89
X82.46Y76.46
X83.04Y76.04
X83.61Y75.65
X84.13Y75.30
X84.77Y74.90
X85.38Y74.54
X85.95Y74.23
X86.64Y73.86
X87.26Y73.55
X87.91Y73.25
X88.58Y72.95
X89.25Y72.68
X89.88Y72.44
X90.60Y72.19
X91.33Y71.95
X91.91Y71.78
X92.70Y71.56
X93.44Y71.39
X94.13Y71.24
X94.81Y71.11
X95.50Y70.99
X96.23Y70.89
X97.02Y70.80
X97.78Y70.73
X98.51Y70.69
X99.26Y70.66
X99.93Y70.65
X118.65
Y61.35
X100.03
X99.08Y61.36
X97.99Y61.40
X97.00Y61.46
X96.05Y61.55
X95.10Y61.66
X94.10Y61.80
X93.17Y61.95
X92.71Y62.03
X91.69Y62.24
X91.30Y62.33
X90.31Y62.57
X89.90Y62.68
X89.00Y62.94
X87.98Y63.25
X87.17Y63.53
X86.26Y63.86
X85.39Y64.20
X84.50Y64.58
X83.63Y64.97
X83.30Y65.13
X82.42Y65.57
X81.59Y66.00
X80.79Y66.45
X79.93Y66.96
X79.60Y67.16
X78.77Y67.69
X78.43Y67.92
X77.98Y68.23
X77.25Y68.75
X76.87Y69.03
X76.14Y69.59
X75.45Y70.15
X74.69Y70.79
X74.37Y71.07
X73.68Y71.70
X73.31Y72.05
X73.05Y72.29
X72.29Y73.05
X70.05Y70.81
X69.39Y71.50
X68.68Y72.28
X68.40Y72.60
X67.72Y73.39
X67.08Y74.19
X66.49Y74.96
X66.20Y75.35
X65.61Y76.19
X65.02Y77.06
X64.78Y77.44
X64.24Y78.30
X63.69Y79.22
X63.48Y79.59
X62.99Y80.50
X62.74Y80.98
X62.29Y81.89
X62.09Y82.29
X61.66Y83.27
X61.28Y84.16
X60.88Y85.18
X60.55Y86.08
X60.22Y87.05
X59.91Y88.03
X59.76Y88.56
X59.49Y89.53
X59.24Y90.59
X59.13Y91.08
X59.03Y91.53
X58.82Y92.61
X58.65Y93.64
X58.51Y94.69
X58.39Y95.74
X58.30Y96.80
X58.23Y97.83
X58.19Y98.96
X58.18Y99.42
X58.17Y121.83
X73.83
Y99.96
Y99.35
X73.86Y98.63
X73.90Y98.00
X73.96Y97.35
X74.04Y96.64
X74.13Y96.02
X74.24Y95.34
X74.36Y94.72
X74.49Y94.12
X74.64Y93.49
X74.82Y92.82
X74.99Y92.24
X75.21Y91.58
X75.42Y90.97
X75.65Y90.38
X75.88Y89.81
X76.14Y89.22
X76.40Y88.67
X76.70Y88.05
X77.00Y87.49
X77.30Y86.96
X77.63Y86.40
X77.96Y85.87
X78.31Y85.34
X78.65Y84.86
X79.03Y84.33
X79.41Y83.84
X79.80Y83.35
X80.19Y82.89
X80.64Y82.38
X81.04Y81.95
X81.52Y81.46
X81.92Y81.07
X82.42Y80.61
X82.88Y80.20
X83.32Y79.82
X83.86Y79.39
X84.35Y79.02
X84.86Y78.65
X85.38Y78.29
X85.86Y77.97
X86.40Y77.63
X86.96Y77.30
X87.50Y77.00
X88.05Y76.70
X88.64Y76.41
X89.19Y76.15
X89.79Y75.89
X90.41Y75.64
X90.99Y75.42
X91.58Y75.21
X92.25Y74.99
X92.81Y74.83
X93.46Y74.65
X94.11Y74.49
X94.75Y74.35
X95.36Y74.23
X95.98Y74.13
X96.64Y74.04
X97.33Y73.96
X98.00Y73.90
X98.63Y73.86
X99.36Y73.83
X99.96
X121.83
Y58.17
X100.02
X99.43Y58.18
X98.96Y58.19
X97.83Y58.23
X96.78Y58.30
X95.72Y58.39
X95.17Y58.45
X94.67Y58.51
X93.64Y58.65
X92.59Y58.83
X92.11Y58.92
X91.05Y59.13
X90.57Y59.24
X89.53Y59.49
X89.03Y59.63
X88.09Y59.89
X87.03Y60.22
X86.10Y60.54
X85.64Y60.70
X85.12Y60.90
X84.18Y61.27
X83.27Y61.66
X82.29Y62.09
X81.90Y62.28
X80.96Y62.75
X80.08Y63.21
X79.22Y63.69
X78.30Y64.24
X77.89Y64.49
X77.03Y65.04
X76.63Y65.31
X76.19Y65.61
X75.37Y66.19
X74.98Y66.48
X74.19Y67.08
X73.39Y67.72
X72.60Y68.40
X72.28Y68.68
X71.50Y69.39
X71.13Y69.74
X70.81Y70.05
X70.05Y70.81
Z12.70
G0X74.56Y75.28
Z-4.46
G1Z-5.49F254.0
X74.01Y75.86F1524.0
X73.46Y76.46
X73.17Y76.78
X72.60Y77.47
X72.09Y78.09
X71.37Y79.05
X70.83Y79.80
X70.29Y80.60
X69.63Y81.64
X69.22Y82.34
X69.01Y82.72
X68.62Y83.44
X68.37Y83.92
X68.03Y84.61
X67.83Y85.01
X67.48Y85.79
X67.18Y86.51
X66.78Y87.51
X66.66Y87.85
X66.56Y88.12
X66.24Y89.05
X66.01Y89.80
X65.86Y90.33
X65.64Y91.13
X65.42Y92.04
X65.27Y92.75
X65.07Y93.73
X64.94Y94.57
X64.81Y95.50
X64.70Y96.40
X64.63Y97.24
X64.57Y98.14
X64.53Y99.42
Y115.47
X67.47
Y99.89
X67.48Y99.17
X67.52Y98.32
X67.56Y97.55
X67.64Y96.72
X67.74Y95.81
X67.84Y95.09
X67.99Y94.23
X68.13Y93.47
X68.30Y92.69
X68.50Y91.87
X68.73Y91.03
X68.93Y90.35
X69.17Y89.63
X69.46Y88.79
X69.75Y88.04
X70.05Y87.31
X70.36Y86.59
X70.67Y85.92
X71.04Y85.19
X71.41Y84.48
X71.78Y83.81
X72.22Y83.08
X72.66Y82.38
X73.05Y81.79
X73.44Y81.22
X73.94Y80.54
X74.39Y79.95
X74.87Y79.35
X75.43Y78.68
X75.95Y78.10
X76.43Y77.58
X77.05Y76.95
X77.55Y76.46
X78.10Y75.95
X78.69Y75.42
X79.27Y74.93
X79.93Y74.41
X80.58Y73.91
X81.23Y73.44
X81.84Y73.01
X82.41Y72.64
X83.13Y72.19
X83.81Y71.78
X84.44Y71.43
X85.20Y71.03
X85.87Y70.70
X86.58Y70.36
X87.31Y70.04
X88.11Y69.72
X88.78Y69.46
X89.62Y69.17
X90.42Y68.91
X91.00Y68.74
X91.89Y68.50
X92.73Y68.29
X93.51Y68.12
X94.25Y67.98
X94.99Y67.86
X95.82Y67.74
X96.72Y67.64
X97.58Y67.56
X98.38Y67.51
X99.16Y67.48
X99.89Y67.47
X115.47
Y64.53
X100.06
X99.16
X98.15Y64.57
X97.22Y64.63
X96.39Y64.71
X95.51Y64.81
X94.56Y64.94
X93.73Y65.07
X93.33Y65.15
X92.36Y65.35
X92.00Y65.43
X91.13Y65.64
X90.74Y65.74
X89.91Y65.98
X88.96Y66.27
X88.22Y66.52
X87.39Y66.83
X86.58Y67.15
X85.79Y67.48
X84.97Y67.85
X84.69Y67.99
X83.88Y68.39
X83.11Y68.80
X82.36Y69.21
X81.59Y69.67
X81.27Y69.86
X80.52Y70.35
X80.22Y70.55
X79.78Y70.85
X79.13Y71.31
X78.81Y71.55
X78.07Y72.11
X77.49Y72.58
X76.78Y73.17
X76.46Y73.46
X75.86Y74.01
X75.49Y74.36
X75.28Y74.56
X74.56Y75.28
X72.29Y73.05
X71.70Y73.68
X71.07Y74.37
X70.79Y74.69
X70.17Y75.42
X69.58Y76.15
X69.01Y76.89
X68.79Y77.19
X68.22Y78.00
X67.65Y78.84
X67.47Y79.12
X66.93Y79.98
X66.46Y80.78
X66.25Y81.15
X65.80Y81.97
X65.55Y82.45
X65.16Y83.25
X64.96Y83.65
X64.57Y84.52
X64.23Y85.32
X63.83Y86.34
X63.55Y87.10
X63.24Y88.03
X62.96Y88.91
X62.81Y89.45
X62.57Y90.32
X62.32Y91.34
X62.15Y92.13
X61.95Y93.18
X61.80Y94.09
X61.66Y95.09
X61.55Y96.05
X61.46Y97.04
X61.40Y97.99
X61.36Y99.08
X61.35Y99.42
Y118.65
X70.65
Y99.93
X70.66Y99.26
X70.69Y98.46
X70.73Y97.77
X70.80Y97.04
X70.89Y96.24
X70.98Y95.58
X71.12Y94.76
X71.24Y94.10
X71.39Y93.42
X71.56Y92.70
X71.78Y91.92
X71.96Y91.30
X72.19Y90.60
X72.44Y89.88
X72.70Y89.19
X72.97Y88.54
X73.25Y87.91
X73.53Y87.30
X73.86Y86.64
X74.22Y85.96
X74.54Y85.39
X74.91Y84.76
X75.31Y84.13
X75.69Y83.55
X76.04Y83.04
X76.50Y82.41
X76.89Y81.90
X77.34Y81.35
X77.80Y80.79
X78.32Y80.22
X78.75Y79.75
X79.27Y79.22
X79.74Y78.77
X80.27Y78.27
X80.79Y77.80
X81.29Y77.38
X81.90Y76.89
X82.46Y76.46
X83.04Y76.04
X83.61Y75.65
X84.13Y75.30
X84.77Y74.90
X85.38Y74.54
X85.95Y74.23
X86.64Y73.86
X87.26Y73.55
X87.91Y73.25
X88.58Y72.95
X89.25Y72.68
X89.88Y72.44
X90.60Y72.19
X91.33Y71.95
X91.91Y71.78
X92.70Y71.56
X93.44Y71.39
X94.13Y71.24
X94.81Y71.11
X95.50Y70.99
X96.23Y70.89
X97.02Y70.80
X97.78Y70.73
X98.51Y70.69
X99.26Y70.66
X99.93Y70.65
X118.65
Y61.35
X100.03
X99.08Y61.36
X97.99Y61.40
X97.00Y61.46
X96.05Y61.55
X95.10Y61.66
X94.10Y61.80
X93.17Y61.95
X92.71Y62.03
X91.69Y62.24
X91.30Y62.33
X90.31Y62.57
X89.90Y62.68
X89.00Y62.94
X87.98Y63.25
X87.17Y63.53
X86.26Y63.86
X85.39Y64.20
X84.50Y64.58
X83.63Y64.97
X83.30Y65.13
X82.42Y65.57
X81.59Y66.00
X80.79Y66.45
X79.93Y66.96
X79.60Y67.16
X78.77Y67.69
X78.43Y67.92
X77.98Y68.23
X77.25Y68.75
X76.87Y69.03
X76.14Y69.59
X75.45Y70.15
X74.69Y70.79
X74.37Y71.07
X73.68Y71.70
X73.31Y72.05
X73.05Y72.29
X72.29Y73.05
X70.05Y70.81
X69.39Y71.50
X68.68Y72.28
X68.40Y72.60
X67.72Y73.39
X67.08Y74.19
X66.49Y74.96
X66.20Y75.35
X65.61Y76.19
X65.02Y77.06
X64.78Y77.44
X64.24Y78.30
X63.69Y79.22
X63.48Y79.59
X62.99Y80.50
X62.74Y80.98
X62.29Y81.89
X62.09Y82.29
X61.66Y83.27
X61.28Y84.16
X60.88Y85.18
X60.55Y86.08
X60.22Y87.05
X59.91Y88.03
X59.76Y88.56
X59.49Y89.53
X59.24Y90.59
X59.13Y91.08
X59.03Y91.53
X58.82Y92.61
X58.65Y93.64
X58.51Y94.69
X58.39Y95.74
X58.30Y96.80
X58.23Y97.83
X58.19Y98.96
X58.18Y99.42
X58.17Y121.83
X73.83
Y99.96
Y99.35
X73.86Y98.63
X73.90Y98.00
X73.96Y97.35
X74.04Y96.64
X74.13Y96.02
X74.24Y95.34
X74.36Y94.72
X74.49Y94.12
X74.64Y93.49
X74.82Y92.82
X74.99Y92.24
X75.21Y91.58
X75.42Y90.97
X75.65Y90.38
X75.88Y89.81
X76.14Y89.22
X76.40Y88.67
X76.70Y88.05
X77.00Y87.49
X77.30Y86.96
X77.63Y86.40
X77.96Y85.87
X78.31Y85.34
X78.65Y84.86
X79.03Y84.33
X79.41Y83.84
X79.80Y83.35
X80.19Y82.89
X80.64Y82.38
X81.04Y81.95
X81.52Y81.46
X81.92Y81.07
X82.42Y80.61
X82.88Y80.20
X83.32Y79.82
X83.86Y79.39
X84.35Y79.02
X84.86Y78.65
X85.38Y78.29
X85.86Y77.97
X86.40Y77.63
X86.96Y77.30
X87.50Y77.00
X88.05Y76.70
X88.64Y76.41
X89.19Y76.15
X89.79Y75.89
X90.41Y75.64
X90.99Y75.42
X91.58Y75.21
X92.25Y74.99
X92.81Y74.83
X93.46Y74.65
X94.11Y74.49
X94.75Y74.35
X95.36Y74.23
X95.98Y74.13
X96.64Y74.04
X97.33Y73.96
X98.00Y73.90
X98.63Y73.86
X99.36Y73.83
X99.96
X121.83
Y58.17
X100.02
X99.43Y58.18
X98.96Y58.19
X97.83Y58.23
X96.78Y58.30
X95.72Y58.39
X95.17Y58.45
X94.67Y58.51
X93.64Y58.65
X92.59Y58.83
X92.11Y58.92
X91.05Y59.13
X90.57Y59.24
X89.53Y59.49
X89.03Y59.63
X88.09Y59.89
X87.03Y60.22
X86.10Y60.54
X85.64Y60.70
X85.12Y60.90
X84.18Y61.27
X83.27Y61.66
X82.29Y62.09
X81.90Y62.28
X80.96Y62.75
X80.08Y63.21
X79.22Y63.69
X78.30Y64.24
X77.89Y64.49
X77.03Y65.04
X76.63Y65.31
X76.19Y65.61
X75.37Y66.19
X74.98Y66.48
X74.19Y67.08
X73.39Y67.72
X72.60Y68.40
X72.28Y68.68
X71.50Y69.39
X71.13Y69.74
X70.81Y70.05
X70.05Y70.81
Z12.70
G0X74.56Y75.28
Z-5.15
G1Z-6.17F254.0
X74.01Y75.86F1524.0
X73.46Y76.46
X73.17Y76.78
X72.60Y77.47
X72.09Y78.09
X71.37Y79.05
X70.83Y79.80
X70.29Y80.60
X69.63Y81.64
X69.22Y82.34
X69.01Y82.72
X68.62Y83.44
X68.37Y83.92
X68.03Y84.61
X67.83Y85.01
X67.48Y85.79
X67.18Y86.51
X66.78Y87.51
X66.66Y87.85
X66.56Y88.12
X66.24Y89.05
X66.01Y89.80
X65.86Y90.33
X65.64Y91.13
X65.42Y92.04
X65.27Y92.75
X65.07Y93.73
X64.94Y94.57
X64.81Y95.50
X64.70Y96.40
X64.63Y97.24
X64.57Y98.14
X64.53Y99.42
Y115.47
X67.47
Y99.89
X67.48Y99.17
X67.52Y98.32
X67.56Y97.55
X67.64Y96.72
X67.74Y95.81
X67.84Y95.09
X67.99Y94.23
X68.13Y93.47
X68.30Y92.69
X68.50Y91.87
X68.73Y91.03
X68.93Y90.35
X69.17Y89.63
X69.46Y88.79
X69.75Y88.04
X70.05Y87.31
X70.36Y86.59
X70.67Y85.92
X71.04Y85.19
X71.41Y84.48
X71.78Y83.81
X72.22Y83.08
X72.66Y82.38
X73.05Y81.79
X73.44Y81.22
X73.94Y80.54
X74.39Y79.95
X74.87Y79.35
X75.43Y78.68
X75.95Y78.10
X76.43Y77.58
X77.05Y76.95
X77.55Y76.46
X78.10Y75.95
X78.69Y75.42
X79.27Y74.93
X79.93Y74.41
X80.58Y73.91
X81.23Y73.44
X81.84Y73.01
X82.41Y72.64
X83.13Y72.19
X83.81Y71.78
X84.44Y71.43
X85.20Y71.03
X85.87Y70.70
X86.58Y70.36
X87.31Y70.04
X88.11Y69.72
X88.78Y69.46
X89.62Y69.17
X90.42Y68.91
X91.00Y68.74
X91.89Y68.50
X92.73Y68.29
X93.51Y68.12
X94.25Y67.98
X94.99Y67.86
X95.82Y67.74
X96.72Y67.64
X97.58Y67.56
X98.38Y67.51
X99.16Y67.48
X99.89Y67.47
X115.47
Y64.53
X100.06
X99.16
X98.15Y64.57
X97.22Y64.63
X96.39Y64.71
X95.51Y64.81
X94.56Y64.94
X93.73Y65.07
X93.33Y65.15
X92.36Y65.35
X92.00Y65.43
X91.13Y65.64
X90.74Y65.74
X89.91Y65.98
X88.96Y66.27
X88.22Y66.52
X87.39Y66.83
X86.58Y67.15
X85.79Y67.48
X84.97Y67.85
X84.69Y67.99
X83.88Y68.39
X83.11Y68.80
X82.36Y69.21
X81.59Y69.67
X81.27Y69.86
X80.52Y70.35
X80.22Y70.55
X79.78Y70.85
X79.13Y71.31
X78.81Y71.55
X78.07Y72.11
X77.49Y72.58
X76.78Y73.17
X76.46Y73.46
X75.86Y74.01
X75.49Y74.36
X75.28Y74.56
X74.56Y75.28
X72.29Y73.05
X71.70Y73.68
X71.07Y74.37
X70.79Y74.69
X70.17Y75.42
X69.58Y76.15
X69.01Y76.89
X68.79Y77.19
X68.22Y78.00
X67.65Y78.84
X67.47Y79.12
X66.93Y79.98
X66.46Y80.78
X66.25Y81.15
X65.80Y81.97
X65.55Y82.45
X65.16Y83.25
X64.96Y83.65
X64.57Y84.52
X64.23Y85.32
X63.83Y86.34
X63.55Y87.10
X63.24Y88.03
X62.96Y88.91
X62.81Y89.45
X62.57Y90.32
X62.32Y91.34
X62.15Y92.13
X61.95Y93.18
X61.80Y94.09
X61.66Y95.09
X61.55Y96.05
X61.46Y97.04
X61.40Y97.99
X61.36Y99.08
X61.35Y99.42
Y118.65
X70.65
Y99.93
X70.66Y99.26
X70.69Y98.46
X70.73Y97.77
X70.80Y97.04
X70.89Y96.24
X70.98Y95.58
X71.12Y94.76
X71.24Y94.10
X71.39Y93.42
X71.56Y92.70
X71.78Y91.92
X71.96Y91.30
X72.19Y90.60
X72.44Y89.88
X72.70Y89.19
X72.97Y88.54
X73.25Y87.91
X73.53Y87.30
X73.86Y86.64
X74.22Y85.96
X74.54Y85.39
X74.91Y84.76
X75.31Y84.13
X75.69Y83.55
X76.04Y83.04
X76.50Y82.41
X76.89Y81.90
X77.34Y81.35
X77.80Y80.79
X78.32Y80.22
X78.75Y79.75
X79.27Y79.22
X79.74Y78.77
X80.27Y78.27
X80.79Y77.80
X81.29Y77.38
X81.90Y76.89
X82.46Y76.46
X83.04Y76.04
X83.61Y75.65
X84.13Y75.30
X84.77Y74.90
X85.38Y74.54
X85.95Y74.23
X86.64Y73.86
X87.26Y73.55
X87.91Y73.25
X88.58Y72.95
X89.25Y72.68
X89.88Y72.44
X90.60Y72.19
X91.33Y71.95
X91.91Y71.78
X92.70Y71.56
X93.44Y71.39
X94.13Y71.24
X94.81Y71.11
X95.50Y70.99
X96.23Y70.89
X97.02Y70.80
X97.78Y70.73
X98.51Y70.69
X99.26Y70.66
X99.93Y70.65
X118.65
Y61.35
X100.03
X99.08Y61.36
X97.99Y61.40
X97.00Y61.46
X96.05Y61.55
X95.10Y61.66
X94.10Y61.80
X93.17Y61.95
X92.71Y62.03
X91.69Y62.24
X91.30Y62.33
X90.31Y62.57
X89.90Y62.68
X89.00Y62.94
X87.98Y63.25
X87.17Y63.53
X86.26Y63.86
X85.39Y64.20
X84.50Y64.58
X83.63Y64.97
X83.30Y65.13
X82.42Y65.57
X81.59Y66.00
X80.79Y66.45
X79.93Y66.96
X79.60Y67.16
X78.77Y67.69
X78.43Y67.92
X77.98Y68.23
X77.25Y68.75
X76.87Y69.03
X76.14Y69.59
X75.45Y70.15
X74.69Y70.79
X74.37Y71.07
X73.68Y71.70
X73.31Y72.05
X73.05Y72.29
X72.29Y73.05
X70.05Y70.81
X69.39Y71.50
X68.68Y72.28
X68.40Y72.60
X67.72Y73.39
X67.08Y74.19
X66.49Y74.96
X66.20Y75.35
X65.61Y76.19
X65.02Y77.06
X64.78Y77.44
X64.24Y78.30
X63.69Y79.22
X63.48Y79.59
X62.99Y80.50
X62.74Y80.98
X62.29Y81.89
X62.09Y82.29
X61.66Y83.27
X61.28Y84.16
X60.88Y85.18
X60.55Y86.08
X60.22Y87.05
X59.91Y88.03
X59.76Y88.56
X59.49Y89.53
X59.24Y90.59
X59.13Y91.08
X59.03Y91.53
X58.82Y92.61
X58.65Y93.64
X58.51Y94.69
X58.39Y95.74
X58.30Y96.80
X58.23Y97.83
X58.19Y98.96
X58.18Y99.42
X58.17Y121.83
X73.83
Y99.96
Y99.35
X73.86Y98.63
X73.90Y98.00
X73.96Y97.35
X74.04Y96.64
X74.13Y96.02
X74.24Y95.34
X74.36Y94.72
X74.49Y94.12
X74.64Y93.49
X74.82Y92.82
X74.99Y92.24
X75.21Y91.58
X75.42Y90.97
X75.65Y90.38
X75.88Y89.81
X76.14Y89.22
X76.40Y88.67
X76.70Y88.05
X77.00Y87.49
X77.30Y86.96
X77.63Y86.40
X77.96Y85.87
X78.31Y85.34
X78.65Y84.86
X79.03Y84.33
X79.41Y83.84
X79.80Y83.35
X80.19Y82.89
X80.64Y82.38
X81.04Y81.95
X81.52Y81.46
X81.92Y81.07
X82.42Y80.61
X82.88Y80.20
X83.32Y79.82
X83.86Y79.39
X84.35Y79.02
X84.86Y78.65
X85.38Y78.29
X85.86Y77.97
X86.40Y77.63
X86.96Y77.30
X87.50Y77.00
X88.05Y76.70
X88.64Y76.41
X89.19Y76.15
X89.79Y75.89
X90.41Y75.64
X90.99Y75.42
X91.58Y75.21
X92.25Y74.99
X92.81Y74.83
X93.46Y74.65
X94.11Y74.49
X94.75Y74.35
X95.36Y74.23
X95.98Y74.13
X96.64Y74.04
X97.33Y73.96
X98.00Y73.90
X98.63Y73.86
X99.36Y73.83
X99.96
X121.83
Y58.17
X100.02
X99.43Y58.18
X98.96Y58.19
X97.83Y58.23
X96.78Y58.30
X95.72Y58.39
X95.17Y58.45
X94.67Y58.51
X93.64Y58.65
X92.59Y58.83
X92.11Y58.92
X91.05Y59.13
X90.57Y59.24
X89.53Y59.49
X89.03Y59.63
X88.09Y59.89
X87.03Y60.22
X86.10Y60.54
X85.64Y60.70
X85.12Y60.90
X84.18Y61.27
X83.27Y61.66
X82.29Y62.09
X81.90Y62.28
X80.96Y62.75
X80.08Y63.21
X79.22Y63.69
X78.30Y64.24
X77.89Y64.49
X77.03Y65.04
X76.63Y65.31
X76.19Y65.61
X75.37Y66.19
X74.98Y66.48
X74.19Y67.08
X73.39Y67.72
X72.60Y68.40
X72.28Y68.68
X71.50Y69.39
X71.13Y69.74
X70.81Y70.05
X70.05Y70.81
Z12.70
G0X74.56Y75.28
Z-5.83
G1Z-6.86F254.0
X74.01Y75.86F1524.0
X73.46Y76.46
X73.17Y76.78
X72.60Y77.47
X72.09Y78.09
X71.37Y79.05
X70.83Y79.80
X70.29Y80.60
X69.63Y81.64
X69.22Y82.34
X69.01Y82.72
X68.62Y83.44
X68.37Y83.92
X68.03Y84.61
X67.83Y85.01
X67.48Y85.79
X67.18Y86.51
X66.78Y87.51
X66.66Y87.85
X66.56Y88.12
X66.24Y89.05
X66.01Y89.80
X65.86Y90.33
X65.64Y91.13
X65.42Y92.04
X65.27Y92.75
X65.07Y93.73
X64.94Y94.57
X64.81Y95.50
X64.70Y96.40
X64.63Y97.24
X64.57Y98.14
X64.53Y99.42
Y115.47
X67.47
Y99.89
X67.48Y99.17
X67.52Y98.32
X67.56Y97.55
X67.64Y96.72
X67.74Y95.81
X67.84Y95.09
X67.99Y94.23
X68.13Y93.47
X68.30Y92.69
X68.50Y91.87
X68.73Y91.03
X68.93Y90.35
X69.17Y89.63
X69.46Y88.79
X69.75Y88.04
X70.05Y87.31
X70.36Y86.59
X70.67Y85.92
X71.04Y85.19
X71.41Y84.48
X71.78Y83.81
X72.22Y83.08
X72.66Y82.38
X73.05Y81.79
X73.44Y81.22
X73.94Y80.54
X74.39Y79.95
X74.87Y79.35
X75.43Y78.68
X75.95Y78.10
X76.43Y77.58
X77.05Y76.95
X77.55Y76.46
X78.10Y75.95
X78.69Y75.42
X79.27Y74.93
X79.93Y74.41
X80.58Y73.91
X81.23Y73.44
X81.84Y73.01
X82.41Y72.64
X83.13Y72.19
X83.81Y71.78
X84.44Y71.43
X85.20Y71.03
X85.87Y70.70
X86.58Y70.36
X87.31Y70.04
X88.11Y69.72
X88.78Y69.46
X89.62Y69.17
X90.42Y68.91
X91.00Y68.74
X91.89Y68.50
X92.73Y68.29
X93.51Y68.12
X94.25Y67.98
X94.99Y67.86
X95.82Y67.74
X96.72Y67.64
X97.58Y67.56
X98.38Y67.51
X99.16Y67.48
X99.89Y67.47
X115.47
Y64.53
X100.06
X99.16
X98.15Y64.57
X97.22Y64.63
X96.39Y64.71
X95.51Y64.81
X94.56Y64.94
X93.73Y65.07
X93.33Y65.15
X92.36Y65.35
X92.00Y65.43
X91.13Y65.64
X90.74Y65.74
X89.91Y65.98
X88.96Y66.27
X88.22Y66.52
X87.39Y66.83
X86.58Y67.15
X85.79Y67.48
X84.97Y67.85
X84.69Y67.99
X83.88Y68.39
X83.11Y68.80
X82.36Y69.21
X81.59Y69.67
X81.27Y69.86
X80.52Y70.35
X80.22Y70.55
X79.78Y70.85
X79.13Y71.31
X78.81Y71.55
X78.07Y72.11
X77.49Y72.58
X76.78Y73.17
X76.46Y73.46
X75.86Y74.01
X75.49Y74.36
X75.28Y74.56
X74.56Y75.28
X72.29Y73.05
X71.70Y73.68
X71.07Y74.37
X70.79Y74.69
X70.17Y75.42
X69.58Y76.15
X69.01Y76.89
X68.79Y77.19
X68.22Y78.00
X67.65Y78.84
X67.47Y79.12
X66.93Y79.98
X66.46Y80.78
X66.25Y81.15
X65.80Y81.97
X65.55Y82.45
X65.16Y83.25
X64.96Y83.65
X64.57Y84.52
X64.23Y85.32
X63.83Y86.34
X63.55Y87.10
X63.24Y88.03
X62.96Y88.91
X62.81Y89.45
X62.57Y90.32
X62.32Y91.34
X62.15Y92.13
X61.95Y93.18
X61.80Y94.09
X61.66Y95.09
X61.55Y96.05
X61.46Y97.04
X61.40Y97.99
X61.36Y99.08
X61.35Y99.42
Y118.65
X70.65
Y99.93
X70.66Y99.26
X70.69Y98.46
X70.73Y97.77
X70.80Y97.04
X70.89Y96.24
X70.98Y95.58
X71.12Y94.76
X71.24Y94.10
X71.39Y93.42
X71.56Y92.70
X71.78Y91.92
X71.96Y91.30
X72.19Y90.60
X72.44Y89.88
X72.70Y89.19
X72.97Y88.54
X73.25Y87.91
X73.53Y87.30
X73.86Y86.64
X74.22Y85.96
X74.54Y85.39
X74.91Y84.76
X75.31Y84.13
X75.69Y83.55
X76.04Y83.04
X76.50Y82.41
X76.89Y81.90
X77.34Y81.35
X77.80Y80.79
X78.32Y80.22
X78.75Y79.75
X79.27Y79.22
X79.74Y78.77
X80.27Y78.27
X80.79Y77.80
X81.29Y77.38
X81.90Y76.89
X82.46Y76.46
X83.04Y76.04
X83.61Y75.65
X84.13Y75.30
X84.77Y74.90
X85.38Y74.54
X85.95Y74.23
X86.64Y73.86
X87.26Y73.55
X87.91Y73.25
X88.58Y72.95
X89.25Y72.68
X89.88Y72.44
X90.60Y72.19
X91.33Y71.95
X91.91Y71.78
X92.70Y71.56
X93.44Y71.39
X94.13Y71.24
X94.81Y71.11
X95.50Y70.99
X96.23Y70.89
X97.02Y70.80
X97.78Y70.73
X98.51Y70.69
X99.26Y70.66
X99.93Y70.65
X118.65
Y61.35
X100.03
X99.08Y61.36
X97.99Y61.40
X97.00Y61.46
X96.05Y61.55
X95.10Y61.66
X94.10Y61.80
X93.17Y61.95
X92.71Y62.03
X91.69Y62.24
X91.30Y62.33
X90.31Y62.57
X89.90Y62.68
X89.00Y62.94
X87.98Y63.25
X87.17Y63.53
X86.26Y63.86
X85.39Y64.20
X84.50Y64.58
X83.63Y64.97
X83.30Y65.13
X82.42Y65.57
X81.59Y66.00
X80.79Y66.45
X79.93Y66.96
X79.60Y67.16
X78.77Y67.69
X78.43Y67.92
X77.98Y68.23
X77.25Y68.75
X76.87Y69.03
X76.14Y69.59
X75.45Y70.15
X74.69Y70.79
X74.37Y71.07
X73.68Y71.70
X73.31Y72.05
X73.05Y72.29
X72.29Y73.05
X70.05Y70.81
X69.39Y71.50
X68.68Y72.28
X68.40Y72.60
X67.72Y73.39
X67.08Y74.19
X66.49Y74.96
X66.20Y75.35
X65.61Y76.19
X65.02Y77.06
X64.78Y77.44
X64.24Y78.30
X63.69Y79.22
X63.48Y79.59
X62.99Y80.50
X62.74Y80.98
X62.29Y81.89
X62.09Y82.29
X61.66Y83.27
X61.28Y84.16
X60.88Y85.18
X60.55Y86.08
X60.22Y87.05
X59.91Y88.03
X59.76Y88.56
X59.49Y89.53
X59.24Y90.59
X59.13Y91.08
X59.03Y91.53
X58.82Y92.61
X58.65Y93.64
X58.51Y94.69
X58.39Y95.74
X58.30Y96.80
X58.23Y97.83
X58.19Y98.96
X58.18Y99.42
X58.17Y121.83
X73.83
Y99.96
Y99.35
X73.86Y98.63
X73.90Y98.00
X73.96Y97.35
X74.04Y96.64
X74.13Y96.02
X74.24Y95.34
X74.36Y94.72
X74.49Y94.12
X74.64Y93.49
X74.82Y92.82
X74.99Y92.24
X75.21Y91.58
X75.42Y90.97
X75.65Y90.38
X75.88Y89.81
X76.14Y89.22
X76.40Y88.67
X76.70Y88.05
X77.00Y87.49
X77.30Y86.96
X77.63Y86.40
X77.96Y85.87
X78.31Y85.34
X78.65Y84.86
X79.03Y84.33
X79.41Y83.84
X79.80Y83.35
X80.19Y82.89
X80.64Y82.38
X81.04Y81.95
X81.52Y81.46
X81.92Y81.07
X82.42Y80.61
X82.88Y80.20
X83.32Y79.82
X83.86Y79.39
X84.35Y79.02
X84.86Y78.65
X85.38Y78.29
X85.86Y77.97
X86.40Y77.63
X86.96Y77.30
X87.50Y77.00
X88.05Y76.70
X88.64Y76.41
X89.19Y76.15
X89.79Y75.89
X90.41Y75.64
X90.99Y75.42
X91.58Y75.21
X92.25Y74.99
X92.81Y74.83
X93.46Y74.65
X94.11Y74.49
X94.75Y74.35
X95.36Y74.23
X95.98Y74.13
X96.64Y74.04
X97.33Y73.96
X98.00Y73.90
X98.63Y73.86
X99.36Y73.83
X99.96
X121.83
Y58.17
X100.02
X99.43Y58.18
X98.96Y58.19
X97.83Y58.23
X96.78Y58.30
X95.72Y58.39
X95.17Y58.45
X94.67Y58.51
X93.64Y58.65
X92.59Y58.83
X92.11Y58.92
X91.05Y59.13
X90.57Y59.24
X89.53Y59.49
X89.03Y59.63
X88.09Y59.89
X87.03Y60.22
X86.10Y60.54
X85.64Y60.70
X85.12Y60.90
X84.18Y61.27
X83.27Y61.66
X82.29Y62.09
X81.90Y62.28
X80.96Y62.75
X80.08Y63.21
X79.22Y63.69
X78.30Y64.24
X77.89Y64.49
X77.03Y65.04
X76.63Y65.31
X76.19Y65.61
X75.37Y66.19
X74.98Y66.48
X74.19Y67.08
X73.39Y67.72
X72.60Y68.40
X72.28Y68.68
X71.50Y69.39
X71.13Y69.74
X70.81Y70.05
X70.05Y70.81
Z12.70
G0X74.56Y75.28
Z-6.52
G1Z-7.55F254.0
X74.01Y75.86F1524.0
X73.46Y76.46
X73.17Y76.78
X72.60Y77.47
X72.09Y78.09
X71.37Y79.05
X70.83Y79.80
X70.29Y80.60
X69.63Y81.64
X69.22Y82.34
X69.01Y82.72
X68.62Y83.44
X68.37Y83.92
X68.03Y84.61
X67.83Y85.01
X67.48Y85.79
X67.18Y86.51
X66.78Y87.51
X66.66Y87.85
X66.56Y88.12
X66.24Y89.05
X66.01Y89.80
X65.86Y90.33
X65.64Y91.13
X65.42Y92.04
X65.27Y92.75
X65.07Y93.73
X64.94Y94.57
X64.81Y95.50
X64.70Y96.40
X64.63Y97.24
X64.57Y98.14
X64.53Y99.42
Y115.47
X67.47
Y99.89
X67.48Y99.17
X67.52Y98.32
X67.56Y97.55
X67.64Y96.72
X67.74Y95.81
X67.84Y95.09
X67.99Y94.23
X68.13Y93.47
X68.30Y92.69
X68.50Y91.87
X68.73Y91.03
X68.93Y90.35
X69.17Y89.63
X69.46Y88.79
X69.75Y88.04
X70.05Y87.31
X70.36Y86.59
X70.67Y85.92
X71.04Y85.19
X71.41Y84.48
X71.78Y83.81
X72.22Y83.08
X72.66Y82.38
X73.05Y81.79
X73.44Y81.22
X73.94Y80.54
X74.39Y79.95
X74.87Y79.35
X75.43Y78.68
X75.95Y78.10
X76.43Y77.58
X77.05Y76.95
X77.55Y76.46
X78.10Y75.95
X78.69Y75.42
X79.27Y74.93
X79.93Y74.41
X80.58Y73.91
X81.23Y73.44
X81.84Y73.01
X82.41Y72.64
X83.13Y72.19
X83.81Y71.78
X84.44Y71.43
X85.20Y71.03
X85.87Y70.70
X86.58Y70.36
X87.31Y70.04
X88.11Y69.72
X88.78Y69.46
X89.62Y69.17
X90.42Y68.91
X91.00Y68.74
X91.89Y68.50
X92.73Y68.29
X93.51Y68.12
X94.25Y67.98
X94.99Y67.86
X95.82Y67.74
X96.72Y67.64
X97.58Y67.56
X98.38Y67.51
X99.16Y67.48
X99.89Y67.47
X115.47
Y64.53
X100.06
X99.16
X98.15Y64.57
X97.22Y64.63
X96.39Y64.71
X95.51Y64.81
X94.56Y64.94
X93.73Y65.07
X93.33Y65.15
X92.36Y65.35
X92.00Y65.43
X91.13Y65.64
X90.74Y65.74
X89.91Y65.98
X88.96Y66.27
X88.22Y66.52
X87.39Y66.83
X86.58Y67.15
X85.79Y67.48
X84.97Y67.85
X84.69Y67.99
X83.88Y68.39
X83.11Y68.80
X82.36Y69.21
X81.59Y69.67
X81.27Y69.86
X80.52Y70.35
X80.22Y70.55
X79.78Y70.85
X79.13Y71.31
X78.81Y71.55
X78.07Y72.11
X77.49Y72.58
X76.78Y73.17
X76.46Y73.46
X75.86Y74.01
X75.49Y74.36
X75.28Y74.56
X74.56Y75.28
X72.29Y73.05
X71.70Y73.68
X71.07Y74.37
X70.79Y74.69
X70.17Y75.42
X69.58Y76.15
X69.01Y76.89
X68.79Y77.19
X68.22Y78.00
X67.65Y78.84
X67.47Y79.12
X66.93Y79.98
X66.46Y80.78
X66.25Y81.15
X65.80Y81.97
X65.55Y82.45
X65.16Y83.25
X64.96Y83.65
X64.57Y84.52
X64.23Y85.32
X63.83Y86.34
X63.55Y87.10
X63.24Y88.03
X62.96Y88.91
X62.81Y89.45
X62.57Y90.32
X62.32Y91.34
X62.15Y92.13
X61.95Y93.18
X61.80Y94.09
X61.66Y95.09
X61.55Y96.05
X61.46Y97.04
X61.40Y97.99
X61.36Y99.08
X61.35Y99.42
Y118.65
X70.65
Y99.93
X70.66Y99.26
X70.69Y98.46
X70.73Y97.77
X70.80Y97.04
X70.89Y96.24
X70.98Y95.58
X71.12Y94.76
X71.24Y94.10
X71.39Y93.42
X71.56Y92.70
X71.78Y91.92
X71.96Y91.30
X72.19Y90.60
X72.44Y89.88
X72.70Y89.19
X72.97Y88.54
X73.25Y87.91
X73.53Y87.30
X73.86Y86.64
X74.22Y85.96
X74.54Y85.39
X74.91Y84.76
X75.31Y84.13
X75.69Y83.55
X76.04Y83.04
X76.50Y82.41
X76.89Y81.90
X77.34Y81.35
X77.80Y80.79
X78.32Y80.22
X78.75Y79.75
X79.27Y79.22
X79.74Y78.77
X80.27Y78.27
X80.79Y77.80
X81.29Y77.38
X81.90Y76.89
X82.46Y76.46
X83.04Y76.04
X83.61Y75.65
X84.13Y75.30
X84.77Y74.90
X85.38Y74.54
X85.95Y74.23
X86.64Y73.86
X87.26Y73.55
X87.91Y73.25
X88.58Y72.95
X89.25Y72.68
X89.88Y72.44
X90.60Y72.19
X91.33Y71.95
X91.91Y71.78
X92.70Y71.56
X93.44Y71.39
X94.13Y71.24
X94.81Y71.11
X95.50Y70.99
X96.23Y70.89
X97.02Y70.80
X97.78Y70.73
X98.51Y70.69
X99.26Y70.66
X99.93Y70.65
X118.65
Y61.35
X100.03
X99.08Y61.36
X97.99Y61.40
X97.00Y61.46
X96.05Y61.55
X95.10Y61.66
X94.10Y61.80
X93.17Y61.95
X92.71Y62.03
X91.69Y62.24
X91.30Y62.33
X90.31Y62.57
X89.90Y62.68
X89.00Y62.94
X87.98Y63.25
X87.17Y63.53
X86.26Y63.86
X85.39Y64.20
X84.50Y64.58
X83.63Y64.97
X83.30Y65.13
X82.42Y65.57
X81.59Y66.00
X80.79Y66.45
X79.93Y66.96
X79.60Y67.16
X78.77Y67.69
X78.43Y67.92
X77.98Y68.23
X77.25Y68.75
X76.87Y69.03
X76.14Y69.59
X75.45Y70.15
X74.69Y70.79
X74.37Y71.07
X73.68Y71.70
X73.31Y72.05
X73.05Y72.29
X72.29Y73.05
X70.05Y70.81
X69.39Y71.50
X68.68Y72.28
X68.40Y72.60
X67.72Y73.39
X67.08Y74.19
X66.49Y74.96
X66.20Y75.35
X65.61Y76.19
X65.02Y77.06
X64.78Y77.44
X64.24Y78.30
X63.69Y79.22
X63.48Y79.59
X62.99Y80.50
X62.74Y80.98
X62.29Y81.89
X62.09Y82.29
X61.66Y83.27
X61.28Y84.16
X60.88Y85.18
X60.55Y86.08
X60.22Y87.05
X59.91Y88.03
X59.76Y88.56
X59.49Y89.53
X59.24Y90.59
X59.13Y91.08
X59.03Y91.53
X58.82Y92.61
X58.65Y93.64
X58.51Y94.69
X58.39Y95.74
X58.30Y96.80
X58.23Y97.83
X58.19Y98.96
X58.18Y99.42
X58.17Y121.83
X73.83
Y99.96
Y99.35
X73.86Y98.63
X73.90Y98.00
X73.96Y97.35
X74.04Y96.64
X74.13Y96.02
X74.24Y95.34
X74.36Y94.72
X74.49Y94.12
X74.64Y93.49
X74.82Y92.82
X74.99Y92.24
X75.21Y91.58
X75.42Y90.97
X75.65Y90.38
X75.88Y89.81
X76.14Y89.22
X76.40Y88.67
X76.70Y88.05
X77.00Y87.49
X77.30Y86.96
X77.63Y86.40
X77.96Y85.87
X78.31Y85.34
X78.65Y84.86
X79.03Y84.33
X79.41Y83.84
X79.80Y83.35
X80.19Y82.89
X80.64Y82.38
X81.04Y81.95
X81.52Y81.46
X81.92Y81.07
X82.42Y80.61
X82.88Y80.20
X83.32Y79.82
X83.86Y79.39
X84.35Y79.02
X84.86Y78.65
X85.38Y78.29
X85.86Y77.97
X86.40Y77.63
X86.96Y77.30
X87.50Y77.00
X88.05Y76.70
X88.64Y76.41
X89.19Y76.15
X89.79Y75.89
X90.41Y75.64
X90.99Y75.42
X91.58Y75.21
X92.25Y74.99
X92.81Y74.83
X93.46Y74.65
X94.11Y74.49
X94.75Y74.35
X95.36Y74.23
X95.98Y74.13
X96.64Y74.04
X97.33Y73.96
X98.00Y73.90
X98.63Y73.86
X99.36Y73.83
X99.96
X121.83
Y58.17
X100.02
X99.43Y58.18
X98.96Y58.19
X97.83Y58.23
X96.78Y58.30
X95.72Y58.39
X95.17Y58.45
X94.67Y58.51
X93.64Y58.65
X92.59Y58.83
X92.11Y58.92
X91.05Y59.13
X90.57Y59.24
X89.53Y59.49
X89.03Y59.63
X88.09Y59.89
X87.03Y60.22
X86.10Y60.54
X85.64Y60.70
X85.12Y60.90
X84.18Y61.27
X83.27Y61.66
X82.29Y62.09
X81.90Y62.28
X80.96Y62.75
X80.08Y63.21
X79.22Y63.69
X78.30Y64.24
X77.89Y64.49
X77.03Y65.04
X76.63Y65.31
X76.19Y65.61
X75.37Y66.19
X74.98Y66.48
X74.19Y67.08
X73.39Y67.72
X72.60Y68.40
X72.28Y68.68
X71.50Y69.39
X71.13Y69.74
X70.81Y70.05
X70.05Y70.81
Z12.70
G0X74.56Y75.28
Z-7.20
G1Z-8.23F254.0
X74.01Y75.86F1524.0
X73.46Y76.46
X73.17Y76.78
X72.60Y77.47
X72.09Y78.09
X71.37Y79.05
X70.83Y79.80
X70.29Y80.60
X69.63Y81.64
X69.22Y82.34
X69.01Y82.72
X68.62Y83.44
X68.37Y83.92
X68.03Y84.61
X67.83Y85.01
X67.48Y85.79
X67.18Y86.51
X66.78Y87.51
X66.66Y87.85
X66.56Y88.12
X66.24Y89.05
X66.01Y89.80
X65.86Y90.33
X65.64Y91.13
X65.42Y92.04
X65.27Y92.75
X65.07Y93.73
X64.94Y94.57
X64.81Y95.50
X64.70Y96.40
X64.63Y97.24
X64.57Y98.14
X64.53Y99.42
Y115.47
X67.47
Y99.89
X67.48Y99.17
X67.52Y98.32
X67.56Y97.55
X67.64Y96.72
X67.74Y95.81
X67.84Y95.09
X67.99Y94.23
X68.13Y93.47
X68.30Y92.69
X68.50Y91.87
X68.73Y91.03
X68.93Y90.35
X69.17Y89.63
X69.46Y88.79
X69.75Y88.04
X70.05Y87.31
X70.36Y86.59
X70.67Y85.92
X71.04Y85.19
X71.41Y84.48
X71.78Y83.81
X72.22Y83.08
X72.66Y82.38
X73.05Y81.79
X73.44Y81.22
X73.94Y80.54
X74.39Y79.95
X74.87Y79.35
X75.43Y78.68
X75.95Y78.10
X76.43Y77.58
X77.05Y76.95
X77.55Y76.46
X78.10Y75.95
X78.69Y75.42
X79.27Y74.93
X79.93Y74.41
X80.58Y73.91
X81.23Y73.44
X81.84Y73.01
X82.41Y72.64
X83.13Y72.19
X83.81Y71.78
X84.44Y71.43
X85.20Y71.03
X85.87Y70.70
X86.58Y70.36
X87.31Y70.04
X88.11Y69.72
X88.78Y69.46
X89.62Y69.17
X90.42Y68.91
X91.00Y68.74
X91.89Y68.50
X92.73Y68.29
X93.51Y68.12
X94.25Y67.98
X94.99Y67.86
X95.82Y67.74
X96.72Y67.64
X97.58Y67.56
X98.38Y67.51
X99.16Y67.48
X99.89Y67.47
X115.47
Y64.53
X100.06
X99.16
X98.15Y64.57
X97.22Y64.63
X96.39Y64.71
X95.51Y64.81
X94.56Y64.94
X93.73Y65.07
X93.33Y65.15
X92.36Y65.35
X92.00Y65.43
X91.13Y65.64
X90.74Y65.74
X89.91Y65.98
X88.96Y66.27
X88.22Y66.52
X87.39Y66.83
X86.58Y67.15
X85.79Y67.48
X84.97Y67.85
X84.69Y67.99
X83.88Y68.39
X83.11Y68.80
X82.36Y69.21
X81.59Y69.67
X81.27Y69.86
X80.52Y70.35
X80.22Y70.55
X79.78Y70.85
X79.13Y71.31
X78.81Y71.55
X78.07Y72.11
X77.49Y72.58
X76.78Y73.17
X76.46Y73.46
X75.86Y74.01
X75.49Y74.36
X75.28Y74.56
X74.56Y75.28
X72.29Y73.05
X71.70Y73.68
X71.07Y74.37
X70.79Y74.69
X70.17Y75.42
X69.58Y76.15
X69.01Y76.89
X68.79Y77.19
X68.22Y78.00
X67.65Y78.84
X67.47Y79.12
X66.93Y79.98
X66.46Y80.78
X66.25Y81.15
X65.80Y81.97
X65.55Y82.45
X65.16Y83.25
X64.96Y83.65
X64.57Y84.52
X64.23Y85.32
X63.83Y86.34
X63.55Y87.10
X63.24Y88.03
X62.96Y88.91
X62.81Y89.45
X62.57Y90.32
X62.32Y91.34
X62.15Y92.13
X61.95Y93.18
X61.80Y94.09
X61.66Y95.09
X61.55Y96.05
X61.46Y97.04
X61.40Y97.99
X61.36Y99.08
X61.35Y99.42
Y118.65
X70.65
Y99.93
X70.66Y99.26
X70.69Y98.46
X70.73Y97.77
X70.80Y97.04
X70.89Y96.24
X70.98Y95.58
X71.12Y94.76
X71.24Y94.10
X71.39Y93.42
X71.56Y92.70
X71.78Y91.92
X71.96Y91.30
X72.19Y90.60
X72.44Y89.88
X72.70Y89.19
X72.97Y88.54
X73.25Y87.91
X73.53Y87.30
X73.86Y86.64
X74.22Y85.96
X74.54Y85.39
X74.91Y84.76
X75.31Y84.13
X75.69Y83.55
X76.04Y83.04
X76.50Y82.41
X76.89Y81.90
X77.34Y81.35
X77.80Y80.79
X78.32Y80.22
X78.75Y79.75
X79.27Y79.22
X79.74Y78.77
X80.27Y78.27
X80.79Y77.80
X81.29Y77.38
X81.90Y76.89
X82.46Y76.46
X83.04Y76.04
X83.61Y75.65
X84.13Y75.30
X84.77Y74.90
X85.38Y74.54
X85.95Y74.23
X86.64Y73.86
X87.26Y73.55
X87.91Y73.25
X88.58Y72.95
X89.25Y72.68
X89.88Y72.44
X90.60Y72.19
X91.33Y71.95
X91.91Y71.78
X92.70Y71.56
X93.44Y71.39
X94.13Y71.24
X94.81Y71.11
X95.50Y70.99
X96.23Y70.89
X97.02Y70.80
X97.78Y70.73
X98.51Y70.69
X99.26Y70.66
X99.93Y70.65
X118.65
Y61.35
X100.03
X99.08Y61.36
X97.99Y61.40
X97.00Y61.46
X96.05Y61.55
X95.10Y61.66
X94.10Y61.80
X93.17Y61.95
X92.71Y62.03
X91.69Y62.24
X91.30Y62.33
X90.31Y62.57
X89.90Y62.68
X89.00Y62.94
X87.98Y63.25
X87.17Y63.53
X86.26Y63.86
X85.39Y64.20
X84.50Y64.58
X83.63Y64.97
X83.30Y65.13
X82.42Y65.57
X81.59Y66.00
X80.79Y66.45
X79.93Y66.96
X79.60Y67.16
X78.77Y67.69
X78.43Y67.92
X77.98Y68.23
X77.25Y68.75
X76.87Y69.03
X76.14Y69.59
X75.45Y70.15
X74.69Y70.79
X74.37Y71.07
X73.68Y71.70
X73.31Y72.05
X73.05Y72.29
X72.29Y73.05
X70.05Y70.81
X69.39Y71.50
X68.68Y72.28
X68.40Y72.60
X67.72Y73.39
X67.08Y74.19
X66.49Y74.96
X66.20Y75.35
X65.61Y76.19
X65.02Y77.06
X64.78Y77.44
X64.24Y78.30
X63.69Y79.22
X63.48Y79.59
X62.99Y80.50
X62.74Y80.98
X62.29Y81.89
X62.09Y82.29
X61.66Y83.27
X61.28Y84.16
X60.88Y85.18
X60.55Y86.08
X60.22Y87.05
X59.91Y88.03
X59.76Y88.56
X59.49Y89.53
X59.24Y90.59
X59.13Y91.08
X59.03Y91.53
X58.82Y92.61
X58.65Y93.64
X58.51Y94.69
X58.39Y95.74
X58.30Y96.80
X58.23Y97.83
X58.19Y98.96
X58.18Y99.42
X58.17Y121.83
X73.83
Y99.96
Y99.35
X73.86Y98.63
X73.90Y98.00
X73.96Y97.35
X74.04Y96.64
X74.13Y96.02
X74.24Y95.34
X74.36Y94.72
X74.49Y94.12
X74.64Y93.49
X74.82Y92.82
X74.99Y92.24
X75.21Y91.58
X75.42Y90.97
X75.65Y90.38
X75.88Y89.81
X76.14Y89.22
X76.40Y88.67
X76.70Y88.05
X77.00Y87.49
X77.30Y86.96
X77.63Y86.40
X77.96Y85.87
X78.31Y85.34
X78.65Y84.86
X79.03Y84.33
X79.41Y83.84
X79.80Y83.35
X80.19Y82.89
X80.64Y82.38
X81.04Y81.95
X81.52Y81.46
X81.92Y81.07
X82.42Y80.61
X82.88Y80.20
X83.32Y79.82
X83.86Y79.39
X84.35Y79.02
X84.86Y78.65
X85.38Y78.29
X85.86Y77.97
X86.40Y77.63
X86.96Y77.30
X87.50Y77.00
X88.05Y76.70
X88.64Y76.41
X89.19Y76.15
X89.79Y75.89
X90.41Y75.64
X90.99Y75.42
X91.58Y75.21
X92.25Y74.99
X92.81Y74.83
X93.46Y74.65
X94.11Y74.49
X94.75Y74.35
X95.36Y74.23
X95.98Y74.13
X96.64Y74.04
X97.33Y73.96
X98.00Y73.90
X98.63Y73.86
X99.36Y73.83
X99.96
X121.83
Y58.17
X100.02
X99.43Y58.18
X98.96Y58.19
X97.83Y58.23
X96.78Y58.30
X95.72Y58.39
X95.17Y58.45
X94.67Y58.51
X93.64Y58.65
X92.59Y58.83
X92.11Y58.92
X91.05Y59.13
X90.57Y59.24
X89.53Y59.49
X89.03Y59.63
X88.09Y59.89
X87.03Y60.22
X86.10Y60.54
X85.64Y60.70
X85.12Y60.90
X84.18Y61.27
X83.27Y61.66
X82.29Y62.09
X81.90Y62.28
X80.96Y62.75
X80.08Y63.21
X79.22Y63.69
X78.30Y64.24
X77.89Y64.49
X77.03Y65.04
X76.63Y65.31
X76.19Y65.61
X75.37Y66.19
X74.98Y66.48
X74.19Y67.08
X73.39Y67.72
X72.60Y68.40
X72.28Y68.68
X71.50Y69.39
X71.13Y69.74
X70.81Y70.05
X70.05Y70.81
Z12.70
G0X74.56Y75.28
Z-7.89
G1Z-8.92F254.0
X74.01Y75.86F1524.0
X73.46Y76.46
X73.17Y76.78
X72.60Y77.47
X72.09Y78.09
X71.37Y79.05
X70.83Y79.80
X70.29Y80.60
X69.63Y81.64
X69.22Y82.34
X69.01Y82.72
X68.62Y83.44
X68.37Y83.92
X68.03Y84.61
X67.83Y85.01
X67.48Y85.79
X67.18Y86.51
X66.78Y87.51
X66.66Y87.85
X66.56Y88.12
X66.24Y89.05
X66.01Y89.80
X65.86Y90.33
X65.64Y91.13
X65.42Y92.04
X65.27Y92.75
X65.07Y93.73
X64.94Y94.57
X64.81Y95.50
X64.70Y96.40
X64.63Y97.24
X64.57Y98.14
X64.53Y99.42
Y115.47
X67.47
Y99.89
X67.48Y99.17
X67.52Y98.32
X67.56Y97.55
X67.64Y96.72
X67.74Y95.81
X67.84Y95.09
X67.99Y94.23
X68.13Y93.47
X68.30Y92.69
X68.50Y91.87
X68.73Y91.03
X68.93Y90.35
X69.17Y89.63
X69.46Y88.79
X69.75Y88.04
X70.05Y87.31
X70.36Y86.59
X70.67Y85.92
X71.04Y85.19
X71.41Y84.48
X71.78Y83.81
X72.22Y83.08
X72.66Y82.38
X73.05Y81.79
X73.44Y81.22
X73.94Y80.54
X74.39Y79.95
X74.87Y79.35
X75.43Y78.68
X75.95Y78.10
X76.43Y77.58
X77.05Y76.95
X77.55Y76.46
X78.10Y75.95
X78.69Y75.42
X79.27Y74.93
X79.93Y74.41
X80.58Y73.91
X81.23Y73.44
X81.84Y73.01
X82.41Y72.64
X83.13Y72.19
X83.81Y71.78
X84.44Y71.43
X85.20Y71.03
X85.87Y70.70
X86.58Y70.36
X87.31Y70.04
X88.11Y69.72
X88.78Y69.46
X89.62Y69.17
X90.42Y68.91
X91.00Y68.74
X91.89Y68.50
X92.73Y68.29
X93.51Y68.12
X94.25Y67.98
X94.99Y67.86
X95.82Y67.74
X96.72Y67.64
X97.58Y67.56
X98.38Y67.51
X99.16Y67.48
X99.89Y67.47
X115.47
Y64.53
X100.06
X99.16
X98.15Y64.57
X97.22Y64.63
X96.39Y64.71
X95.51Y64.81
X94.56Y64.94
X93.73Y65.07
X93.33Y65.15
X92.36Y65.35
X92.00Y65.43
X91.13Y65.64
X90.74Y65.74
X89.91Y65.98
X88.96Y66.27
X88.22Y66.52
X87.39Y66.83
X86.58Y67.15
X85.79Y67.48
X84.97Y67.85
X84.69Y67.99
X83.88Y68.39
X83.11Y68.80
X82.36Y69.21
X81.59Y69.67
X81.27Y69.86
X80.52Y70.35
X80.22Y70.55
X79.78Y70.85
X79.13Y71.31
X78.81Y71.55
X78.07Y72.11
X77.49Y72.58
X76.78Y73.17
X76.46Y73.46
X75.86Y74.01
X75.49Y74.36
X75.28Y74.56
X74.56Y75.28
X72.29Y73.05
X71.70Y73.68
X71.07Y74.37
X70.79Y74.69
X70.17Y75.42
X69.58Y76.15
X69.01Y76.89
X68.79Y77.19
X68.22Y78.00
X67.65Y78.84
X67.47Y79.12
X66.93Y79.98
X66.46Y80.78
X66.25Y81.15
X65.80Y81.97
X65.55Y82.45
X65.16Y83.25
X64.96Y83.65
X64.57Y84.52
X64.23Y85.32
X63.83Y86.34
X63.55Y87.10
X63.24Y88.03
X62.96Y88.91
X62.81Y89.45
X62.57Y90.32
X62.32Y91.34
X62.15Y92.13
X61.95Y93.18
X61.80Y94.09
X61.66Y95.09
X61.55Y96.05
X61.46Y97.04
X61.40Y97.99
X61.36Y99.08
X61.35Y99.42
Y118.65
X70.65
Y99.93
X70.66Y99.26
X70.69Y98.46
X70.73Y97.77
X70.80Y97.04
X70.89Y96.24
X70.98Y95.58
X71.12Y94.76
X71.24Y94.10
X71.39Y93.42
X71.56Y92.70
X71.78Y91.92
X71.96Y91.30
X72.19Y90.60
X72.44Y89.88
X72.70Y89.19
X72.97Y88.54
X73.25Y87.91
X73.53Y87.30
X73.86Y86.64
X74.22Y85.96
X74.54Y85.39
X74.91Y84.76
X75.31Y84.13
X75.69Y83.55
X76.04Y83.04
X76.50Y82.41
X76.89Y81.90
X77.34Y81.35
X77.80Y80.79
X78.32Y80.22
X78.75Y79.75
X79.27Y79.22
X79.74Y78.77
X80.27Y78.27
X80.79Y77.80
X81.29Y77.38
X81.90Y76.89
X82.46Y76.46
X83.04Y76.04
X83.61Y75.65
X84.13Y75.30
X84.77Y74.90
X85.38Y74.54
X85.95Y74.23
X86.64Y73.86
X87.26Y73.55
X87.91Y73.25
X88.58Y72.95
X89.25Y72.68
X89.88Y72.44
X90.60Y72.19
X91.33Y71.95
X91.91Y71.78
X92.70Y71.56
X93.44Y71.39
X94.13Y71.24
X94.81Y71.11
X95.50Y70.99
X96.23Y70.89
X97.02Y70.80
X97.78Y70.73
X98.51Y70.69
X99.26Y70.66
X99.93Y70.65
X118.65
Y61.35
X100.03
X99.08Y61.36
X97.99Y61.40
X97.00Y61.46
X96.05Y61.55
X95.10Y61.66
X94.10Y61.80
X93.17Y61.95
X92.71Y62.03
X91.69Y62.24
X91.30Y62.33
X90.31Y62.57
X89.90Y62.68
X89.00Y62.94
X87.98Y63.25
X87.17Y63.53
X86.26Y63.86
X85.39Y64.20
X84.50Y64.58
X83.63Y64.97
X83.30Y65.13
X82.42Y65.57
X81.59Y66.00
X80.79Y66.45
X79.93Y66.96
X79.60Y67.16
X78.77Y67.69
X78.43Y67.92
X77.98Y68.23
X77.25Y68.75
X76.87Y69.03
X76.14Y69.59
X75.45Y70.15
X74.69Y70.79
X74.37Y71.07
X73.68Y71.70
X73.31Y72.05
X73.05Y72.29
X72.29Y73.05
X70.05Y70.81
X69.39Y71.50
X68.68Y72.28
X68.40Y72.60
X67.72Y73.39
X67.08Y74.19
X66.49Y74.96
X66.20Y75.35
X65.61Y76.19
X65.02Y77.06
X64.78Y77.44
X64.24Y78.30
X63.69Y79.22
X63.48Y79.59
X62.99Y80.50
X62.74Y80.98
X62.29Y81.89
X62.09Y82.29
X61.66Y83.27
X61.28Y84.16
X60.88Y85.18
X60.55Y86.08
X60.22Y87.05
X59.91Y88.03
X59.76Y88.56
X59.49Y89.53
X59.24Y90.59
X59.13Y91.08
X59.03Y91.53
X58.82Y92.61
X58.65Y93.64
X58.51Y94.69
X58.39Y95.74
X58.30Y96.80
X58.23Y97.83
X58.19Y98.96
X58.18Y99.42
X58.17Y121.83
X73.83
Y99.96
Y99.35
X73.86Y98.63
X73.90Y98.00
X73.96Y97.35
X74.04Y96.64
X74.13Y96.02
X74.24Y95.34
X74.36Y94.72
X74.49Y94.12
X74.64Y93.49
X74.82Y92.82
X74.99Y92.24
X75.21Y91.58
X75.42Y90.97
X75.65Y90.38
X75.88Y89.81
X76.14Y89.22
X76.40Y88.67
X76.70Y88.05
X77.00Y87.49
X77.30Y86.96
X77.63Y86.40
X77.96Y85.87
X78.31Y85.34
X78.65Y84.86
X79.03Y84.33
X79.41Y83.84
X79.80Y83.35
X80.19Y82.89
X80.64Y82.38
X81.04Y81.95
X81.52Y81.46
X81.92Y81.07
X82.42Y80.61
X82.88Y80.20
X83.32Y79.82
X83.86Y79.39
X84.35Y79.02
X84.86Y78.65
X85.38Y78.29
X85.86Y77.97
X86.40Y77.63
X86.96Y77.30
X87.50Y77.00
X88.05Y76.70
X88.64Y76.41
X89.19Y76.15
X89.79Y75.89
X90.41Y75.64
X90.99Y75.42
X91.58Y75.21
X92.25Y74.99
X92.81Y74.83
X93.46Y74.65
X94.11Y74.49
X94.75Y74.35
X95.36Y74.23
X95.98Y74.13
X96.64Y74.04
X97.33Y73.96
X98.00Y73.90
X98.63Y73.86
X99.36Y73.83
X99.96
X121.83
Y58.17
X100.02
X99.43Y58.18
X98.96Y58.19
X97.83Y58.23
X96.78Y58.30
X95.72Y58.39
X95.17Y58.45
X94.67Y58.51
X93.64Y58.65
X92.59Y58.83
X92.11Y58.92
X91.05Y59.13
X90.57Y59.24
X89.53Y59.49
X89.03Y59.63
X88.09Y59.89
X87.03Y60.22
X86.10Y60.54
X85.64Y60.70
X85.12Y60.90
X84.18Y61.27
X83.27Y61.66
X82.29Y62.09
X81.90Y62.28
X80.96Y62.75
X80.08Y63.21
X79.22Y63.69
X78.30Y64.24
X77.89Y64.49
X77.03Y65.04
X76.63Y65.31
X76.19Y65.61
X75.37Y66.19
X74.98Y66.48
X74.19Y67.08
X73.39Y67.72
X72.60Y68.40
X72.28Y68.68
X71.50Y69.39
X71.13Y69.74
X70.81Y70.05
X70.05Y70.81
Z12.70
G0X74.56Y75.28
Z-8.58
G1Z-9.60F254.0
X74.01Y75.86F1524.0
X73.46Y76.46
X73.17Y76.78
X72.60Y77.47
X72.09Y78.09
X71.37Y79.05
X70.83Y79.80
X70.29Y80.60
X69.63Y81.64
X69.22Y82.34
X69.01Y82.72
X68.62Y83.44
X68.37Y83.92
X68.03Y84.61
X67.83Y85.01
X67.48Y85.79
X67.18Y86.51
X66.78Y87.51
X66.66Y87.85
X66.56Y88.12
X66.24Y89.05
X66.01Y89.80
X65.86Y90.33
X65.64Y91.13
X65.42Y92.04
X65.27Y92.75
X65.07Y93.73
X64.94Y94.57
X64.81Y95.50
X64.70Y96.40
X64.63Y97.24
X64.57Y98.14
X64.53Y99.42
Y115.47
X67.47
Y99.89
X67.48Y99.17
X67.52Y98.32
X67.56Y97.55
X67.64Y96.72
X67.74Y95.81
X67.84Y95.09
X67.99Y94.23
X68.13Y93.47
X68.30Y92.69
X68.50Y91.87
X68.73Y91.03
X68.93Y90.35
X69.17Y89.63
X69.46Y88.79
X69.75Y88.04
X70.05Y87.31
X70.36Y86.59
X70.67Y85.92
X71.04Y85.19
X71.41Y84.48
X71.78Y83.81
X72.22Y83.08
X72.66Y82.38
X73.05Y81.79
X73.44Y81.22
X73.94Y80.54
X74.39Y79.95
X74.87Y79.35
X75.43Y78.68
X75.95Y78.10
X76.43Y77.58
X77.05Y76.95
X77.55Y76.46
X78.10Y75.95
X78.69Y75.42
X79.27Y74.93
X79.93Y74.41
X80.58Y73.91
X81.23Y73.44
X81.84Y73.01
X82.41Y72.64
X83.13Y72.19
X83.81Y71.78
X84.44Y71.43
X85.20Y71.03
X85.87Y70.70
X86.58Y70.36
X87.31Y70.04
X88.11Y69.72
X88.78Y69.46
X89.62Y69.17
X90.42Y68.91
X91.00Y68.74
X91.89Y68.50
X92.73Y68.29
X93.51Y68.12
X94.25Y67.98
X94.99Y67.86
X95.82Y67.74
X96.72Y67.64
X97.58Y67.56
X98.38Y67.51
X99.16Y67.48
X99.89Y67.47
X115.47
Y64.53
X100.06
X99.16
X98.15Y64.57
X97.22Y64.63
X96.39Y64.71
X95.51Y64.81
X94.56Y64.94
X93.73Y65.07
X93.33Y65.15
X92.36Y65.35
X92.00Y65.43
X91.13Y65.64
X90.74Y65.74
X89.91Y65.98
X88.96Y66.27
X88.22Y66.52
X87.39Y66.83
X86.58Y67.15
X85.79Y67.48
X84.97Y67.85
X84.69Y67.99
X83.88Y68.39
X83.11Y68.80
X82.36Y69.21
X81.59Y69.67
X81.27Y69.86
X80.52Y70.35
X80.22Y70.55
X79.78Y70.85
X79.13Y71.31
X78.81Y71.55
X78.07Y72.11
X77.49Y72.58
X76.78Y73.17
X76.46Y73.46
X75.86Y74.01
X75.49Y74.36
X75.28Y74.56
X74.56Y75.28
X72.29Y73.05
X71.70Y73.68
X71.07Y74.37
X70.79Y74.69
X70.17Y75.42
X69.58Y76.15
X69.01Y76.89
X68.79Y77.19
X68.22Y78.00
X67.65Y78.84
X67.47Y79.12
X66.93Y79.98
X66.46Y80.78
X66.25Y81.15
X65.80Y81.97
X65.55Y82.45
X65.16Y83.25
X64.96Y83.65
X64.57Y84.52
X64.23Y85.32
X63.83Y86.34
X63.55Y87.10
X63.24Y88.03
X62.96Y88.91
X62.81Y89.45
X62.57Y90.32
X62.32Y91.34
X62.15Y92.13
X61.95Y93.18
X61.80Y94.09
X61.66Y95.09
X61.55Y96.05
X61.46Y97.04
X61.40Y97.99
X61.36Y99.08
X61.35Y99.42
Y118.65
X70.65
Y99.93
X70.66Y99.26
X70.69Y98.46
X70.73Y97.77
X70.80Y97.04
X70.89Y96.24
X70.98Y95.58
X71.12Y94.76
X71.24Y94.10
X71.39Y93.42
X71.56Y92.70
X71.78Y91.92
X71.96Y91.30
X72.19Y90.60
X72.44Y89.88
X72.70Y89.19
X72.97Y88.54
X73.25Y87.91
X73.53Y87.30
X73.86Y86.64
X74.22Y85.96
X74.54Y85.39
X74.91Y84.76
X75.31Y84.13
X75.69Y83.55
X76.04Y83.04
X76.50Y82.41
X76.89Y81.90
X77.34Y81.35
X77.80Y80.79
X78.32Y80.22
X78.75Y79.75
X79.27Y79.22
X79.74Y78.77
X80.27Y78.27
X80.79Y77.80
X81.29Y77.38
X81.90Y76.89
X82.46Y76.46
X83.04Y76.04
X83.61Y75.65
X84.13Y75.30
X84.77Y74.90
X85.38Y74.54
X85.95Y74.23
X86.64Y73.86
X87.26Y73.55
X87.91Y73.25
X88.58Y72.95
X89.25Y72.68
X89.88Y72.44
X90.60Y72.19
X91.33Y71.95
X91.91Y71.78
X92.70Y71.56
X93.44Y71.39
X94.13Y71.24
X94.81Y71.11
X95.50Y70.99
X96.23Y70.89
X97.02Y70.80
X97.78Y70.73
X98.51Y70.69
X99.26Y70.66
X99.93Y70.65
X118.65
Y61.35
X100.03
X99.08Y61.36
X97.99Y61.40
X97.00Y61.46
X96.05Y61.55
X95.10Y61.66
X94.10Y61.80
X93.17Y61.95
X92.71Y62.03
X91.69Y62.24
X91.30Y62.33
X90.31Y62.57
X89.90Y62.68
X89.00Y62.94
X87.98Y63.25
X87.17Y63.53
X86.26Y63.86
X85.39Y64.20
X84.50Y64.58
X83.63Y64.97
X83.30Y65.13
X82.42Y65.57
X81.59Y66.00
X80.79Y66.45
X79.93Y66.96
X79.60Y67.16
X78.77Y67.69
X78.43Y67.92
X77.98Y68.23
X77.25Y68.75
X76.87Y69.03
X76.14Y69.59
X75.45Y70.15
X74.69Y70.79
X74.37Y71.07
X73.68Y71.70
X73.31Y72.05
X73.05Y72.29
X72.29Y73.05
X70.05Y70.81
X69.39Y71.50
X68.68Y72.28
X68.40Y72.60
X67.72Y73.39
X67.08Y74.19
X66.49Y74.96
X66.20Y75.35
X65.61Y76.19
X65.02Y77.06
X64.78Y77.44
X64.24Y78.30
X63.69Y79.22
X63.48Y79.59
X62.99Y80.50
X62.74Y80.98
X62.29Y81.89
X62.09Y82.29
X61.66Y83.27
X61.28Y84.16
X60.88Y85.18
X60.55Y86.08
X60.22Y87.05
X59.91Y88.03
X59.76Y88.56
X59.49Y89.53
X59.24Y90.59
X59.13Y91.08
X59.03Y91.53
X58.82Y92.61
X58.65Y93.64
X58.51Y94.69
X58.39Y95.74
X58.30Y96.80
X58.23Y97.83
X58.19Y98.96
X58.18Y99.42
X58.17Y121.83
X73.83
Y99.96
Y99.35
X73.86Y98.63
X73.90Y98.00
X73.96Y97.35
X74.04Y96.64
X74.13Y96.02
X74.24Y95.34
X74.36Y94.72
X74.49Y94.12
X74.64Y93.49
X74.82Y92.82
X74.99Y92.24
X75.21Y91.58
X75.42Y90.97
X75.65Y90.38
X75.88Y89.81
X76.14Y89.22
X76.40Y88.67
X76.70Y88.05
X77.00Y87.49
X77.30Y86.96
X77.63Y86.40
X77.96Y85.87
X78.31Y85.34
X78.65Y84.86
X79.03Y84.33
X79.41Y83.84
X79.80Y83.35
X80.19Y82.89
X80.64Y82.38
X81.04Y81.95
X81.52Y81.46
X81.92Y81.07
X82.42Y80.61
X82.88Y80.20
X83.32Y79.82
X83.86Y79.39
X84.35Y79.02
X84.86Y78.65
X85.38Y78.29
X85.86Y77.97
X86.40Y77.63
X86.96Y77.30
X87.50Y77.00
X88.05Y76.70
X88.64Y76.41
X89.19Y76.15
X89.79Y75.89
X90.41Y75.64
X90.99Y75.42
X91.58Y75.21
X92.25Y74.99
X92.81Y74.83
X93.46Y74.65
X94.11Y74.49
X94.75Y74.35
X95.36Y74.23
X95.98Y74.13
X96.64Y74.04
X97.33Y73.96
X98.00Y73.90
X98.63Y73.86
X99.36Y73.83
X99.96
X121.83
Y58.17
X100.02
X99.43Y58.18
X98.96Y58.19
X97.83Y58.23
X96.78Y58.30
X95.72Y58.39
X95.17Y58.45
X94.67Y58.51
X93.64Y58.65
X92.59Y58.83
X92.11Y58.92
X91.05Y59.13
X90.57Y59.24
X89.53Y59.49
X89.03Y59.63
X88.09Y59.89
X87.03Y60.22
X86.10Y60.54
X85.64Y60.70
X85.12Y60.90
X84.18Y61.27
X83.27Y61.66
X82.29Y62.09
X81.90Y62.28
X80.96Y62.75
X80.08Y63.21
X79.22Y63.69
X78.30Y64.24
X77.89Y64.49
X77.03Y65.04
X76.63Y65.31
X76.19Y65.61
X75.37Y66.19
X74.98Y66.48
X74.19Y67.08
X73.39Y67.72
X72.60Y68.40
X72.28Y68.68
X71.50Y69.39
X71.13Y69.74
X70.81Y70.05
X70.05Y70.81
Z12.70
G0X74.56Y75.28
Z-9.26
G1Z-10.29F254.0
X74.01Y75.86F1524.0
X73.46Y76.46
X73.17Y76.78
X72.60Y77.47
X72.09Y78.09
X71.37Y79.05
X70.83Y79.80
X70.29Y80.60
X69.63Y81.64
X69.22Y82.34
X69.01Y82.72
X68.62Y83.44
X68.37Y83.92
X68.03Y84.61
X67.83Y85.01
X67.48Y85.79
X67.18Y86.51
X66.78Y87.51
X66.66Y87.85
X66.56Y88.12
X66.24Y89.05
X66.01Y89.80
X65.86Y90.33
X65.64Y91.13
X65.42Y92.04
X65.27Y92.75
X65.07Y93.73
X64.94Y94.57
X64.81Y95.50
X64.70Y96.40
X64.63Y97.24
X64.57Y98.14
X64.53Y99.42
Y115.47
X67.47
Y99.89
X67.48Y99.17
X67.52Y98.32
X67.56Y97.55
X67.64Y96.72
X67.74Y95.81
X67.84Y95.09
X67.99Y94.23
X68.13Y93.47
X68.30Y92.69
X68.50Y91.87
X68.73Y91.03
X68.93Y90.35
X69.17Y89.63
X69.46Y88.79
X69.75Y88.04
X70.05Y87.31
X70.36Y86.59
X70.67Y85.92
X71.04Y85.19
X71.41Y84.48
X71.78Y83.81
X72.22Y83.08
X72.66Y82.38
X73.05Y81.79
X73.44Y81.22
X73.94Y80.54
X74.39Y79.95
X74.87Y79.35
X75.43Y78.68
X75.95Y78.10
X76.43Y77.58
X77.05Y76.95
X77.55Y76.46
X78.10Y75.95
X78.69Y75.42
X79.27Y74.93
X79.93Y74.41
X80.58Y73.91
X81.23Y73.44
X81.84Y73.01
X82.41Y72.64
X83.13Y72.19
X83.81Y71.78
X84.44Y71.43
X85.20Y71.03
X85.87Y70.70
X86.58Y70.36
X87.31Y70.04
X88.11Y69.72
X88.78Y69.46
X89.62Y69.17
X90.42Y68.91
X91.00Y68.74
X91.89Y68.50
X92.73Y68.29
X93.51Y68.12
X94.25Y67.98
X94.99Y67.86
X95.82Y67.74
X96.72Y67.64
X97.58Y67.56
X98.38Y67.51
X99.16Y67.48
X99.89Y67.47
X115.47
Y64.53
X100.06
X99.16
X98.15Y64.57
X97.22Y64.63
X96.39Y64.71
X95.51Y64.81
X94.56Y64.94
X93.73Y65.07
X93.33Y65.15
X92.36Y65.35
X92.00Y65.43
X91.13Y65.64
X90.74Y65.74
X89.91Y65.98
X88.96Y66.27
X88.22Y66.52
X87.39Y66.83
X86.58Y67.15
X85.79Y67.48
X84.97Y67.85
X84.69Y67.99
X83.88Y68.39
X83.11Y68.80
X82.36Y69.21
X81.59Y69.67
X81.27Y69.86
X80.52Y70.35
X80.22Y70.55
X79.78Y70.85
X79.13Y71.31
X78.81Y71.55
X78.07Y72.11
X77.49Y72.58
X76.78Y73.17
X76.46Y73.46
X75.86Y74.01
X75.49Y74.36
X75.28Y74.56
X74.56Y75.28
X72.29Y73.05
X71.70Y73.68
X71.07Y74.37
X70.79Y74.69
X70.17Y75.42
X69.58Y76.15
X69.01Y76.89
X68.79Y77.19
X68.22Y78.00
X67.65Y78.84
X67.47Y79.12
X66.93Y79.98
X66.46Y80.78
X66.25Y81.15
X65.80Y81.97
X65.55Y82.45
X65.16Y83.25
X64.96Y83.65
X64.57Y84.52
X64.23Y85.32
X63.83Y86.34
X63.55Y87.10
X63.24Y88.03
X62.96Y88.91
X62.81Y89.45
X62.57Y90.32
X62.32Y91.34
X62.15Y92.13
X61.95Y93.18
X61.80Y94.09
X61.66Y95.09
X61.55Y96.05
X61.46Y97.04
X61.40Y97.99
X61.36Y99.08
X61.35Y99.42
Y118.65
X70.65
Y99.93
X70.66Y99.26
X70.69Y98.46
X70.73Y97.77
X70.80Y97.04
X70.89Y96.24
X70.98Y95.58
X71.12Y94.76
X71.24Y94.10
X71.39Y93.42
X71.56Y92.70
X71.78Y91.92
X71.96Y91.30
X72.19Y90.60
X72.44Y89.88
X72.70Y89.19
X72.97Y88.54
X73.25Y87.91
X73.53Y87.30
X73.86Y86.64
X74.22Y85.96
X74.54Y85.39
X74.91Y84.76
X75.31Y84.13
X75.69Y83.55
X76.04Y83.04
X76.50Y82.41
X76.89Y81.90
X77.34Y81.35
X77.80Y80.79
X78.32Y80.22
X78.75Y79.75
X79.27Y79.22
X79.74Y78.77
X80.27Y78.27
X80.79Y77.80
X81.29Y77.38
X81.90Y76.89
X82.46Y76.46
X83.04Y76.04
X83.61Y75.65
X84.13Y75.30
X84.77Y74.90
X85.38Y74.54
X85.95Y74.23
X86.64Y73.86
X87.26Y73.55
X87.91Y73.25
X88.58Y72.95
X89.25Y72.68
X89.88Y72.44
X90.60Y72.19
X91.33Y71.95
X91.91Y71.78
X92.70Y71.56
X93.44Y71.39
X94.13Y71.24
X94.81Y71.11
X95.50Y70.99
X96.23Y70.89
X97.02Y70.80
X97.78Y70.73
X98.51Y70.69
X99.26Y70.66
X99.93Y70.65
X118.65
Y61.35
X100.03
X99.08Y61.36
X97.99Y61.40
X97.00Y61.46
X96.05Y61.55
X95.10Y61.66
X94.10Y61.80
X93.17Y61.95
X92.71Y62.03
X91.69Y62.24
X91.30Y62.33
X90.31Y62.57
X89.90Y62.68
X89.00Y62.94
X87.98Y63.25
X87.17Y63.53
X86.26Y63.86
X85.39Y64.20
X84.50Y64.58
X83.63Y64.97
X83.30Y65.13
X82.42Y65.57
X81.59Y66.00
X80.79Y66.45
X79.93Y66.96
X79.60Y67.16
X78.77Y67.69
X78.43Y67.92
X77.98Y68.23
X77.25Y68.75
X76.87Y69.03
X76.14Y69.59
X75.45Y70.15
X74.69Y70.79
X74.37Y71.07
X73.68Y71.70
X73.31Y72.05
X73.05Y72.29
X72.29Y73.05
X70.05Y70.81
X69.39Y71.50
X68.68Y72.28
X68.40Y72.60
X67.72Y73.39
X67.08Y74.19
X66.49Y74.96
X66.20Y75.35
X65.61Y76.19
X65.02Y77.06
X64.78Y77.44
X64.24Y78.30
X63.69Y79.22
X63.48Y79.59
X62.99Y80.50
X62.74Y80.98
X62.29Y81.89
X62.09Y82.29
X61.66Y83.27
X61.28Y84.16
X60.88Y85.18
X60.55Y86.08
X60.22Y87.05
X59.91Y88.03
X59.76Y88.56
X59.49Y89.53
X59.24Y90.59
X59.13Y91.08
X59.03Y91.53
X58.82Y92.61
X58.65Y93.64
X58.51Y94.69
X58.39Y95.74
X58.30Y96.80
X58.23Y97.83
X58.19Y98.96
X58.18Y99.42
X58.17Y121.83
X73.83
Y99.96
Y99.35
X73.86Y98.63
X73.90Y98.00
X73.96Y97.35
X74.04Y96.64
X74.13Y96.02
X74.24Y95.34
X74.36Y94.72
X74.49Y94.12
X74.64Y93.49
X74.82Y92.82
X74.99Y92.24
X75.21Y91.58
X75.42Y90.97
X75.65Y90.38
X75.88Y89.81
X76.14Y89.22
X76.40Y88.67
X76.70Y88.05
X77.00Y87.49
X77.30Y86.96
X77.63Y86.40
X77.96Y85.87
X78.31Y85.34
X78.65Y84.86
X79.03Y84.33
X79.41Y83.84
X79.80Y83.35
X80.19Y82.89
X80.64Y82.38
X81.04Y81.95
X81.52Y81.46
X81.92Y81.07
X82.42Y80.61
X82.88Y80.20
X83.32Y79.82
X83.86Y79.39
X84.35Y79.02
X84.86Y78.65
X85.38Y78.29
X85.86Y77.97
X86.40Y77.63
X86.96Y77.30
X87.50Y77.00
X88.05Y76.70
X88.64Y76.41
X89.19Y76.15
X89.79Y75.89
X90.41Y75.64
X90.99Y75.42
X91.58Y75.21
X92.25Y74.99
X92.81Y74.83
X93.46Y74.65
X94.11Y74.49
X94.75Y74.35
X95.36Y74.23
X95.98Y74.13
X96.64Y74.04
X97.33Y73.96
X98.00Y73.90
X98.63Y73.86
X99.36Y73.83
X99.96
X121.83
Y58.17
X100.02
X99.43Y58.18
X98.96Y58.19
X97.83Y58.23
X96.78Y58.30
X95.72Y58.39
X95.17Y58.45
X94.67Y58.51
X93.64Y58.65
X92.59Y58.83
X92.11Y58.92
X91.05Y59.13
X90.57Y59.24
X89.53Y59.49
X89.03Y59.63
X88.09Y59.89
X87.03Y60.22
X86.10Y60.54
X85.64Y60.70
X85.12Y60.90
X84.18Y61.27
X83.27Y61.66
X82.29Y62.09
X81.90Y62.28
X80.96Y62.75
X80.08Y63.21
X79.22Y63.69
X78.30Y64.24
X77.89Y64.49
X77.03Y65.04
X76.63Y65.31
X76.19Y65.61
X75.37Y66.19
X74.98Y66.48
X74.19Y67.08
X73.39Y67.72
X72.60Y68.40
X72.28Y68.68
X71.50Y69.39
X71.13Y69.74
X70.81Y70.05
X70.05Y70.81
Z12.70
G0X74.56Y75.28
Z-9.95
G1Z-10.98F254.0
X74.01Y75.86F1524.0
X73.46Y76.46
X73.17Y76.78
X72.60Y77.47
X72.09Y78.09
X71.37Y79.05
X70.83Y79.80
X70.29Y80.60
X69.63Y81.64
X69.22Y82.34
X69.01Y82.72
X68.62Y83.44
X68.37Y83.92
X68.03Y84.61
X67.83Y85.01
X67.48Y85.79
X67.18Y86.51
X66.78Y87.51
X66.66Y87.85
X66.56Y88.12
X66.24Y89.05
X66.01Y89.80
X65.86Y90.33
X65.64Y91.13
X65.42Y92.04
X65.27Y92.75
X65.07Y93.73
X64.94Y94.57
X64.81Y95.50
X64.70Y96.40
X64.63Y97.24
X64.57Y98.14
X64.53Y99.42
Y115.47
X67.47
Y99.89
X67.48Y99.17
X67.52Y98.32
X67.56Y97.55
X67.64Y96.72
X67.74Y95.81
X67.84Y95.09
X67.99Y94.23
X68.13Y93.47
X68.30Y92.69
X68.50Y91.87
X68.73Y91.03
X68.93Y90.35
X69.17Y89.63
X69.46Y88.79
X69.75Y88.04
X70.05Y87.31
X70.36Y86.59
X70.67Y85.92
X71.04Y85.19
X71.41Y84.48
X71.78Y83.81
X72.22Y83.08
X72.66Y82.38
X73.05Y81.79
X73.44Y81.22
X73.94Y80.54
X74.39Y79.95
X74.87Y79.35
X75.43Y78.68
X75.95Y78.10
X76.43Y77.58
X77.05Y76.95
X77.55Y76.46
X78.10Y75.95
X78.69Y75.42
X79.27Y74.93
X79.93Y74.41
X80.58Y73.91
X81.23Y73.44
X81.84Y73.01
X82.41Y72.64
X83.13Y72.19
X83.81Y71.78
X84.44Y71.43
X85.20Y71.03
X85.87Y70.70
X86.58Y70.36
X87.31Y70.04
X88.11Y69.72
X88.78Y69.46
X89.62Y69.17
X90.42Y68.91
X91.00Y68.74
X91.89Y68.50
X92.73Y68.29
X93.51Y68.12
X94.25Y67.98
X94.99Y67.86
X95.82Y67.74
X96.72Y67.64
X97.58Y67.56
X98.38Y67.51
X99.16Y67.48
X99.89Y67.47
X115.47
Y64.53
X100.06
X99.16
X98.15Y64.57
X97.22Y64.63
X96.39Y64.71
X95.51Y64.81
X94.56Y64.94
X93.73Y65.07
X93.33Y65.15
X92.36Y65.35
X92.00Y65.43
X91.13Y65.64
X90.74Y65.74
X89.91Y65.98
X88.96Y66.27
X88.22Y66.52
X87.39Y66.83
X86.58Y67.15
X85.79Y67.48
X84.97Y67.85
X84.69Y67.99
X83.88Y68.39
X83.11Y68.80
X82.36Y69.21
X81.59Y69.67
X81.27Y69.86
X80.52Y70.35
X80.22Y70.55
X79.78Y70.85
X79.13Y71.31
X78.81Y71.55
X78.07Y72.11
X77.49Y72.58
X76.78Y73.17
X76.46Y73.46
X75.86Y74.01
X75.49Y74.36
X75.28Y74.56
X74.56Y75.28
X72.29Y73.05
X71.70Y73.68
X71.07Y74.37
X70.79Y74.69
X70.17Y75.42
X69.58Y76.15
X69.01Y76.89
X68.79Y77.19
X68.22Y78.00
X67.65Y78.84
X67.47Y79.12
X66.93Y79.98
X66.46Y80.78
X66.25Y81.15
X65.80Y81.97
X65.55Y82.45
X65.16Y83.25
X64.96Y83.65
X64.57Y84.52
X64.23Y85.32
X63.83Y86.34
X63.55Y87.10
X63.24Y88.03
X62.96Y88.91
X62.81Y89.45
X62.57Y90.32
X62.32Y91.34
X62.15Y92.13
X61.95Y93.18
X61.80Y94.09
X61.66Y95.09
X61.55Y96.05
X61.46Y97.04
X61.40Y97.99
X61.36Y99.08
X61.35Y99.42
Y118.65
X70.65
Y99.93
X70.66Y99.26
X70.69Y98.46
X70.73Y97.77
X70.80Y97.04
X70.89Y96.24
X70.98Y95.58
X71.12Y94.76
X71.24Y94.10
X71.39Y93.42
X71.56Y92.70
X71.78Y91.92
X71.96Y91.30
X72.19Y90.60
X72.44Y89.88
X72.70Y89.19
X72.97Y88.54
X73.25Y87.91
X73.53Y87.30
X73.86Y86.64
X74.22Y85.96
X74.54Y85.39
X74.91Y84.76
X75.31Y84.13
X75.69Y83.55
X76.04Y83.04
X76.50Y82.41
X76.89Y81.90
X77.34Y81.35
X77.80Y80.79
X78.32Y80.22
X78.75Y79.75
X79.27Y79.22
X79.74Y78.77
X80.27Y78.27
X80.79Y77.80
X81.29Y77.38
X81.90Y76.89
X82.46Y76.46
X83.04Y76.04
X83.61Y75.65
X84.13Y75.30
X84.77Y74.90
X85.38Y74.54
X85.95Y74.23
X86.64Y73.86
X87.26Y73.55
X87.91Y73.25
X88.58Y72.95
X89.25Y72.68
X89.88Y72.44
X90.60Y72.19
X91.33Y71.95
X91.91Y71.78
X92.70Y71.56
X93.44Y71.39
X94.13Y71.24
X94.81Y71.11
X95.50Y70.99
X96.23Y70.89
X97.02Y70.80
X97.78Y70.73
X98.51Y70.69
X99.26Y70.66
X99.93Y70.65
X118.65
Y61.35
X100.03
X99.08Y61.36
X97.99Y61.40
X97.00Y61.46
X96.05Y61.55
X95.10Y61.66
X94.10Y61.80
X93.17Y61.95
X92.71Y62.03
X91.69Y62.24
X91.30Y62.33
X90.31Y62.57
X89.90Y62.68
X89.00Y62.94
X87.98Y63.25
X87.17Y63.53
X86.26Y63.86
X85.39Y64.20
X84.50Y64.58
X83.63Y64.97
X83.30Y65.13
X82.42Y65.57
X81.59Y66.00
X80.79Y66.45
X79.93Y66.96
X79.60Y67.16
X78.77Y67.69
X78.43Y67.92
X77.98Y68.23
X77.25Y68.75
X76.87Y69.03
X76.14Y69.59
X75.45Y70.15
X74.69Y70.79
X74.37Y71.07
X73.68Y71.70
X73.31Y72.05
X73.05Y72.29
X72.29Y73.05
X70.05Y70.81
X69.39Y71.50
X68.68Y72.28
X68.40Y72.60
X67.72Y73.39
X67.08Y74.19
X66.49Y74.96
X66.20Y75.35
X65.61Y76.19
X65.02Y77.06
X64.78Y77.44
X64.24Y78.30
X63.69Y79.22
X63.48Y79.59
X62.99Y80.50
X62.74Y80.98
X62.29Y81.89
X62.09Y82.29
X61.66Y83.27
X61.28Y84.16
X60.88Y85.18
X60.55Y86.08
X60.22Y87.05
X59.91Y88.03
X59.76Y88.56
X59.49Y89.53
X59.24Y90.59
X59.13Y91.08
X59.03Y91.53
X58.82Y92.61
X58.65Y93.64
X58.51Y94.69
X58.39Y95.74
X58.30Y96.80
X58.23Y97.83
X58.19Y98.96
X58.18Y99.42
X58.17Y121.83
X73.83
Y99.96
Y99.35
X73.86Y98.63
X73.90Y98.00
X73.96Y97.35
X74.04Y96.64
X74.13Y96.02
X74.24Y95.34
X74.36Y94.72
X74.49Y94.12
X74.64Y93.49
X74.82Y92.82
X74.99Y92.24
X75.21Y91.58
X75.42Y90.97
X75.65Y90.38
X75.88Y89.81
X76.14Y89.22
X76.40Y88.67
X76.70Y88.05
X77.00Y87.49
X77.30Y86.96
X77.63Y86.40
X77.96Y85.87
X78.31Y85.34
X78.65Y84.86
X79.03Y84.33
X79.41Y83.84
X79.80Y83.35
X80.19Y82.89
X80.64Y82.38
X81.04Y81.95
X81.52Y81.46
X81.92Y81.07
X82.42Y80.61
X82.88Y80.20
X83.32Y79.82
X83.86Y79.39
X84.35Y79.02
X84.86Y78.65
X85.38Y78.29
X85.86Y77.97
X86.40Y77.63
X86.96Y77.30
X87.50Y77.00
X88.05Y76.70
X88.64Y76.41
X89.19Y76.15
X89.79Y75.89
X90.41Y75.64
X90.99Y75.42
X91.58Y75.21
X92.25Y74.99
X92.81Y74.83
X93.46Y74.65
X94.11Y74.49
X94.75Y74.35
X95.36Y74.23
X95.98Y74.13
X96.64Y74.04
X97.33Y73.96
X98.00Y73.90
X98.63Y73.86
X99.36Y73.83
X99.96
X121.83
Y58.17
X100.02
X99.43Y58.18
X98.96Y58.19
X97.83Y58.23
X96.78Y58.30
X95.72Y58.39
X95.17Y58.45
X94.67Y58.51
X93.64Y58.65
X92.59Y58.83
X92.11Y58.92
X91.05Y59.13
X90.57Y59.24
X89.53Y59.49
X89.03Y59.63
X88.09Y59.89
X87.03Y60.22
X86.10Y60.54
X85.64Y60.70
X85.12Y60.90
X84.18Y61.27
X83.27Y61.66
X82.29Y62.09
X81.90Y62.28
X80.96Y62.75
X80.08Y63.21
X79.22Y63.69
X78.30Y64.24
X77.89Y64.49
X77.03Y65.04
X76.63Y65.31
X76.19Y65.61
X75.37Y66.19
X74.98Y66.48
X74.19Y67.08
X73.39Y67.72
X72.60Y68.40
X72.28Y68.68
X71.50Y69.39
X71.13Y69.74
X70.81Y70.05
X70.05Y70.81
Z12.70
G0X74.56Y75.28
Z-10.63
G1Z-11.66F254.0
X74.01Y75.86F1524.0
X73.46Y76.46
X73.17Y76.78
X72.60Y77.47
X72.09Y78.09
X71.37Y79.05
X70.83Y79.80
X70.29Y80.60
X69.63Y81.64
X69.22Y82.34
X69.01Y82.72
X68.62Y83.44
X68.37Y83.92
X68.03Y84.61
X67.83Y85.01
X67.48Y85.79
X67.18Y86.51
X66.78Y87.51
X66.66Y87.85
X66.56Y88.12
X66.24Y89.05
X66.01Y89.80
X65.86Y90.33
X65.64Y91.13
X65.42Y92.04
X65.27Y92.75
X65.07Y93.73
X64.94Y94.57
X64.81Y95.50
X64.70Y96.40
X64.63Y97.24
X64.57Y98.14
X64.53Y99.42
Y115.47
X67.47
Y99.89
X67.48Y99.17
X67.52Y98.32
X67.56Y97.55
X67.64Y96.72
X67.74Y95.81
X67.84Y95.09
X67.99Y94.23
X68.13Y93.47
X68.30Y92.69
X68.50Y91.87
X68.73Y91.03
X68.93Y90.35
X69.17Y89.63
X69.46Y88.79
X69.75Y88.04
X70.05Y87.31
X70.36Y86.59
X70.67Y85.92
X71.04Y85.19
X71.41Y84.48
X71.78Y83.81
X72.22Y83.08
X72.66Y82.38
X73.05Y81.79
X73.44Y81.22
X73.94Y80.54
X74.39Y79.95
X74.87Y79.35
X75.43Y78.68
X75.95Y78.10
X76.43Y77.58
X77.05Y76.95
X77.55Y76.46
X78.10Y75.95
X78.69Y75.42
X79.27Y74.93
X79.93Y74.41
X80.58Y73.91
X81.23Y73.44
X81.84Y73.01
X82.41Y72.64
X83.13Y72.19
X83.81Y71.78
X84.44Y71.43
X85.20Y71.03
X85.87Y70.70
X86.58Y70.36
X87.31Y70.04
X88.11Y69.72
X88.78Y69.46
X89.62Y69.17
X90.42Y68.91
X91.00Y68.74
X91.89Y68.50
X92.73Y68.29
X93.51Y68.12
X94.25Y67.98
X94.99Y67.86
X95.82Y67.74
X96.72Y67.64
X97.58Y67.56
X98.38Y67.51
X99.16Y67.48
X99.89Y67.47
X115.47
Y64.53
X100.06
X99.16
X98.15Y64.57
X97.22Y64.63
X96.39Y64.71
X95.51Y64.81
X94.56Y64.94
X93.73Y65.07
X93.33Y65.15
X92.36Y65.35
X92.00Y65.43
X91.13Y65.64
X90.74Y65.74
X89.91Y65.98
X88.96Y66.27
X88.22Y66.52
X87.39Y66.83
X86.58Y67.15
X85.79Y67.48
X84.97Y67.85
X84.69Y67.99
X83.88Y68.39
X83.11Y68.80
X82.36Y69.21
X81.59Y69.67
X81.27Y69.86
X80.52Y70.35
X80.22Y70.55
X79.78Y70.85
X79.13Y71.31
X78.81Y71.55
X78.07Y72.11
X77.49Y72.58
X76.78Y73.17
X76.46Y73.46
X75.86Y74.01
X75.49Y74.36
X75.28Y74.56
X74.56Y75.28
X72.29Y73.05
X71.70Y73.68
X71.07Y74.37
X70.79Y74.69
X70.17Y75.42
X69.58Y76.15
X69.01Y76.89
X68.79Y77.19
X68.22Y78.00
X67.65Y78.84
X67.47Y79.12
X66.93Y79.98
X66.46Y80.78
X66.25Y81.15
X65.80Y81.97
X65.55Y82.45
X65.16Y83.25
X64.96Y83.65
X64.57Y84.52
X64.23Y85.32
X63.83Y86.34
X63.55Y87.10
X63.24Y88.03
X62.96Y88.91
X62.81Y89.45
X62.57Y90.32
X62.32Y91.34
X62.15Y92.13
X61.95Y93.18
X61.80Y94.09
X61.66Y95.09
X61.55Y96.05
X61.46Y97.04
X61.40Y97.99
X61.36Y99.08
X61.35Y99.42
Y118.65
X70.65
Y99.93
X70.66Y99.26
X70.69Y98.46
X70.73Y97.77
X70.80Y97.04
X70.89Y96.24
X70.98Y95.58
X71.12Y94.76
X71.24Y94.10
X71.39Y93.42
X71.56Y92.70
X71.78Y91.92
X71.96Y91.30
X72.19Y90.60
X72.44Y89.88
X72.70Y89.19
X72.97Y88.54
X73.25Y87.91
X73.53Y87.30
X73.86Y86.64
X74.22Y85.96
X74.54Y85.39
X74.91Y84.76
X75.31Y84.13
X75.69Y83.55
X76.04Y83.04
X76.50Y82.41
X76.89Y81.90
X77.34Y81.35
X77.80Y80.79
X78.32Y80.22
X78.75Y79.75
X79.27Y79.22
X79.74Y78.77
X80.27Y78.27
X80.79Y77.80
X81.29Y77.38
X81.90Y76.89
X82.46Y76.46
X83.04Y76.04
X83.61Y75.65
X84.13Y75.30
X84.77Y74.90
X85.38Y74.54
X85.95Y74.23
X86.64Y73.86
X87.26Y73.55
X87.91Y73.25
X88.58Y72.95
X89.25Y72.68
X89.88Y72.44
X90.60Y72.19
X91.33Y71.95
X91.91Y71.78
X92.70Y71.56
X93.44Y71.39
X94.13Y71.24
X94.81Y71.11
X95.50Y70.99
X96.23Y70.89
X97.02Y70.80
X97.78Y70.73
X98.51Y70.69
X99.26Y70.66
X99.93Y70.65
X118.65
Y61.35
X100.03
X99.08Y61.36
X97.99Y61.40
X97.00Y61.46
X96.05Y61.55
X95.10Y61.66
X94.10Y61.80
X93.17Y61.95
X92.71Y62.03
X91.69Y62.24
X91.30Y62.33
X90.31Y62.57
X89.90Y62.68
X89.00Y62.94
X87.98Y63.25
X87.17Y63.53
X86.26Y63.86
X85.39Y64.20
X84.50Y64.58
X83.63Y64.97
X83.30Y65.13
X82.42Y65.57
X81.59Y66.00
X80.79Y66.45
X79.93Y66.96
X79.60Y67.16
X78.77Y67.69
X78.43Y67.92
X77.98Y68.23
X77.25Y68.75
X76.87Y69.03
X76.14Y69.59
X75.45Y70.15
X74.69Y70.79
X74.37Y71.07
X73.68Y71.70
X73.31Y72.05
X73.05Y72.29
X72.29Y73.05
X70.05Y70.81
X69.39Y71.50
X68.68Y72.28
X68.40Y72.60
X67.72Y73.39
X67.08Y74.19
X66.49Y74.96
X66.20Y75.35
X65.61Y76.19
X65.02Y77.06
X64.78Y77.44
X64.24Y78.30
X63.69Y79.22
X63.48Y79.59
X62.99Y80.50
X62.74Y80.98
X62.29Y81.89
X62.09Y82.29
X61.66Y83.27
X61.28Y84.16
X60.88Y85.18
X60.55Y86.08
X60.22Y87.05
X59.91Y88.03
X59.76Y88.56
X59.49Y89.53
X59.24Y90.59
X59.13Y91.08
X59.03Y91.53
X58.82Y92.61
X58.65Y93.64
X58.51Y94.69
X58.39Y95.74
X58.30Y96.80
X58.23Y97.83
X58.19Y98.96
X58.18Y99.42
X58.17Y121.83
X73.83
Y99.96
Y99.35
X73.86Y98.63
X73.90Y98.00
X73.96Y97.35
X74.04Y96.64
X74.13Y96.02
X74.24Y95.34
X74.36Y94.72
X74.49Y94.12
X74.64Y93.49
X74.82Y92.82
X74.99Y92.24
X75.21Y91.58
X75.42Y90.97
X75.65Y90.38
X75.88Y89.81
X76.14Y89.22
X76.40Y88.67
X76.70Y88.05
X77.00Y87.49
X77.30Y86.96
X77.63Y86.40
X77.96Y85.87
X78.31Y85.34
X78.65Y84.86
X79.03Y84.33
X79.41Y83.84
X79.80Y83.35
X80.19Y82.89
X80.64Y82.38
X81.04Y81.95
X81.52Y81.46
X81.92Y81.07
X82.42Y80.61
X82.88Y80.20
X83.32Y79.82
X83.86Y79.39
X84.35Y79.02
X84.86Y78.65
X85.38Y78.29
X85.86Y77.97
X86.40Y77.63
X86.96Y77.30
X87.50Y77.00
X88.05Y76.70
X88.64Y76.41
X89.19Y76.15
X89.79Y75.89
X90.41Y75.64
X90.99Y75.42
X91.58Y75.21
X92.25Y74.99
X92.81Y74.83
X93.46Y74.65
X94.11Y74.49
X94.75Y74.35
X95.36Y74.23
X95.98Y74.13
X96.64Y74.04
X97.33Y73.96
X98.00Y73.90
X98.63Y73.86
X99.36Y73.83
X99.96
X121.83
Y58.17
X100.02
X99.43Y58.18
X98.96Y58.19
X97.83Y58.23
X96.78Y58.30
X95.72Y58.39
X95.17Y58.45
X94.67Y58.51
X93.64Y58.65
X92.59Y58.83
X92.11Y58.92
X91.05Y59.13
X90.57Y59.24
X89.53Y59.49
X89.03Y59.63
X88.09Y59.89
X87.03Y60.22
X86.10Y60.54
X85.64Y60.70
X85.12Y60.90
X84.18Y61.27
X83.27Y61.66
X82.29Y62.09
X81.90Y62.28
X80.96Y62.75
X80.08Y63.21
X79.22Y63.69
X78.30Y64.24
X77.89Y64.49
X77.03Y65.04
X76.63Y65.31
X76.19Y65.61
X75.37Y66.19
X74.98Y66.48
X74.19Y67.08
X73.39Y67.72
X72.60Y68.40
X72.28Y68.68
X71.50Y69.39
X71.13Y69.74
X70.81Y70.05
X70.05Y70.81
Z12.70
G0X74.56Y75.28
Z-11.32
G1Z-12.35F254.0
X74.01Y75.86F1524.0
X73.46Y76.46
X73.17Y76.78
X72.60Y77.47
X72.09Y78.09
X71.37Y79.05
X70.83Y79.80
X70.29Y80.60
X69.63Y81.64
X69.22Y82.34
X69.01Y82.72
X68.62Y83.44
X68.37Y83.92
X68.03Y84.61
X67.83Y85.01
X67.48Y85.79
X67.18Y86.51
X66.78Y87.51
X66.66Y87.85
X66.56Y88.12
X66.24Y89.05
X66.01Y89.80
X65.86Y90.33
X65.64Y91.13
X65.42Y92.04
X65.27Y92.75
X65.07Y93.73
X64.94Y94.57
X64.81Y95.50
X64.70Y96.40
X64.63Y97.24
X64.57Y98.14
X64.53Y99.42
Y115.47
X67.47
Y99.89
X67.48Y99.17
X67.52Y98.32
X67.56Y97.55
X67.64Y96.72
X67.74Y95.81
X67.84Y95.09
X67.99Y94.23
X68.13Y93.47
X68.30Y92.69
X68.50Y91.87
X68.73Y91.03
X68.93Y90.35
X69.17Y89.63
X69.46Y88.79
X69.75Y88.04
X70.05Y87.31
X70.36Y86.59
X70.67Y85.92
X71.04Y85.19
X71.41Y84.48
X71.78Y83.81
X72.22Y83.08
X72.66Y82.38
X73.05Y81.79
X73.44Y81.22
X73.94Y80.54
X74.39Y79.95
X74.87Y79.35
X75.43Y78.68
X75.95Y78.10
X76.43Y77.58
X77.05Y76.95
X77.55Y76.46
X78.10Y75.95
X78.69Y75.42
X79.27Y74.93
X79.93Y74.41
X80.58Y73.91
X81.23Y73.44
X81.84Y73.01
X82.41Y72.64
X83.13Y72.19
X83.81Y71.78
X84.44Y71.43
X85.20Y71.03
X85.87Y70.70
X86.58Y70.36
X87.31Y70.04
X88.11Y69.72
X88.78Y69.46
X89.62Y69.17
X90.42Y68.91
X91.00Y68.74
X91.89Y68.50
X92.73Y68.29
X93.51Y68.12
X94.25Y67.98
X94.99Y67.86
X95.82Y67.74
X96.72Y67.64
X97.58Y67.56
X98.38Y67.51
X99.16Y67.48
X99.89Y67.47
X115.47
Y64.53
X100.06
X99.16
X98.15Y64.57
X97.22Y64.63
X96.39Y64.71
X95.51Y64.81
X94.56Y64.94
X93.73Y65.07
X93.33Y65.15
X92.36Y65.35
X92.00Y65.43
X91.13Y65.64
X90.74Y65.74
X89.91Y65.98
X88.96Y66.27
X88.22Y66.52
X87.39Y66.83
X86.58Y67.15
X85.79Y67.48
X84.97Y67.85
X84.69Y67.99
X83.88Y68.39
X83.11Y68.80
X82.36Y69.21
X81.59Y69.67
X81.27Y69.86
X80.52Y70.35
X80.22Y70.55
X79.78Y70.85
X79.13Y71.31
X78.81Y71.55
X78.07Y72.11
X77.49Y72.58
X76.78Y73.17
X76.46Y73.46
X75.86Y74.01
X75.49Y74.36
X75.28Y74.56
X74.56Y75.28
X72.29Y73.05
X71.70Y73.68
X71.07Y74.37
X70.79Y74.69
X70.17Y75.42
X69.58Y76.15
X69.01Y76.89
X68.79Y77.19
X68.22Y78.00
X67.65Y78.84
X67.47Y79.12
X66.93Y79.98
X66.46Y80.78
X66.25Y81.15
X65.80Y81.97
X65.55Y82.45
X65.16Y83.25
X64.96Y83.65
X64.57Y84.52
X64.23Y85.32
X63.83Y86.34
X63.55Y87.10
X63.24Y88.03
X62.96Y88.91
X62.81Y89.45
X62.57Y90.32
X62.32Y91.34
X62.15Y92.13
X61.95Y93.18
X61.80Y94.09
X61.66Y95.09
X61.55Y96.05
X61.46Y97.04
X61.40Y97.99
X61.36Y99.08
X61.35Y99.42
Y118.65
X70.65
Y99.93
X70.66Y99.26
X70.69Y98.46
X70.73Y97.77
X70.80Y97.04
X70.89Y96.24
X70.98Y95.58
X71.12Y94.76
X71.24Y94.10
X71.39Y93.42
X71.56Y92.70
X71.78Y91.92
X71.96Y91.30
X72.19Y90.60
X72.44Y89.88
X72.70Y89.19
X72.97Y88.54
X73.25Y87.91
X73.53Y87.30
X73.86Y86.64
X74.22Y85.96
X74.54Y85.39
X74.91Y84.76
X75.31Y84.13
X75.69Y83.55
X76.04Y83.04
X76.50Y82.41
X76.89Y81.90
X77.34Y81.35
X77.80Y80.79
X78.32Y80.22
X78.75Y79.75
X79.27Y79.22
X79.74Y78.77
X80.27Y78.27
X80.79Y77.80
X81.29Y77.38
X81.90Y76.89
X82.46Y76.46
X83.04Y76.04
X83.61Y75.65
X84.13Y75.30
X84.77Y74.90
X85.38Y74.54
X85.95Y74.23
X86.64Y73.86
X87.26Y73.55
X87.91Y73.25
X88.58Y72.95
X89.25Y72.68
X89.88Y72.44
X90.60Y72.19
X91.33Y71.95
X91.91Y71.78
X92.70Y71.56
X93.44Y71.39
X94.13Y71.24
X94.81Y71.11
X95.50Y70.99
X96.23Y70.89
X97.02Y70.80
X97.78Y70.73
X98.51Y70.69
X99.26Y70.66
X99.93Y70.65
X118.65
Y61.35
X100.03
X99.08Y61.36
X97.99Y61.40
X97.00Y61.46
X96.05Y61.55
X95.10Y61.66
X94.10Y61.80
X93.17Y61.95
X92.71Y62.03
X91.69Y62.24
X91.30Y62.33
X90.31Y62.57
X89.90Y62.68
X89.00Y62.94
X87.98Y63.25
X87.17Y63.53
X86.26Y63.86
X85.39Y64.20
X84.50Y64.58
X83.63Y64.97
X83.30Y65.13
X82.42Y65.57
X81.59Y66.00
X80.79Y66.45
X79.93Y66.96
X79.60Y67.16
X78.77Y67.69
X78.43Y67.92
X77.98Y68.23
X77.25Y68.75
X76.87Y69.03
X76.14Y69.59
X75.45Y70.15
X74.69Y70.79
X74.37Y71.07
X73.68Y71.70
X73.31Y72.05
X73.05Y72.29
X72.29Y73.05
X70.05Y70.81
X69.39Y71.50
X68.68Y72.28
X68.40Y72.60
X67.72Y73.39
X67.08Y74.19
X66.49Y74.96
X66.20Y75.35
X65.61Y76.19
X65.02Y77.06
X64.78Y77.44
X64.24Y78.30
X63.69Y79.22
X63.48Y79.59
X62.99Y80.50
X62.74Y80.98
X62.29Y81.89
X62.09Y82.29
X61.66Y83.27
X61.28Y84.16
X60.88Y85.18
X60.55Y86.08
X60.22Y87.05
X59.91Y88.03
X59.76Y88.56
X59.49Y89.53
X59.24Y90.59
X59.13Y91.08
X59.03Y91.53
X58.82Y92.61
X58.65Y93.64
X58.51Y94.69
X58.39Y95.74
X58.30Y96.80
X58.23Y97.83
X58.19Y98.96
X58.18Y99.42
X58.17Y121.83
X73.83
Y99.96
Y99.35
X73.86Y98.63
X73.90Y98.00
X73.96Y97.35
X74.04Y96.64
X74.13Y96.02
X74.24Y95.34
X74.36Y94.72
X74.49Y94.12
X74.64Y93.49
X74.82Y92.82
X74.99Y92.24
X75.21Y91.58
X75.42Y90.97
X75.65Y90.38
X75.88Y89.81
X76.14Y89.22
X76.40Y88.67
X76.70Y88.05
X77.00Y87.49
X77.30Y86.96
X77.63Y86.40
X77.96Y85.87
X78.31Y85.34
X78.65Y84.86
X79.03Y84.33
X79.41Y83.84
X79.80Y83.35
X80.19Y82.89
X80.64Y82.38
X81.04Y81.95
X81.52Y81.46
X81.92Y81.07
X82.42Y80.61
X82.88Y80.20
X83.32Y79.82
X83.86Y79.39
X84.35Y79.02
X84.86Y78.65
X85.38Y78.29
X85.86Y77.97
X86.40Y77.63
X86.96Y77.30
X87.50Y77.00
X88.05Y76.70
X88.64Y76.41
X89.19Y76.15
X89.79Y75.89
X90.41Y75.64
X90.99Y75.42
X91.58Y75.21
X92.25Y74.99
X92.81Y74.83
X93.46Y74.65
X94.11Y74.49
X94.75Y74.35
X95.36Y74.23
X95.98Y74.13
X96.64Y74.04
X97.33Y73.96
