(Design File: C..Users.msidell.VIASAT.s.wordclock.carbide3d.LightSensorWell.c2d)
(stockMin:0.00mm, 0.00mm, -3.20mm)
(stockMax:250.00mm, 40.00mm, 0.00mm)
(STOCK/BLOCK,250.00, 40.00, 3.20,0.00, 0.00, 3.20)
G90
G21
(Move to safe Z to avoid workholding)
G53G0Z-5.000
(well.-.Pocket)
M05
(TOOL/MILL,2.00, 0.00, 0.00, 0.00)
M6T282
M03S10000
(PREPOSITION FOR RAPID PLUNGE)
G0X226.19Y21.20
Z12.70
G1Z-0.51F304.8
Y21.85F762.0
X231.00
Y21.20
X226.19
X225.20Y20.20
Y22.85
X232.00
Y20.20
X225.20
X224.20Y19.20
Y23.85
X233.00
Y19.20
X224.20
X223.20Y18.20
Y24.85
X234.00
Y18.20
X223.20
X222.20Y17.20
Y25.85
X235.00
Y17.20
X222.20
Z12.70
G0X226.19Y21.20
Z-0.25
G1Z-1.02F304.8
Y21.85F762.0
X231.00
Y21.20
X226.19
X225.20Y20.20
Y22.85
X232.00
Y20.20
X225.20
X224.20Y19.20
Y23.85
X233.00
Y19.20
X224.20
X223.20Y18.20
Y24.85
X234.00
Y18.20
X223.20
X222.20Y17.20
Y25.85
X235.00
Y17.20
X222.20
Z12.70
G0X226.19Y21.20
Z-0.74
G1Z-1.50F304.8
Y21.85F762.0
X231.00
Y21.20
X226.19
X225.20Y20.20
Y22.85
X232.00
Y20.20
X225.20
X224.20Y19.20
Y23.85
X233.00
Y19.20
X224.20
X223.20Y18.20
Y24.85
X234.00
Y18.20
X223.20
X222.20Y17.20
Y25.85
X235.00
Y17.20
X222.20
Z12.70
M02
